lut-uploads/2026-07-24/C-9560-STD.cube
# Copyright: (C) Copyright 2016 by IWLTBAP
# Cannot be resold, shared or otherwise redistributed
# Website: http://luts.iwltbap.com
TITLE "IWLTBAP 9560 (Rec.709)"
LUT_3D_SIZE 5
DOMAIN_MIN 0.000000 0.000000 0.000000
DOMAIN_MAX 0.903226 0.903226 0.903226
0.026581 0.063171 0.084198
0.146640 0.082066 0.095533
0.471840 0.027832 0.104180
0.697910 0.018496 0.162714
0.852875 0.020917 0.195368
0.050988 0.175600 0.135361
0.158609 0.182025 0.121671
0.539911 0.178765 0.046646
0.783505 0.197579 0.018496
0.923889 0.245147 0.020917
0.097790 0.312929 0.205889
0.179484 0.355804 0.201120
0.565490 0.352834 0.122995
0.801298 0.376328 0.018496
0.939957 0.428974 0.020917
0.145639 0.476672 0.285378
0.256291 0.535117 0.281543
0.601936 0.583214 0.267089
0.831982 0.547601 0.018756
0.954590 0.583709 0.046305
0.159781 0.637645 0.366222
0.355079 0.700765 0.329836
0.627527 0.727977 0.324922
0.824181 0.746848 0.296610
0.957890 0.722556 0.031170
0.019592 0.065052 0.297033
0.101341 0.102140 0.199218
0.372652 0.111012 0.212603
0.705908 0.018694 0.256405
0.877329 0.020917 0.296665
0.030322 0.190936 0.234257
0.100576 0.227670 0.277343
0.480408 0.247718 0.253997
0.804299 0.204196 0.255455
0.968470 0.154789 0.242957
0.056654 0.358210 0.306183
0.132398 0.381310 0.307967
0.502319 0.396126 0.281851
0.818235 0.419193 0.261804
0.963734 0.453229 0.247063
0.065096 0.512528 0.384711
0.178745 0.554036 0.390831
0.533287 0.608792 0.352503
0.810621 0.591828 0.284950
0.953834 0.620260 0.260450
0.042651 0.655909 0.458672
0.377500 0.709240 0.448784
0.578918 0.753200 0.397972
0.795767 0.769562 0.422150
0.931805 0.753298 0.331642
0.071289 0.018194 0.502718
0.101423 0.015922 0.485464
0.234148 0.111712 0.375170
0.682865 0.018535 0.342104
0.896338 0.020917 0.420543
0.015922 0.232636 0.454522
0.033496 0.277204 0.514195
0.284770 0.293644 0.426134
0.759909 0.310551 0.417782
0.927245 0.337465 0.466751
0.015967 0.342615 0.418610
0.033535 0.398063 0.461828
0.434585 0.466332 0.454920
0.777399 0.497516 0.469170
0.911427 0.530389 0.503135
0.018496 0.542061 0.500360
0.034892 0.582210 0.512632
0.532808 0.630696 0.481300
0.787785 0.639859 0.468306
0.909247 0.681673 0.522129
0.020917 0.673566 0.560471
0.036164 0.716008 0.576841
0.594277 0.767997 0.521727
0.761957 0.799370 0.497846
0.909188 0.785983 0.503057
0.109078 0.018496 0.816406
0.147137 0.019150 0.772181
0.186692 0.018496 0.729679
0.639917 0.118992 0.501560
0.890552 0.020917 0.523135
0.018496 0.295365 0.729057
0.034876 0.344035 0.803486
0.045410 0.345963 0.804130
0.720216 0.344201 0.546231
0.938325 0.341873 0.633287
0.018496 0.400315 0.662090
0.034892 0.460800 0.728344
0.049781 0.515851 0.809836
0.746786 0.523205 0.606378
0.903888 0.568243 0.667264
0.018536 0.506484 0.624407
0.034912 0.567359 0.689995
0.070512 0.636036 0.755852
0.766480 0.689195 0.627041
0.901866 0.714620 0.685712
0.020917 0.672258 0.708483
0.036164 0.724252 0.747996
0.081406 0.776089 0.783621
0.754778 0.817234 0.656597
0.895400 0.818400 0.677121
0.128966 0.203292 0.976158
0.178008 0.217296 0.976158
0.214150 0.213920 0.976158
0.664757 0.131132 0.969163
0.914721 0.021651 0.821928
0.021135 0.369102 0.941564
0.067799 0.418537 0.964009
0.105379 0.424964 0.972476
0.669925 0.428764 0.903196
0.918860 0.394430 0.839142
0.020917 0.466421 0.889341
0.038523 0.513068 0.936240
0.088914 0.559660 0.966436
0.681596 0.588091 0.840021
0.899832 0.573709 0.821548
0.020917 0.552058 0.849835
0.036164 0.611942 0.904461
0.062286 0.661296 0.945244
0.716242 0.723259 0.847678
0.897005 0.719548 0.827073
0.020933 0.648690 0.835372
0.036172 0.706199 0.886174
0.048186 0.751941 0.929353
0.706082 0.812636 0.870136
0.889683 0.843743 0.822699
