lut-uploads/2026-07-24/C-9560-STD.cube
# Copyright: (C) Copyright 2016 by IWLTBAP
# Cannot be resold, shared or otherwise redistributed
# Website: http://luts.iwltbap.com
TITLE "IWLTBAP 9560 (Rec.709)"
LUT_3D_SIZE 32
0.026581 0.063171 0.084198
0.035582 0.066128 0.077938
0.046627 0.070073 0.076810
0.060104 0.072759 0.081183
0.074606 0.075297 0.086704
0.092821 0.077272 0.090444
0.117170 0.079950 0.094061
0.146640 0.082066 0.095533
0.179816 0.083389 0.096484
0.220479 0.082634 0.097048
0.271322 0.079070 0.096635
0.325657 0.071691 0.096429
0.381354 0.057474 0.095492
0.431726 0.040216 0.096976
0.471840 0.027832 0.104180
0.507851 0.018709 0.112275
0.540492 0.016665 0.118640
0.573858 0.017037 0.127455
0.609860 0.017410 0.136649
0.642623 0.017782 0.145318
0.670767 0.018134 0.154548
0.697910 0.018496 0.162714
0.725533 0.018868 0.170482
0.753186 0.019210 0.175635
0.778873 0.019551 0.179553
0.798153 0.019898 0.186587
0.816159 0.020239 0.190075
0.834893 0.020579 0.192731
0.852875 0.020917 0.195368
0.871281 0.021230 0.197699
0.889913 0.021570 0.199299
0.906158 0.021881 0.197754
0.028557 0.077916 0.087447
0.035909 0.079867 0.084853
0.046460 0.083126 0.083032
0.059695 0.085651 0.084546
0.074788 0.087555 0.088875
0.093909 0.089769 0.092657
0.118016 0.092033 0.095711
0.148457 0.094159 0.097401
0.183578 0.095291 0.098466
0.227613 0.092597 0.097050
0.284859 0.086495 0.094509
0.345165 0.076544 0.092756
0.401418 0.061299 0.091655
0.447724 0.047424 0.093457
0.486757 0.032270 0.096910
0.522198 0.020579 0.102230
0.552626 0.019343 0.111252
0.584490 0.019671 0.120589
0.620164 0.020025 0.128751
0.653498 0.020366 0.137956
0.683601 0.020705 0.146441
0.712761 0.021046 0.153040
0.741288 0.021378 0.160093
0.767620 0.021696 0.166043
0.791990 0.022036 0.170203
0.813113 0.022346 0.173503
0.832060 0.022681 0.176615
0.850952 0.022966 0.178393
0.869062 0.023276 0.178957
0.887468 0.023586 0.179999
0.905715 0.023896 0.181743
0.920951 0.024204 0.181724
0.030515 0.096100 0.095233
0.037310 0.096721 0.093160
0.045902 0.096826 0.090237
0.059388 0.100362 0.090506
0.074499 0.103354 0.092321
0.093812 0.105547 0.095865
0.119236 0.106004 0.098798
0.148567 0.106886 0.100149
0.185839 0.107055 0.100311
0.234021 0.104639 0.098695
0.296100 0.098548 0.094758
0.358636 0.090003 0.091465
0.414828 0.077805 0.087823
0.462291 0.063975 0.083411
0.503506 0.043705 0.081527
0.539171 0.026850 0.080704
0.567353 0.024093 0.087970
0.598253 0.022557 0.096201
0.634569 0.022502 0.109752
0.668785 0.022813 0.121247
0.699320 0.023121 0.130476
0.729169 0.023431 0.137475
0.757285 0.023741 0.142775
0.783436 0.024069 0.147011
0.807809 0.024421 0.151702
0.829020 0.024689 0.155819
0.848104 0.024947 0.158441
0.867371 0.025230 0.158865
0.885731 0.025873 0.154813
0.904221 0.026587 0.151959
0.922383 0.026960 0.152652
0.936427 0.026649 0.158547
0.033336 0.111704 0.101738
0.039921 0.112590 0.100580
0.048348 0.113319 0.098634
0.058777 0.112620 0.095059
0.073814 0.116220 0.096545
0.093961 0.119000 0.098155
0.121496 0.119529 0.101234
0.152489 0.119427 0.102007
0.192694 0.119076 0.101483
0.243252 0.117512 0.101518
0.304033 0.114746 0.098694
0.366812 0.109570 0.094350
0.424239 0.100863 0.085168
0.475035 0.087265 0.072320
0.519261 0.065590 0.062663
0.556417 0.046879 0.051875
0.585819 0.040695 0.054030
0.618279 0.027508 0.057214
0.653142 0.025757 0.080540
0.687005 0.026592 0.095925
0.717790 0.029032 0.105224
0.747926 0.031615 0.105248
0.775429 0.029929 0.109402
0.800144 0.029827 0.113546
0.824040 0.034214 0.112150
0.845174 0.032938 0.114610
0.864302 0.032583 0.117005
0.883543 0.029945 0.114689
0.903046 0.031794 0.096353
0.922417 0.034056 0.081845
0.939238 0.036111 0.083362
0.952589 0.043875 0.090103
0.036419 0.126330 0.109190
0.043173 0.127799 0.108313
0.051294 0.129209 0.107088
0.061452 0.128716 0.102933
0.073386 0.127230 0.100148
0.093548 0.130517 0.101494
0.122026 0.131821 0.103797
0.154987 0.133319 0.105116
0.194066 0.133246 0.104379
0.242712 0.133804 0.104585
0.305622 0.133032 0.102746
0.373314 0.128561 0.097955
0.433512 0.119466 0.085899
0.484680 0.105344 0.066137
0.530510 0.090268 0.047646
0.571209 0.076051 0.026744
0.605120 0.061583 0.019737
0.638752 0.050925 0.024375
0.671183 0.060079 0.049353
0.703756 0.062248 0.055994
0.734418 0.060676 0.062914
0.764746 0.062353 0.057484
0.791629 0.066993 0.055993
0.816770 0.060307 0.049022
0.838935 0.060686 0.048774
0.860474 0.066102 0.049759
0.878979 0.073218 0.051544
0.898258 0.064584 0.042799
0.917310 0.060750 0.031477
0.934887 0.074260 0.024601
0.950374 0.082390 0.028935
0.963570 0.095519 0.032708
0.040708 0.142816 0.117897
0.047946 0.143446 0.116477
0.056130 0.144662 0.115306
0.066275 0.145728 0.112583
0.076404 0.144821 0.108587
0.092961 0.143087 0.106366
0.122432 0.144945 0.107985
0.156081 0.147729 0.109711
0.196547 0.149429 0.108843
0.244365 0.151489 0.108450
0.305908 0.151776 0.105698
0.376453 0.149011 0.099397
0.441096 0.141776 0.087290
0.493308 0.131661 0.062677
0.536113 0.123005 0.039873
0.575003 0.114366 0.021095
0.611581 0.111667 0.017228
0.648940 0.108102 0.018418
0.683738 0.110997 0.026606
0.716626 0.113471 0.023739
0.746475 0.110339 0.025267
0.776189 0.109527 0.021632
0.802531 0.112207 0.021230
0.825239 0.115956 0.019452
0.846419 0.121596 0.019749
0.866996 0.131193 0.021913
0.884789 0.142431 0.022303
0.902888 0.137822 0.020662
0.920545 0.140566 0.020917
0.937683 0.152456 0.021230
0.953550 0.155575 0.021570
0.965337 0.164486 0.026405
0.045509 0.158541 0.126352
0.051988 0.159232 0.125871
0.060626 0.161054 0.124846
0.070877 0.165554 0.124573
0.082016 0.166301 0.121289
0.096567 0.164902 0.116839
0.123172 0.161533 0.113702
0.157420 0.164750 0.115129
0.198318 0.168088 0.115807
0.247754 0.169914 0.114456
0.309588 0.170692 0.110968
0.376596 0.170151 0.104006
0.440927 0.164606 0.090878
0.495275 0.157173 0.066974
0.538635 0.152679 0.043327
0.577607 0.150436 0.021221
0.616016 0.151006 0.016704
0.654913 0.149856 0.017114
0.692366 0.151390 0.017694
0.724112 0.155544 0.017782
0.753175 0.160392 0.018134
0.781525 0.156043 0.018496
0.806876 0.160130 0.018868
0.828877 0.170230 0.019210
0.849272 0.185767 0.019551
0.869782 0.189632 0.019898
0.887655 0.195646 0.020239
0.905725 0.201139 0.020579
0.922696 0.206823 0.020917
0.939711 0.212349 0.021230
0.955210 0.213939 0.023837
0.965428 0.224651 0.040994
0.050988 0.175600 0.135361
0.057360 0.176179 0.134902
0.065776 0.178524 0.134259
0.076183 0.182936 0.134739
0.087150 0.187079 0.134147
0.100252 0.186882 0.129044
0.123971 0.184957 0.123413
0.158609 0.182025 0.121671
0.199919 0.185932 0.123058
0.252286 0.189319 0.122328
0.314213 0.189852 0.117493
0.380250 0.188938 0.108457
0.441506 0.185419 0.093808
0.494825 0.180908 0.073618
0.539911 0.178765 0.046646
0.581331 0.176881 0.022072
0.620622 0.177166 0.016665
0.658748 0.177567 0.017037
0.696304 0.181647 0.017410
0.728816 0.186762 0.017782
0.756884 0.194969 0.018134
0.783505 0.197579 0.018496
0.808660 0.200224 0.018868
0.831759 0.208148 0.019210
0.852950 0.218330 0.019551
0.872222 0.225999 0.019898
0.890153 0.231636 0.020239
0.907551 0.238764 0.020579
0.923889 0.245147 0.020917
0.940706 0.249681 0.021230
0.956331 0.252177 0.026736
0.966773 0.266172 0.049379
0.056823 0.193303 0.144615
0.063305 0.194182 0.144381
0.071506 0.196502 0.143992
0.081312 0.200612 0.144931
0.092389 0.205425 0.145884
0.105147 0.209231 0.143030
0.125002 0.209372 0.135564
0.162086 0.206900 0.133616
0.203371 0.203818 0.130079
0.258569 0.208039 0.129389
0.320170 0.211048 0.126227
0.384994 0.210576 0.117696
0.443908 0.207026 0.101955
0.496953 0.202623 0.081660
0.543687 0.199741 0.045197
0.584045 0.200545 0.020815
0.622199 0.203875 0.017088
0.660043 0.207138 0.017037
0.697715 0.209775 0.017410
0.730950 0.215045 0.017782
0.759709 0.220507 0.018134
0.785409 0.227853 0.018496
0.810488 0.231462 0.018868
0.833728 0.239034 0.019210
0.855748 0.247336 0.019551
0.874536 0.258103 0.019898
0.892258 0.267304 0.020239
0.908924 0.275099 0.020579
0.924716 0.280000 0.020917
0.941096 0.283185 0.021230
0.956253 0.286840 0.032875
0.967748 0.300028 0.057251
0.062861 0.212301 0.154558
0.069306 0.213229 0.153962
0.076790 0.214804 0.154181
0.086978 0.218983 0.154691
0.097645 0.224737 0.156421
0.111043 0.230927 0.156607
0.127427 0.235829 0.150567
0.162464 0.235732 0.146208
0.209260 0.233055 0.143437
0.264220 0.227511 0.137458
0.327809 0.230777 0.134559
0.390869 0.233142 0.126963
0.448750 0.230775 0.111690
0.499627 0.226781 0.089006
0.546893 0.224128 0.049384
0.587476 0.223642 0.021068
0.625149 0.226723 0.017167
0.662352 0.231548 0.017037
0.699358 0.236152 0.017410
0.732889 0.241533 0.017782
0.761550 0.247439 0.018134
0.787665 0.253171 0.018496
0.812858 0.258446 0.018868
0.836447 0.267144 0.019210
0.858698 0.277351 0.019551
0.876634 0.286601 0.019898
0.894171 0.295703 0.020239
0.911051 0.302856 0.020579
0.927194 0.308972 0.020917
0.943153 0.313259 0.021230
0.957857 0.316931 0.030385
0.970349 0.328411 0.043985
0.070215 0.232945 0.165784
0.076175 0.233533 0.164624
0.082967 0.235040 0.164701
0.093118 0.239696 0.165765
0.103625 0.245756 0.167213
0.116589 0.253248 0.168618
0.132573 0.261188 0.165561
0.159411 0.265637 0.159009
0.209494 0.265378 0.158092
0.270684 0.261137 0.151829
0.334739 0.253479 0.142922
0.398411 0.255673 0.134684
0.454365 0.257132 0.122883
0.503733 0.255108 0.099359
0.547864 0.252542 0.070122
0.590899 0.251132 0.028657
0.630806 0.250675 0.016883
0.667805 0.254552 0.017037
0.702837 0.261575 0.017410
0.735747 0.267374 0.017782
0.764722 0.271971 0.018134
0.790618 0.277501 0.018496
0.815428 0.283478 0.018868
0.838636 0.292196 0.019210
0.860894 0.304595 0.019551
0.878516 0.313239 0.019898
0.895861 0.320522 0.020239
0.912980 0.325363 0.020579
0.929933 0.333659 0.020917
0.945861 0.341127 0.021230
0.960456 0.345651 0.024324
0.973555 0.353943 0.027611
0.077297 0.253245 0.176387
0.083398 0.254267 0.175549
0.090324 0.256078 0.175614
0.099977 0.260485 0.176340
0.110012 0.266511 0.177464
0.122700 0.274574 0.179255
0.139304 0.283253 0.177428
0.160826 0.291611 0.171609
0.207707 0.295443 0.169634
0.274200 0.294916 0.168026
0.342353 0.287598 0.158601
0.404601 0.277778 0.143359
0.459054 0.279157 0.131430
0.507624 0.280925 0.114712
0.551520 0.280106 0.085121
0.594835 0.277143 0.040182
0.636003 0.276231 0.018746
0.673189 0.276229 0.017037
0.707810 0.282137 0.017410
0.739639 0.290996 0.017782
0.768553 0.295866 0.018134
0.793928 0.299620 0.018496
0.818547 0.306524 0.018868
0.840951 0.315686 0.019210
0.862497 0.327753 0.019551
0.881007 0.337485 0.019898
0.898909 0.344237 0.020239
0.915611 0.347966 0.020579
0.932167 0.355662 0.020917
0.948410 0.365142 0.021230
0.962702 0.372022 0.021570
0.975487 0.377768 0.022644
0.084392 0.273876 0.186562
0.090767 0.274980 0.185402
0.097698 0.277177 0.185729
0.106779 0.281258 0.186555
0.116714 0.286828 0.187394
0.129620 0.295240 0.189218
0.146651 0.303734 0.187709
0.164974 0.313628 0.181004
0.205911 0.322407 0.179228
0.273237 0.322802 0.180688
0.343877 0.319761 0.173879
0.408436 0.310392 0.161067
0.461919 0.300991 0.140858
0.509765 0.302465 0.125737
0.555881 0.303373 0.093367
0.599611 0.301929 0.053688
0.640155 0.301736 0.022436
0.676978 0.301159 0.017037
0.711749 0.303186 0.017410
0.743397 0.311898 0.017782
0.771403 0.320427 0.018134
0.796328 0.323930 0.018496
0.821273 0.330400 0.018868
0.844107 0.338734 0.019210
0.865141 0.348766 0.019551
0.883562 0.358868 0.019898
0.901630 0.366468 0.020239
0.918253 0.373379 0.020579
0.934051 0.378271 0.020917
0.950403 0.387651 0.021230
0.964409 0.395292 0.021570
0.976235 0.401062 0.023071
0.090966 0.293616 0.196416
0.097652 0.294919 0.195471
0.104809 0.297418 0.195653
0.113793 0.302082 0.196737
0.123629 0.307027 0.197577
0.136968 0.315679 0.199207
0.153822 0.324073 0.197509
0.171684 0.334250 0.190842
0.207014 0.345348 0.186254
0.271642 0.350931 0.190807
0.344684 0.348906 0.188177
0.414311 0.344145 0.177526
0.468020 0.334592 0.159543
0.513770 0.326294 0.136936
0.559270 0.326637 0.109525
0.604386 0.326510 0.057184
0.644509 0.327035 0.022203
0.680606 0.325496 0.017057
0.715308 0.326744 0.017410
0.746371 0.333800 0.017782
0.773871 0.344447 0.018134
0.798169 0.351358 0.018496
0.823956 0.356443 0.018868
0.847412 0.362674 0.019210
0.868342 0.370499 0.019551
0.886274 0.378863 0.019898
0.904477 0.388027 0.020239
0.921353 0.398044 0.020579
0.936855 0.403394 0.020917
0.952298 0.410606 0.021230
0.966382 0.418348 0.021570
0.976545 0.425147 0.034675
0.097790 0.312929 0.205889
0.104413 0.314137 0.205316
0.111819 0.317247 0.205595
0.120800 0.322483 0.206603
0.130828 0.328346 0.207834
0.144561 0.336207 0.208974
0.161159 0.344827 0.207502
0.179484 0.355804 0.201120
0.211626 0.366876 0.195491
0.271453 0.375326 0.198372
0.346424 0.377941 0.200686
0.418121 0.374839 0.191954
0.477932 0.368341 0.176884
0.523401 0.359801 0.153995
0.565490 0.352834 0.122995
0.610140 0.351763 0.065753
0.649770 0.351739 0.022503
0.685206 0.351748 0.017065
0.720076 0.350157 0.017410
0.750713 0.357244 0.017782
0.778071 0.367065 0.018134
0.801298 0.376328 0.018496
0.826509 0.382272 0.018868
0.850014 0.387788 0.019210
0.871157 0.393766 0.019551
0.889227 0.401357 0.019898
0.907012 0.411305 0.020239
0.924346 0.422038 0.020579
0.939957 0.428974 0.020917
0.954366 0.433769 0.021230
0.967695 0.442225 0.026881
0.975818 0.452483 0.061516
0.104788 0.333137 0.215892
0.111466 0.334216 0.215448
0.119094 0.337696 0.215717
0.127868 0.342700 0.216509
0.138430 0.350654 0.218661
0.152333 0.358291 0.219738
0.169014 0.367289 0.218570
0.189269 0.378368 0.211451
0.218967 0.389624 0.204564
0.271703 0.398550 0.205574
0.349313 0.403457 0.210545
0.422153 0.405242 0.207212
0.483711 0.400694 0.192388
0.532015 0.392489 0.171763
0.574114 0.385307 0.141997
0.615666 0.377147 0.086775
0.655105 0.375313 0.030698
0.690248 0.377670 0.017454
0.724781 0.377491 0.017410
0.755242 0.380920 0.017782
0.782687 0.389451 0.018134
0.806086 0.398560 0.018496
0.829016 0.405821 0.018868
0.852642 0.412619 0.019210
0.873957 0.420099 0.019551
0.891869 0.427340 0.019898
0.909203 0.435975 0.020239
0.926776 0.445288 0.020579
0.942394 0.452629 0.020917
0.956363 0.458111 0.021230
0.968232 0.465564 0.035741
0.974843 0.479102 0.087943
0.111257 0.353094 0.226077
0.118822 0.355826 0.225893
0.126846 0.359050 0.225704
0.135667 0.364076 0.226558
0.146368 0.373440 0.229587
0.160202 0.382164 0.231424
0.178160 0.392410 0.230665
0.200524 0.403938 0.223011
0.226811 0.414088 0.213286
0.278220 0.422890 0.213221
0.353395 0.429663 0.218586
0.427441 0.433071 0.218925
0.488174 0.431297 0.207736
0.538066 0.424430 0.189979
0.581081 0.417421 0.163821
0.622648 0.409040 0.118324
0.660920 0.399223 0.046909
0.696224 0.400666 0.019162
0.730845 0.404485 0.017410
0.760630 0.406298 0.017782
0.786631 0.411938 0.018134
0.810817 0.420988 0.018496
0.832973 0.428489 0.018868
0.855169 0.436775 0.019210
0.876977 0.446527 0.019551
0.894756 0.453127 0.019898
0.911765 0.461209 0.020239
0.928891 0.469256 0.020579
0.944458 0.476674 0.020917
0.957895 0.483217 0.022930
0.968040 0.490469 0.053170
0.975181 0.501822 0.105526
0.118436 0.374528 0.236641
0.126206 0.378385 0.236611
0.134377 0.381927 0.236520
0.143307 0.386726 0.237230
0.155143 0.398197 0.241384
0.170290 0.407724 0.243434
0.189093 0.419070 0.242179
0.212040 0.431873 0.235902
0.237087 0.441874 0.225225
0.285527 0.450153 0.220038
0.363622 0.457180 0.226959
0.431667 0.460665 0.229164
0.491504 0.460033 0.222449
0.539211 0.457656 0.208423
0.584759 0.452849 0.188429
0.627747 0.445915 0.153211
0.667343 0.436238 0.093913
0.701821 0.427674 0.030297
0.736659 0.430692 0.017880
0.766982 0.432639 0.017782
0.792192 0.436201 0.018134
0.815821 0.443471 0.018496
0.838141 0.451760 0.018868
0.859215 0.461822 0.019210
0.880076 0.471748 0.019551
0.897356 0.477729 0.019898
0.914244 0.485585 0.020239
0.931242 0.493060 0.020579
0.946902 0.500062 0.020917
0.959338 0.509749 0.032908
0.967803 0.517074 0.073210
0.975692 0.524191 0.117666
0.125992 0.399904 0.249034
0.133688 0.403267 0.249078
0.141842 0.407325 0.249235
0.150201 0.411990 0.250032
0.163348 0.424285 0.254406
0.181783 0.435881 0.256634
0.200811 0.447374 0.255052
0.223887 0.460911 0.249436
0.250340 0.472337 0.239469
0.296993 0.481222 0.230212
0.375197 0.487536 0.236641
0.439315 0.491315 0.240440
0.493590 0.492049 0.238537
0.540381 0.491527 0.228117
0.583042 0.488707 0.212056
0.628177 0.484992 0.187132
0.670978 0.476747 0.139484
0.709046 0.467273 0.065219
0.741496 0.460948 0.020942
0.771190 0.461051 0.017782
0.796793 0.462648 0.018134
0.820828 0.468583 0.018496
0.843195 0.476418 0.018868
0.863587 0.485506 0.019210
0.883500 0.495408 0.019551
0.900595 0.501012 0.019898
0.917189 0.507603 0.020239
0.933925 0.515020 0.020579
0.949592 0.520821 0.020917
0.960574 0.533800 0.051407
0.969369 0.542381 0.091400
0.977419 0.546711 0.126106
0.133066 0.426470 0.262133
0.140750 0.429971 0.262534
0.149122 0.434508 0.262950
0.157646 0.440543 0.264441
0.169427 0.448744 0.266816
0.189796 0.461649 0.269344
0.211229 0.473657 0.267661
0.234667 0.487202 0.261184
0.262685 0.499763 0.250329
0.308895 0.510251 0.241979
0.381744 0.517004 0.245327
0.449214 0.521240 0.251098
0.500603 0.522985 0.251741
0.543959 0.524382 0.247102
0.585982 0.523182 0.232753
0.628490 0.520167 0.213918
0.671540 0.514467 0.180789
0.714537 0.504550 0.105695
0.749239 0.496084 0.030368
0.776094 0.489734 0.018854
0.800765 0.489509 0.018134
0.823781 0.495819 0.018496
0.847223 0.502979 0.018868
0.867822 0.510759 0.019210
0.887036 0.518956 0.019551
0.904041 0.524358 0.019898
0.920368 0.529280 0.020239
0.936714 0.536069 0.020579
0.951458 0.541721 0.023520
0.961807 0.551881 0.062452
0.971749 0.562265 0.099436
0.979976 0.566622 0.131531
0.139608 0.451814 0.274129
0.147045 0.456290 0.275550
0.154983 0.460749 0.276359
0.164615 0.467652 0.277868
0.176260 0.474216 0.279097
0.195089 0.483360 0.280171
0.219549 0.496318 0.279175
0.245215 0.510865 0.271939
0.273933 0.524589 0.259710
0.318736 0.535365 0.250385
0.389924 0.542458 0.253116
0.456493 0.547038 0.259184
0.508647 0.550710 0.262132
0.552739 0.553668 0.260470
0.594166 0.554826 0.250982
0.634728 0.554421 0.235312
0.673751 0.549396 0.212827
0.713809 0.540842 0.162513
0.752401 0.530888 0.072166
0.781476 0.523182 0.026044
0.805453 0.517032 0.018267
0.827572 0.522008 0.018496
0.850161 0.529085 0.018868
0.871395 0.536004 0.019210
0.889566 0.541962 0.019551
0.906653 0.545651 0.019898
0.923658 0.551731 0.020239
0.939548 0.557570 0.020768
0.952662 0.562241 0.033091
0.962548 0.569847 0.071025
0.972845 0.579043 0.106353
0.982073 0.584294 0.134643
0.145639 0.476672 0.285378
0.152110 0.480799 0.287245
0.159914 0.484882 0.288298
0.169769 0.491084 0.289560
0.183062 0.500014 0.291275
0.201532 0.507611 0.291790
0.227470 0.519496 0.289463
0.256291 0.535117 0.281543
0.285931 0.549444 0.269259
0.330432 0.559557 0.257799
0.400961 0.565584 0.260606
0.463956 0.570805 0.267004
0.513881 0.575423 0.270965
0.559488 0.579757 0.271884
0.601936 0.583214 0.267089
0.641175 0.584866 0.254027
0.679109 0.583178 0.236821
0.715387 0.576583 0.209541
0.750943 0.568351 0.154989
0.783456 0.560362 0.080453
0.809739 0.553124 0.025287
0.831982 0.547601 0.018756
0.853392 0.552866 0.018868
0.873709 0.559387 0.019210
0.892061 0.565993 0.019551
0.909237 0.568298 0.019898
0.925717 0.573555 0.020239
0.941411 0.580131 0.021088
0.954590 0.583709 0.046305
0.964524 0.589637 0.078938
0.975198 0.597857 0.108609
0.984069 0.603632 0.135118
0.150182 0.500011 0.296410
0.156272 0.505138 0.299096
0.164665 0.510593 0.300758
0.175461 0.516655 0.301899
0.188620 0.525369 0.303787
0.207123 0.532827 0.304256
0.237152 0.544415 0.299820
0.269796 0.560782 0.289654
0.300338 0.574956 0.276306
0.342286 0.585347 0.264027
0.412706 0.590965 0.267418
0.475373 0.595149 0.274695
0.522942 0.599639 0.279090
0.563720 0.604395 0.280826
0.604730 0.608779 0.279759
0.643227 0.612618 0.273546
0.679759 0.613549 0.260076
0.716484 0.610638 0.240301
0.750182 0.605282 0.210705
0.780381 0.600153 0.162277
0.810501 0.593574 0.067278
0.835604 0.585958 0.022281
0.856701 0.578401 0.018906
0.876350 0.582774 0.019210
0.894525 0.588575 0.019551
0.911752 0.593262 0.019898
0.928147 0.595411 0.020239
0.943265 0.600548 0.023322
0.956542 0.604604 0.049239
0.967494 0.609097 0.077097
0.977682 0.616666 0.103328
0.984344 0.623271 0.134244
0.153567 0.523601 0.308201
0.160166 0.530481 0.311695
0.169465 0.536518 0.312861
0.180646 0.543641 0.314437
0.192295 0.551828 0.316572
0.217488 0.560610 0.316617
0.251254 0.572057 0.309863
0.283450 0.587012 0.299137
0.316099 0.600617 0.283683
0.360677 0.610486 0.271220
0.424763 0.616182 0.273959
0.483319 0.620172 0.280964
0.530796 0.622801 0.286110
0.569897 0.626373 0.288595
0.608149 0.631231 0.288981
0.644640 0.635787 0.286763
0.679994 0.639747 0.278828
0.716265 0.640940 0.265984
0.750728 0.638414 0.244304
0.779744 0.635357 0.216622
0.806554 0.629278 0.161355
0.835914 0.622559 0.070880
0.858617 0.614990 0.028189
0.878339 0.607938 0.019245
0.896238 0.610808 0.019551
0.912706 0.615585 0.019898
0.929319 0.618675 0.020239
0.944255 0.621947 0.026731
0.957423 0.626995 0.048024
0.968764 0.630991 0.069531
0.978790 0.635278 0.088366
0.984322 0.641301 0.126913
0.156307 0.548669 0.321070
0.164039 0.556156 0.323893
0.174758 0.562288 0.324466
0.185005 0.569907 0.326333
0.197510 0.578192 0.328758
0.233666 0.587927 0.326621
0.267873 0.601424 0.318407
0.299150 0.614584 0.308059
0.330527 0.626444 0.293726
0.375319 0.635849 0.280483
0.435352 0.641562 0.280665
0.489533 0.645162 0.286796
0.533479 0.647656 0.291983
0.573352 0.649891 0.295231
0.611556 0.652669 0.296550
0.646536 0.656869 0.296369
0.680570 0.660895 0.291568
0.716037 0.665277 0.283805
0.750690 0.667490 0.273160
0.780952 0.666278 0.251463
0.806102 0.661492 0.224237
0.831556 0.654545 0.173587
0.857264 0.648704 0.092003
0.878359 0.641040 0.026034
0.896570 0.635602 0.019583
0.912966 0.636939 0.019898
0.929895 0.640099 0.020239
0.945264 0.643391 0.023216
0.958658 0.647485 0.031068
0.970311 0.651912 0.040780
0.979815 0.656136 0.056776
0.983702 0.662973 0.109572
0.158061 0.573910 0.333906
0.166624 0.579204 0.334661
0.177511 0.585688 0.335413
0.187672 0.593097 0.337076
0.212376 0.602767 0.337653
0.252497 0.613546 0.332756
0.283784 0.626711 0.324444
0.316153 0.639480 0.313198
0.345674 0.650562 0.298411
0.382540 0.660223 0.286122
0.442248 0.664869 0.287223
0.495205 0.667064 0.292778
0.538682 0.669064 0.297977
0.576863 0.670869 0.302011
0.613185 0.673377 0.304205
0.648578 0.676651 0.304267
0.683207 0.679830 0.301482
0.716860 0.683823 0.294459
0.749278 0.688192 0.287241
0.779532 0.689980 0.276461
0.804616 0.686765 0.257140
0.827149 0.681931 0.229741
0.852677 0.678896 0.173827
0.878441 0.671951 0.071798
0.897087 0.664561 0.021799
0.913431 0.657778 0.019922
0.930070 0.660566 0.020239
0.945856 0.664030 0.020579
0.959903 0.666188 0.021272
0.971749 0.670276 0.023209
0.980155 0.674225 0.047105
0.983289 0.680885 0.109320
0.158774 0.595928 0.345056
0.168997 0.601138 0.344926
0.178561 0.607770 0.346135
0.192336 0.615449 0.347348
0.228775 0.626007 0.345964
0.267186 0.637330 0.340173
0.296430 0.649354 0.331112
0.330216 0.661845 0.319179
0.359401 0.672453 0.304087
0.394069 0.680930 0.292021
0.450815 0.684708 0.293955
0.500325 0.686139 0.299536
0.542887 0.688374 0.304480
0.582359 0.690050 0.308610
0.617840 0.692392 0.310940
0.651407 0.695152 0.311450
0.685852 0.698154 0.309497
0.718719 0.700980 0.303453
0.749143 0.704800 0.296238
0.777168 0.707177 0.288577
0.803842 0.708985 0.279888
0.825305 0.706798 0.264492
0.847175 0.702584 0.236229
0.870939 0.698920 0.183132
0.893908 0.693077 0.095307
0.912845 0.685858 0.030692
0.929748 0.679826 0.021179
0.945927 0.683388 0.020579
0.960268 0.684879 0.020917
0.971959 0.687164 0.021230
0.979127 0.691135 0.055796
0.983173 0.695322 0.120064
0.159513 0.617838 0.356602
0.169808 0.622967 0.356564
0.179715 0.630017 0.357759
0.198799 0.637486 0.358068
0.243206 0.646818 0.354461
0.279865 0.657694 0.348087
0.309949 0.669897 0.337065
0.343069 0.681698 0.324633
0.370501 0.691591 0.310205
0.405037 0.699501 0.297374
0.461480 0.701925 0.301458
0.509113 0.703094 0.307291
0.549982 0.705841 0.312091
0.586965 0.708014 0.315928
0.621924 0.709848 0.318243
0.655590 0.711894 0.319172
0.689214 0.714881 0.317560
0.721482 0.717725 0.313438
