lut-uploads/2026-07-24/C-9560-STD.cube
# Copyright: (C) Copyright 2016 by IWLTBAP
# Cannot be resold, shared or otherwise redistributed
# Website: http://luts.iwltbap.com
TITLE "IWLTBAP 9560 (Rec.709)"
LUT_3D_SIZE 8
DOMAIN_MIN 0.000000 0.000000 0.000000
DOMAIN_MAX 0.903226 0.903226 0.903226
0.026581 0.063171 0.084198
0.074606 0.075297 0.086704
0.179816 0.083389 0.096484
0.381354 0.057474 0.095492
0.540492 0.016665 0.118640
0.670767 0.018134 0.154548
0.778873 0.019551 0.179553
0.852875 0.020917 0.195368
0.036419 0.126330 0.109190
0.073386 0.127230 0.100148
0.194066 0.133246 0.104379
0.433512 0.119466 0.085899
0.605120 0.061583 0.019737
0.734418 0.060676 0.062914
0.838935 0.060686 0.048774
0.917310 0.060750 0.031477
0.056823 0.193303 0.144615
0.092389 0.205425 0.145884
0.203371 0.203818 0.130079
0.443908 0.207026 0.101955
0.622199 0.203875 0.017088
0.759709 0.220507 0.018134
0.855748 0.247336 0.019551
0.924716 0.280000 0.020917
0.084392 0.273876 0.186562
0.116714 0.286828 0.187394
0.205911 0.322407 0.179228
0.461919 0.300991 0.140858
0.640155 0.301736 0.022436
0.771403 0.320427 0.018134
0.865141 0.348766 0.019551
0.934051 0.378271 0.020917
0.111257 0.353094 0.226077
0.146368 0.373440 0.229587
0.226811 0.414088 0.213286
0.488174 0.431297 0.207736
0.660920 0.399223 0.046909
0.786631 0.411938 0.018134
0.876977 0.446527 0.019551
0.944458 0.476674 0.020917
0.139608 0.451814 0.274129
0.176260 0.474216 0.279097
0.273933 0.524589 0.259710
0.508647 0.550710 0.262132
0.673751 0.549396 0.212827
0.805453 0.517032 0.018267
0.889566 0.541962 0.019551
0.952662 0.562241 0.033091
0.156307 0.548669 0.321070
0.197510 0.578192 0.328758
0.330527 0.626444 0.293726
0.533479 0.647656 0.291983
0.680570 0.660895 0.291568
0.806102 0.661492 0.224237
0.896570 0.635602 0.019583
0.958658 0.647485 0.031068
0.159781 0.637645 0.366222
0.257564 0.667588 0.362484
0.382025 0.710148 0.314533
0.559151 0.723964 0.318275
0.691322 0.733088 0.326622
0.800275 0.744672 0.303950
0.879170 0.744532 0.260455
0.957890 0.722556 0.031170
0.027385 0.078192 0.179592
0.064555 0.082506 0.140793
0.150227 0.091974 0.145806
0.305514 0.106462 0.164420
0.517197 0.066494 0.175487
0.677223 0.018134 0.194200
0.789512 0.019551 0.225044
0.863377 0.020917 0.244253
0.032206 0.132420 0.160397
0.074845 0.145503 0.169598
0.172856 0.155661 0.158414
0.389347 0.159026 0.170974
0.592036 0.118298 0.161111
0.750976 0.028619 0.162013
0.845886 0.029606 0.193290
0.926235 0.030561 0.197898
0.047669 0.214515 0.191360
0.085088 0.222972 0.195005
0.170403 0.226368 0.173871
0.415333 0.239320 0.185103
0.625854 0.228221 0.157192
0.793151 0.206446 0.044823
0.888313 0.219860 0.030283
0.959789 0.238410 0.076312
0.071431 0.294836 0.234041
0.109964 0.304452 0.234790
0.189136 0.328738 0.231860
0.424528 0.324990 0.209472
0.631786 0.324834 0.166933
0.794386 0.323373 0.049137
0.890492 0.347190 0.029616
0.963634 0.368488 0.054401
0.096219 0.376284 0.274129
0.131763 0.391461 0.281484
0.217541 0.414900 0.274454
0.423081 0.447570 0.265858
0.635201 0.424747 0.200474
0.794339 0.423584 0.060694
0.893430 0.449401 0.031480
0.963282 0.482035 0.077116
0.110896 0.468427 0.323361
0.153683 0.495268 0.331496
0.266198 0.519703 0.322827
0.452655 0.561716 0.301132
0.637902 0.574947 0.308830
0.795463 0.540221 0.150354
0.898042 0.551360 0.048479
0.966040 0.576670 0.049786
0.117760 0.561796 0.370480
0.169366 0.596648 0.378763
0.351138 0.627652 0.357655
0.506111 0.660157 0.337329
0.665196 0.668996 0.349312
0.787340 0.678584 0.331813
0.890680 0.651134 0.170665
0.960278 0.663734 0.169958
0.106430 0.645699 0.417024
0.196970 0.681112 0.421364
0.411832 0.712416 0.386173
0.520647 0.736358 0.361104
0.669095 0.745437 0.382452
0.780318 0.756146 0.377124
0.862312 0.764465 0.368335
0.944944 0.738002 0.241005
0.019284 0.060709 0.333147
0.049751 0.051649 0.314960
0.116278 0.105259 0.221471
0.257969 0.111398 0.218671
0.471472 0.094953 0.236003
0.669906 0.019558 0.268437
0.799419 0.019551 0.297479
0.881916 0.020917 0.315319
0.015724 0.152912 0.284510
0.033519 0.169342 0.320178
0.114327 0.175909 0.272559
0.307971 0.186544 0.236540
0.529802 0.200791 0.265826
0.724171 0.165189 0.287527
0.855225 0.126649 0.305495
0.930468 0.110825 0.314540
0.026258 0.212168 0.262803
0.049614 0.235599 0.289575
0.108545 0.260600 0.311114
0.373488 0.268113 0.265631
0.574866 0.279650 0.286384
0.763443 0.271031 0.291854
0.882835 0.251724 0.296372
0.960068 0.252075 0.300840
0.043398 0.320119 0.301201
0.075251 0.338221 0.307084
0.123749 0.354323 0.314660
0.355592 0.355022 0.267646
0.605753 0.369847 0.295937
0.786806 0.376877 0.299448
0.904141 0.369742 0.275042
0.959282 0.405807 0.306180
0.048765 0.409058 0.345211
0.086893 0.417490 0.341088
0.147232 0.441812 0.347817
0.378145 0.470064 0.311117
0.599969 0.460438 0.314733
0.779112 0.471068 0.304092
0.890307 0.496199 0.298215
0.950952 0.521935 0.314862
0.049635 0.499964 0.389850
0.086980 0.511972 0.390090
0.191374 0.539494 0.392182
0.425574 0.575439 0.348415
0.617316 0.595536 0.370614
0.777858 0.570689 0.313733
0.881535 0.586650 0.303338
0.947449 0.608116 0.311942
0.038638 0.583324 0.432689
0.081061 0.602244 0.436697
0.324110 0.642026 0.432220
0.476732 0.674706 0.377764
0.646103 0.687420 0.403503
0.770678 0.695715 0.406874
0.871740 0.674309 0.327347
0.942709 0.688144 0.323289
0.029459 0.659490 0.472668
0.067868 0.685709 0.480473
0.424964 0.718302 0.456595
0.509967 0.749592 0.402658
0.649825 0.760711 0.423473
0.768376 0.769820 0.437373
0.850064 0.777857 0.441110
0.927813 0.757855 0.357591
0.045031 0.015233 0.461058
0.072845 0.017961 0.433391
0.100534 0.022499 0.427681
0.188516 0.112350 0.325602
0.424918 0.115786 0.301409
0.648371 0.019769 0.312807
0.802652 0.019551 0.352699
0.893611 0.020917 0.391078
0.015158 0.168467 0.424407
0.026443 0.180453 0.463441
0.034302 0.181403 0.455817
0.142416 0.193478 0.405760
0.481561 0.212537 0.322075
0.710286 0.196714 0.355248
0.852983 0.179988 0.392310
0.934314 0.174776 0.405297
0.015158 0.236626 0.387058
0.026458 0.265959 0.419155
0.034945 0.288949 0.456284
0.217325 0.298654 0.395264
0.535097 0.309647 0.350616
0.728996 0.332401 0.388618
0.851292 0.337548 0.414947
0.920791 0.360437 0.433390
0.015390 0.300578 0.366974
0.027030 0.332534 0.390150
0.037331 0.360093 0.427509
0.245133 0.399873 0.425724
0.579547 0.413804 0.384642
0.750308 0.433579 0.414909
0.851806 0.444495 0.434087
0.923957 0.458729 0.449689
0.016881 0.404991 0.406517
0.028339 0.444680 0.426711
0.049441 0.464926 0.432933
0.250980 0.488058 0.423602
0.577230 0.504373 0.382020
0.773346 0.509873 0.418347
0.877166 0.531619 0.434549
0.923604 0.565015 0.454695
0.018134 0.518334 0.457201
0.028632 0.536644 0.463746
0.051708 0.556142 0.462189
0.424223 0.587721 0.448632
0.593574 0.622520 0.398285
0.763432 0.601208 0.418524
0.867466 0.621158 0.434167
0.918733 0.649120 0.464600
0.019551 0.601519 0.495601
0.029616 0.621607 0.502080
0.065556 0.644819 0.503534
0.503660 0.676361 0.471921
0.609009 0.707146 0.422109
0.757824 0.712462 0.467324
0.857343 0.698908 0.426054
0.920225 0.716122 0.449539
0.020917 0.669429 0.530866
0.030571 0.692664 0.534743
0.204363 0.723641 0.535229
0.545975 0.752762 0.492553
0.620761 0.780764 0.443110
0.753076 0.786894 0.480460
0.842247 0.791083 0.508734
0.915923 0.777038 0.449523
0.091492 0.020217 0.560714
0.114004 0.018804 0.536896
0.122722 0.016680 0.533528
0.166553 0.017421 0.514399
0.350179 0.118597 0.416111
0.632937 0.036713 0.376938
0.791530 0.019551 0.394558
0.896352 0.020917 0.448524
0.016665 0.180677 0.557975
0.027569 0.191175 0.632865
0.034964 0.196268 0.587370
0.041081 0.197276 0.615196
0.392059 0.243427 0.414106
0.684511 0.204873 0.408899
0.854040 0.144155 0.448636
0.944091 0.178141 0.496038
0.016665 0.264279 0.505352
0.027583 0.293442 0.556375
0.035714 0.317924 0.581707
0.041726 0.329181 0.580000
0.449437 0.343467 0.443207
0.712899 0.338434 0.444066
0.850928 0.367087 0.490065
0.928023 0.383641 0.519631
0.016665 0.325436 0.482877
0.027583 0.355817 0.519023
0.035729 0.387842 0.544554
0.042527 0.426029 0.582920
0.533014 0.438691 0.450689
0.735325 0.446225 0.479714
0.848320 0.474743 0.518569
0.913038 0.496784 0.540368
0.016711 0.384765 0.471103
0.027613 0.420413 0.496209
0.035752 0.457243 0.520476
0.046438 0.497756 0.557740
0.568992 0.540499 0.488442
0.742783 0.554540 0.511060
0.841171 0.576659 0.537833
0.901422 0.592916 0.553638
0.018134 0.504604 0.518380
0.028632 0.540048 0.542929
0.036465 0.574691 0.558706
0.055431 0.604083 0.576892
0.593314 0.630553 0.507399
0.743084 0.637495 0.497851
0.850701 0.651280 0.533889
0.904649 0.675209 0.568500
0.019551 0.607079 0.562011
0.029616 0.635408 0.575929
0.037156 0.656612 0.586903
0.249330 0.688086 0.588170
0.626092 0.712510 0.527459
0.730812 0.734200 0.503526
0.844189 0.719706 0.531340
0.906079 0.737185 0.563286
0.020917 0.677107 0.599215
0.030571 0.701145 0.609229
0.037834 0.724435 0.624166
0.370196 0.757636 0.621468
0.641805 0.782273 0.551994
0.712822 0.807888 0.497517
0.824116 0.811432 0.554832
0.903918 0.793822 0.547890
0.113845 0.018794 0.757975
0.137374 0.019792 0.730819
0.143636 0.018134 0.712675
0.169039 0.018134 0.683043
0.260479 0.020064 0.677100
0.588948 0.129709 0.481861
0.780120 0.019551 0.450207
0.891570 0.020917 0.504295
0.018134 0.211685 0.750901
0.028619 0.225514 0.811058
0.035729 0.230192 0.780107
0.041725 0.233159 0.779477
0.112514 0.193979 0.873006
0.638970 0.254317 0.486549
0.841367 0.160737 0.521246
0.948306 0.176310 0.586004
0.018134 0.305460 0.666355
0.028632 0.337385 0.728401
0.036448 0.362526 0.765857
0.042387 0.363520 0.748790
0.126747 0.360619 0.815209
0.684612 0.369963 0.523905
0.846333 0.360609 0.560080
0.931017 0.386935 0.618125
0.018134 0.364691 0.634092
0.028632 0.394821 0.678378
0.036465 0.431810 0.719415
0.043051 0.460077 0.755204
0.331537 0.459818 0.738119
0.708707 0.470685 0.558230
0.846372 0.476615 0.597233
0.911197 0.514755 0.639379
0.018134 0.417524 0.609226
0.028632 0.450612 0.652764
0.036465 0.486905 0.681349
0.043072 0.522455 0.723374
0.515155 0.556530 0.669708
0.727739 0.564891 0.584813
0.841299 0.582045 0.623094
0.901792 0.614416 0.650806
0.018169 0.483806 0.592093
0.028660 0.516644 0.630859
0.036486 0.554531 0.659373
0.043093 0.590291 0.692977
0.507653 0.632674 0.664452
0.736255 0.663758 0.593108
0.833526 0.678825 0.632685
0.901308 0.693059 0.658062
0.019551 0.591549 0.644417
0.029616 0.630235 0.676907
0.037156 0.656892 0.697686
0.043755 0.685808 0.720579
0.512789 0.720359 0.682502
0.740179 0.740629 0.616295
0.832258 0.747963 0.610183
0.902192 0.756232 0.661555
0.020917 0.677248 0.690331
0.030571 0.706220 0.711000
0.037834 0.730843 0.725704
0.044464 0.757487 0.746131
0.530932 0.787887 0.707518
0.732594 0.810331 0.631503
0.804382 0.828078 0.602029
0.896841 0.811048 0.653181
0.096653 0.077343 0.937316
0.107240 0.076570 0.937499
0.107276 0.073656 0.948092
0.139258 0.054108 0.931921
0.186049 0.039061 0.934989
0.602822 0.055183 0.783863
0.790353 0.024527 0.602137
0.896679 0.020917 0.622934
0.020691 0.252412 0.897903
0.029865 0.284728 0.920434
0.037848 0.287741 0.927390
0.042522 0.288383 0.929117
0.088172 0.287140 0.942305
0.629159 0.288875 0.763064
0.819614 0.260889 0.656958
0.945202 0.182206 0.714504
0.019551 0.340184 0.838564
0.029616 0.376123 0.861244
0.037143 0.403818 0.885096
0.043069 0.403198 0.895739
0.098534 0.404747 0.938035
0.666400 0.405675 0.751759
0.831968 0.388838 0.684395
0.933178 0.385800 0.730968
0.019551 0.406646 0.794125
0.029616 0.435658 0.825548
0.037156 0.468802 0.851046
0.043733 0.488143 0.878818
0.204903 0.490833 0.951691
0.685253 0.498749 0.737886
0.835491 0.489967 0.706972
0.913745 0.512665 0.732809
0.019551 0.456367 0.766997
0.029616 0.489387 0.795348
0.037156 0.522770 0.819864
0.043755 0.551221 0.852480
0.301402 0.589264 0.920244
0.682178 0.596287 0.707190
0.834078 0.590467 0.722515
0.902489 0.617940 0.736854
0.019551 0.510153 0.740704
0.029616 0.547293 0.770319
0.037156 0.579387 0.801683
0.043755 0.610035 0.830011
0.299442 0.655632 0.885742
0.702745 0.685688 0.721278
0.830575 0.683309 0.720762
0.902085 0.699092 0.748094
0.019583 0.569968 0.729162
0.029638 0.609070 0.762578
0.037167 0.642206 0.792690
0.043771 0.673465 0.819908
0.279258 0.716077 0.855266
0.692530 0.746266 0.747805
0.827741 0.763645 0.720295
0.895664 0.774956 0.751392
0.020917 0.664039 0.766657
0.030571 0.701003 0.796978
0.037834 0.726531 0.821410
0.044464 0.750424 0.843923
0.081838 0.787566 0.871092
0.661123 0.817860 0.790703
0.820841 0.830408 0.738384
0.892958 0.833143 0.738593
0.128966 0.203292 0.976158
0.157622 0.212200 0.976158
0.184964 0.216830 0.976158
0.200859 0.214379 0.976158
0.234319 0.216309 0.976158
0.580203 0.186173 0.971226
0.813652 0.085534 0.900776
0.914721 0.021651 0.821928
0.038625 0.313395 0.966195
0.067161 0.345082 0.974424
0.102802 0.346778 0.975875
0.121619 0.353345 0.976262
0.166423 0.351174 0.977215
0.591106 0.354885 0.930806
0.822300 0.314104 0.895244
0.925502 0.287333 0.843148
0.021796 0.382845 0.934344
0.036616 0.419368 0.950020
0.053314 0.438914 0.964846
0.072703 0.448002 0.971266
0.170432 0.449331 0.977537
0.605728 0.456844 0.903518
0.816374 0.439480 0.869903
0.917614 0.424602 0.839088
0.020917 0.441550 0.903848
0.030600 0.470525 0.930059
0.042650 0.491869 0.949430
0.084942 0.516245 0.962043
0.230615 0.529830 0.977200
0.625940 0.542611 0.882845
0.812504 0.531110 0.851822
0.906649 0.525779 0.831512
0.020917 0.487345 0.880313
0.030571 0.523150 0.910390
0.043387 0.548680 0.930200
0.047483 0.575366 0.950930
0.238293 0.606662 0.980739
0.640639 0.625573 0.871562
0.803482 0.624411 0.829229
0.897469 0.620455 0.816739
0.020917 0.538628 0.855653
0.030571 0.577008 0.889867
0.037834 0.605235 0.911675
0.044560 0.632088 0.936609
0.144939 0.667404 0.972141
0.668070 0.700943 0.873563
0.800788 0.709075 0.809811
0.896391 0.701933 0.825868
0.020917 0.591162 0.839029
0.030571 0.631492 0.878116
0.037834 0.659097 0.900645
0.047266 0.685523 0.926944
0.110266 0.720863 0.961944
0.662518 0.754551 0.881883
0.804897 0.779986 0.826074
0.891959 0.775980 0.823165
0.020933 0.648690 0.835372
0.030582 0.685599 0.872514
0.037840 0.714036 0.892238
0.044470 0.738285 0.915733
0.052665 0.775037 0.948887
0.654126 0.805357 0.887322
0.799590 0.832170 0.843967
0.889683 0.843743 0.822699
