lut-uploads/2026-07-24/DELUTS_CLOG3_Look_28.cube
# LUT size
# data domain
# LUT data points
#  
# 
# Copyright: (C) Copyright 2016 James Miller
# Created by: James Miller, www.DeLuts.co.uk
LUT_3D_SIZE 6
0.152832 0.150238 0.148407
0.184009 0.151105 0.147907
0.498614 0.154425 0.144799
0.818701 0.144824 0.137286
0.989606 0.163239 0.134820
0.999969 0.207916 0.138184
0.159076 0.182122 0.153394
0.183563 0.184265 0.152948
0.451495 0.185962 0.148261
0.812353 0.171735 0.137592
0.989771 0.179968 0.134772
0.999969 0.227039 0.138873
0.161352 0.481640 0.200189
0.176654 0.503552 0.202197
0.460223 0.487604 0.185291
0.893726 0.481348 0.160767
0.989771 0.470794 0.165674
0.999969 0.455292 0.173571
0.182208 0.817200 0.237677
0.199054 0.844617 0.239276
0.403314 0.846393 0.227832
0.978552 0.865827 0.194891
0.989771 0.859088 0.225555
0.999969 0.848547 0.252020
0.224866 0.974659 0.280438
0.240155 0.982343 0.272217
0.324390 0.989771 0.221576
0.978546 0.989771 0.159345
0.989771 0.989771 0.229382
0.999969 0.989771 0.342060
0.238800 0.999969 0.330688
0.252820 0.999969 0.320678
0.268945 0.999969 0.469599
0.902832 0.999969 0.316894
0.989771 0.999969 0.365063
0.999969 0.999969 0.470551
0.151257 0.149066 0.172668
0.182184 0.150287 0.176831
0.491071 0.152991 0.166181
0.819128 0.142962 0.152094
0.989771 0.155145 0.145245
0.999969 0.201690 0.148596
0.157385 0.179119 0.178571
0.179608 0.181403 0.180749
0.546130 0.166083 0.155762
0.851837 0.154871 0.146784
0.989771 0.172235 0.145203
0.999969 0.220697 0.149323
0.160821 0.479596 0.225366
0.169177 0.541339 0.228570
0.509015 0.542127 0.201385
0.921283 0.481805 0.170770
0.989771 0.458588 0.175171
0.999969 0.440058 0.182709
0.181646 0.817145 0.253131
0.197656 0.841174 0.253833
0.393329 0.856872 0.238550
0.979571 0.876679 0.205359
0.989771 0.864099 0.239319
0.999969 0.847492 0.269220
0.223669 0.975018 0.298615
0.238593 0.982715 0.290710
0.321838 0.989771 0.239673
0.978161 0.989771 0.177417
0.989771 0.989771 0.249371
0.999969 0.989771 0.363507
0.237354 0.999969 0.351855
0.250983 0.999969 0.342230
0.266516 0.999969 0.496106
0.898401 0.999969 0.340784
0.989771 0.999969 0.389179
0.999969 0.999969 0.496570
0.154376 0.146942 0.403228
0.176239 0.146899 0.415991
0.434400 0.148298 0.403192
0.769226 0.140973 0.363672
0.974237 0.136377 0.339758
0.999969 0.174768 0.347858
0.154077 0.170929 0.381934
0.164502 0.163135 0.425494
0.471551 0.158612 0.438989
0.800781 0.150214 0.367706
0.982617 0.146649 0.334094
0.999969 0.192517 0.347491
0.152057 0.461011 0.461230
0.158972 0.538873 0.540796
0.406220 0.476275 0.499805
0.862042 0.399518 0.402808
0.989771 0.339245 0.342090
0.999969 0.373700 0.371722
0.158069 0.828278 0.524005
0.170526 0.844391 0.530908
0.261499 0.886621 0.520533
0.960376 0.894116 0.487299
0.989771 0.863794 0.481519
0.999969 0.844250 0.503327
0.206128 0.986402 0.469629
0.220862 0.989771 0.455591
0.269659 0.989771 0.452063
0.933740 0.989771 0.365070
0.989771 0.989771 0.406506
0.999969 0.989771 0.480572
0.233741 0.999969 0.389624
0.247369 0.999969 0.379663
0.253437 0.999969 0.536804
0.875726 0.999969 0.377795
0.989771 0.999969 0.417902
0.999969 0.999969 0.522126
0.165973 0.145538 0.641107
0.185028 0.145331 0.650440
0.405029 0.144599 0.638464
0.737207 0.136932 0.624298
0.929315 0.134107 0.633759
0.956836 0.155218 0.616882
0.160730 0.165851 0.627093
0.172992 0.165381 0.657770
0.409814 0.154010 0.678119
0.756506 0.146344 0.642334
0.930652 0.144971 0.633740
0.959753 0.168012 0.619690
0.161017 0.413842 0.729785
0.177844 0.477044 0.785199
0.340204 0.340435 0.760626
0.782068 0.301544 0.717694
0.957904 0.261170 0.677783
0.999969 0.301856 0.677057
0.175867 0.829816 0.846466
0.195496 0.846686 0.864807
0.307287 0.900226 0.925677
0.825983 0.843006 0.848175
0.989771 0.806512 0.812885
0.999969 0.800561 0.807703
0.209808 0.989771 0.866266
0.223804 0.989771 0.871838
0.265363 0.989771 0.930017
0.742536 0.989771 0.856860
0.989771 0.989771 0.848535
0.999969 0.989771 0.857617
0.209369 0.999969 0.853229
0.220569 0.999969 0.855731
0.246814 0.999969 0.893207
0.702978 0.999969 0.853350
0.989771 0.999969 0.841748
0.999969 0.999969 0.866852
0.183594 0.148364 0.785120
0.196479 0.149597 0.798175
0.379663 0.142066 0.801734
0.728638 0.135944 0.779724
0.906317 0.137158 0.782330
0.934833 0.161853 0.754590
0.180035 0.168542 0.783508
0.194543 0.168933 0.798053
0.374054 0.152881 0.815186
0.731262 0.146362 0.784717
0.905115 0.148962 0.782697
0.934937 0.174908 0.755322
0.211615 0.366583 0.863587
0.235022 0.415539 0.897089
0.336261 0.280518 0.877668
0.707562 0.227716 0.817969
0.902374 0.213965 0.802600
0.968933 0.240497 0.794079
0.259772 0.805725 0.982861
0.282135 0.817328 0.989533
0.376892 0.853900 0.989771
0.776447 0.761511 0.986005
0.989771 0.744726 0.969305
0.999969 0.752558 0.957861
0.305017 0.989771 0.989771
0.324127 0.989771 0.989771
0.373364 0.989771 0.989771
0.759265 0.989771 0.989771
0.989771 0.989771 0.989771
0.999969 0.989771 0.985907
0.308636 0.999969 0.989771
0.324768 0.999969 0.989771
0.355029 0.999969 0.989771
0.724249 0.999969 0.989771
0.982464 0.999969 0.989771
0.999969 0.999969 0.989771
0.195862 0.158447 0.840424
0.210681 0.158893 0.845172
0.331885 0.160114 0.837494
0.682361 0.154382 0.810693
0.854804 0.159814 0.806573
0.926971 0.172577 0.810455
0.195856 0.171582 0.841138
0.211004 0.172577 0.845929
0.334949 0.172638 0.837708
0.682630 0.166986 0.811591
0.854804 0.172779 0.807611
0.927387 0.186053 0.811963
0.246655 0.370276 0.919257
0.265539 0.387732 0.932092
0.363726 0.365155 0.922015
0.716138 0.274793 0.867187
0.884113 0.245392 0.847967
0.949725 0.232636 0.839410
0.298242 0.788861 0.999969
0.319140 0.798560 0.999969
0.377490 0.833551 0.999969
0.785645 0.765119 0.999969
0.989771 0.738806 0.999969
0.999969 0.732031 0.999969
0.347723 0.989771 0.999969
0.365936 0.989771 0.999969
0.421546 0.989771 0.999969
0.803333 0.989771 0.999969
0.983069 0.983728 0.999969
0.999969 0.981366 0.999969
0.357483 0.999969 0.999969
0.375055 0.999969 0.999969
0.436322 0.999969 0.999969
0.837097 0.999969 0.999969
0.989771 0.999969 0.999969
0.999969 0.999969 0.999969
