lut-uploads/2026-07-24/DELUTS_CLOG3_Look_28.cube
# LUT size
# data domain
# LUT data points
#  
# 
# Copyright: (C) Copyright 2016 James Miller
# Created by: James Miller, www.DeLuts.co.uk
LUT_3D_SIZE 16
0.152832 0.150238 0.148407
0.159546 0.150299 0.148236
0.166602 0.150311 0.147949
0.184009 0.151105 0.147907
0.244873 0.153864 0.148394
0.353333 0.156006 0.147369
0.498614 0.154425 0.144799
0.632434 0.150763 0.141675
0.736981 0.147333 0.139142
0.818701 0.144824 0.137286
0.885223 0.143738 0.135986
0.942444 0.150726 0.135254
0.989606 0.163239 0.134820
0.993170 0.178528 0.135217
0.996570 0.193329 0.136267
0.999969 0.207916 0.138184
0.153705 0.156463 0.148761
0.159546 0.156549 0.148852
0.166730 0.156445 0.148535
0.184278 0.156677 0.148321
0.243244 0.158814 0.148584
0.348590 0.160920 0.147638
0.493823 0.159363 0.145032
0.629682 0.155402 0.141803
0.735486 0.151629 0.139203
0.818042 0.149023 0.137317
0.884955 0.148072 0.135986
0.942713 0.155780 0.135284
0.989771 0.168689 0.134790
0.993170 0.184296 0.135260
0.996570 0.199274 0.136505
0.999969 0.214197 0.138409
0.154688 0.163147 0.149408
0.160327 0.163245 0.149359
0.166773 0.163172 0.149261
0.183862 0.162829 0.148840
0.240094 0.164545 0.148993
0.341894 0.166900 0.148163
0.489117 0.165674 0.145508
0.629388 0.161389 0.141962
0.734711 0.156909 0.139264
0.817151 0.153625 0.137353
0.884387 0.152747 0.136017
0.943061 0.160931 0.135291
0.989771 0.174243 0.134772
0.993170 0.190124 0.135431
0.996570 0.205280 0.136749
0.999969 0.220484 0.138635
0.159076 0.182122 0.153394
0.164990 0.184814 0.153833
0.170843 0.184754 0.153656
0.183563 0.184265 0.152948
0.228302 0.183703 0.152277
0.310712 0.185224 0.151343
0.451495 0.185962 0.148261
0.606006 0.182160 0.143335
0.722448 0.176868 0.139856
0.812353 0.171735 0.137592
0.882190 0.167157 0.136115
0.943695 0.167566 0.135284
0.989771 0.179968 0.134772
0.993170 0.196020 0.135657
0.996570 0.211420 0.136999
0.999969 0.227039 0.138873
0.168805 0.236438 0.162988
0.174243 0.242078 0.163568
0.180200 0.242120 0.163397
0.191541 0.239655 0.162457
0.232147 0.237879 0.160278
0.310034 0.236481 0.157794
0.443475 0.236658 0.152875
0.603900 0.234088 0.146131
0.726465 0.229474 0.141327
0.821277 0.224487 0.138446
0.894495 0.219873 0.136853
0.956653 0.214624 0.136188
0.989771 0.209308 0.135791
0.993170 0.208514 0.136444
0.996570 0.218860 0.137360
0.999969 0.233661 0.139142
0.169647 0.331238 0.178101
0.173901 0.340564 0.178857
0.179663 0.346753 0.179718
0.189929 0.339838 0.178272
0.231604 0.331927 0.175031
0.315430 0.329956 0.171082
0.449640 0.327148 0.164282
0.615430 0.324195 0.154431
0.749786 0.321319 0.147186
0.844788 0.317651 0.143603
0.922485 0.314087 0.142029
0.982587 0.309552 0.142151
0.989771 0.304706 0.142999
0.993170 0.299939 0.144306
0.996570 0.294720 0.144921
0.999969 0.288574 0.145538
0.161352 0.481640 0.200189
0.164551 0.487897 0.200018
0.168872 0.511774 0.203418
0.176654 0.503552 0.202197
0.215106 0.490265 0.198736
0.310272 0.483728 0.193457
0.460223 0.487604 0.185291
0.646606 0.487072 0.172895
0.795056 0.484949 0.163935
0.893726 0.481348 0.160767
0.972046 0.478882 0.160321
0.986371 0.475171 0.162305
0.989771 0.470794 0.165674
0.993170 0.466034 0.168738
0.996570 0.461462 0.171698
0.999969 0.455292 0.173571
0.161810 0.635059 0.221839
0.165545 0.640594 0.221161
0.171197 0.658350 0.222882
0.177557 0.665228 0.223974
0.197131 0.649176 0.222492
0.285596 0.640527 0.216565
0.449292 0.645270 0.208667
0.665704 0.656128 0.194500
0.829474 0.657757 0.183551
0.938416 0.656134 0.179895
0.982971 0.654236 0.181372
0.986371 0.652283 0.187146
0.989771 0.649658 0.194189
0.993170 0.647351 0.199964
0.996570 0.645276 0.205096
0.999969 0.642090 0.208435
0.169818 0.742737 0.232782
0.173938 0.746759 0.231598
0.178790 0.752912 0.231049
0.187250 0.773956 0.232281
0.202161 0.758673 0.232446
0.251818 0.752301 0.229999
0.433746 0.753491 0.221405
0.662250 0.762030 0.206793
0.844379 0.767261 0.194666
0.962799 0.767810 0.191376
0.982971 0.767206 0.193908
0.986371 0.766724 0.201294
0.989771 0.765546 0.210242
0.993170 0.764325 0.218439
0.996570 0.763037 0.224677
0.999969 0.761383 0.228553
0.182208 0.817200 0.237677
0.186536 0.820764 0.236182
0.190900 0.824457 0.234638
0.199054 0.844617 0.239276
0.210205 0.858728 0.232825
0.252240 0.846143 0.234064
0.403314 0.846393 0.227832
0.662897 0.854907 0.211523
0.870691 0.861871 0.197577
0.978552 0.865827 0.194891
0.982971 0.863824 0.201288
0.986371 0.861176 0.212793
0.989771 0.859088 0.225555
0.993170 0.857410 0.236469
0.996570 0.854199 0.244244
0.999969 0.848547 0.252020
0.196259 0.878784 0.250488
0.200843 0.881799 0.248474
0.205408 0.884784 0.246466
0.211286 0.892786 0.247546
0.221772 0.916187 0.256629
0.262146 0.937988 0.225891
0.344775 0.936169 0.225580
0.637433 0.942541 0.207202
0.888562 0.949658 0.189514
0.979571 0.954773 0.188775
0.982971 0.958649 0.200836
0.986371 0.954809 0.220245
0.989771 0.949774 0.238599
0.993170 0.942737 0.252491
0.996570 0.930756 0.268597
0.999969 0.920654 0.282593
0.211902 0.932532 0.264557
0.216620 0.935229 0.262439
0.221405 0.938012 0.260333
0.226312 0.941077 0.258258
0.235583 0.960595 0.271649
0.263745 0.986371 0.235370
0.337665 0.986371 0.213781
0.552929 0.986371 0.195843
0.870251 0.986371 0.167145
0.979571 0.986371 0.165778
0.982971 0.986371 0.182288
0.986371 0.986371 0.214203
0.989771 0.986371 0.241895
0.993170 0.986371 0.270612
0.996570 0.986371 0.294519
0.999969 0.980023 0.312305
0.224866 0.974659 0.280438
0.229895 0.977173 0.277905
0.234961 0.979743 0.275152
0.240155 0.982343 0.272217
0.246259 0.988739 0.278211
0.255206 0.989771 0.301526
0.324390 0.989771 0.221576
0.450146 0.989771 0.208716
0.805335 0.989771 0.173852
0.978546 0.989771 0.159345
0.982971 0.989771 0.163623
0.986371 0.989771 0.190143
0.989771 0.989771 0.229382
0.993170 0.989771 0.278400
0.996570 0.989771 0.318280
0.999969 0.989771 0.342060
0.232947 0.993170 0.299554
0.237915 0.993170 0.296741
0.242975 0.993170 0.293848
0.248132 0.993170 0.290759
0.253405 0.993170 0.288904
0.256903 0.993170 0.325897
0.301043 0.993170 0.284699
0.400171 0.993170 0.260803
0.725025 0.993170 0.228632
0.958026 0.993170 0.198443
0.982971 0.993170 0.200201
0.986371 0.993170 0.226984
0.989771 0.993170 0.266009
0.993170 0.993170 0.290930
0.996570 0.993170 0.333221
0.999969 0.993170 0.372198
0.237329 0.996570 0.317938
0.241943 0.996570 0.314612
0.246869 0.996570 0.310944
0.251929 0.996570 0.307202
0.257098 0.996570 0.303234
0.258423 0.996570 0.342310
0.276007 0.996570 0.375415
0.370398 0.996570 0.319501
0.658905 0.996570 0.293958
0.924963 0.996570 0.261902
0.982971 0.996570 0.262134
0.986371 0.996570 0.282868
0.989771 0.996570 0.311438
0.993170 0.996570 0.345367
0.996570 0.996570 0.365100
0.999969 0.996570 0.400781
0.238800 0.999969 0.330688
0.243348 0.999969 0.327661
0.247907 0.999969 0.324280
0.252820 0.999969 0.320678
0.257929 0.999969 0.316900
0.258942 0.999969 0.360016
0.268945 0.999969 0.469599
0.357806 0.999969 0.368280
0.625189 0.999969 0.343665
0.902832 0.999969 0.316894
0.982971 0.999969 0.315491
0.986371 0.999969 0.334961
0.989771 0.999969 0.365063
0.993170 0.999969 0.399109
0.996570 0.999969 0.436438
0.999969 0.999969 0.470551
0.152161 0.149604 0.153595
0.159479 0.150043 0.153998
0.166614 0.149988 0.153644
0.184076 0.150757 0.153180
0.245569 0.153503 0.153400
0.355402 0.155561 0.151861
0.503100 0.153626 0.148767
0.638220 0.149793 0.145306
0.742694 0.146283 0.142511
0.823383 0.143884 0.140588
0.888714 0.142846 0.139313
0.945411 0.149146 0.138562
0.989771 0.161499 0.138269
0.993170 0.176746 0.138574
0.996570 0.191486 0.139526
0.999969 0.205926 0.141644
0.153375 0.155982 0.153931
0.158868 0.155817 0.153820
0.166058 0.155713 0.153436
0.186792 0.155450 0.152228
0.254291 0.157410 0.151800
0.365570 0.159143 0.150574
0.509448 0.157067 0.147913
0.640918 0.153552 0.144880
0.742536 0.150391 0.142420
0.822839 0.148071 0.140607
0.888666 0.147040 0.139313
0.945490 0.154156 0.138592
0.989771 0.166974 0.138233
0.993170 0.182458 0.138611
0.996570 0.197376 0.139746
0.999969 0.212176 0.141870
0.154358 0.162701 0.154444
0.159692 0.162549 0.154224
0.166150 0.162475 0.154090
0.185748 0.161993 0.152765
0.249915 0.163153 0.152069
0.357007 0.165247 0.151080
0.503943 0.163428 0.148321
0.639795 0.159167 0.144983
0.741596 0.155170 0.142475
0.822192 0.152325 0.140625
0.888440 0.151404 0.139319
0.945807 0.159308 0.138623
0.989771 0.172510 0.138208
0.993170 0.188306 0.138660
0.996570 0.203387 0.139978
0.999969 0.218573 0.142114
0.158875 0.181775 0.158166
0.164484 0.187701 0.158472
0.170679 0.187640 0.158258
0.185211 0.186694 0.157281
0.232660 0.183264 0.155524
0.317871 0.183557 0.154303
0.462079 0.183337 0.151166
0.614801 0.179205 0.146411
0.729315 0.173889 0.143060
0.817078 0.168781 0.140887
0.885736 0.164319 0.139447
0.946411 0.165619 0.138653
0.989771 0.178223 0.138195
0.993170 0.194232 0.138873
0.996570 0.209607 0.140259
0.999969 0.225116 0.142352
0.168695 0.236194 0.167786
0.173150 0.246814 0.167859
0.179297 0.247021 0.167712
0.191028 0.243976 0.166650
0.235016 0.241632 0.164209
0.314429 0.236847 0.161108
0.449371 0.235413 0.155902
0.610150 0.231897 0.149103
0.731262 0.226825 0.144415
0.825397 0.221613 0.141650
0.897442 0.216894 0.140106
0.959216 0.211517 0.139429
0.989771 0.206317 0.139142
0.993170 0.206091 0.139624
0.996570 0.216839 0.140588
0.999969 0.231769 0.142609
0.169647 0.330981 0.182727
0.173016 0.343170 0.182959
0.178625 0.352594 0.183984
0.188537 0.345318 0.182581
0.231348 0.336548 0.179150
0.318848 0.334467 0.174969
0.455267 0.328399 0.167530
0.621796 0.323621 0.157398
0.754633 0.319818 0.150213
0.848950 0.315643 0.146716
0.925457 0.311725 0.145166
0.984491 0.306891 0.145325
0.989771 0.301953 0.146271
0.993170 0.297107 0.147534
0.996570 0.291944 0.148218
0.999969 0.285913 0.148865
0.161322 0.481189 0.204858
0.164240 0.488068 0.204566
0.167694 0.517865 0.207715
0.175208 0.509845 0.206555
0.213001 0.495904 0.203082
0.310492 0.489209 0.197626
0.465436 0.493170 0.189148
0.653656 0.490119 0.176257
0.801160 0.486243 0.167212
0.898224 0.481683 0.164154
0.974914 0.478406 0.163733
0.986371 0.474127 0.165784
0.989771 0.469336 0.169220
0.993170 0.464496 0.172308
0.996570 0.459741 0.175384
0.999969 0.453418 0.177210
0.161731 0.634521 0.226575
0.165442 0.640137 0.225885
0.170727 0.663269 0.226850
0.177069 0.670746 0.227899
0.196710 0.654425 0.226556
0.283923 0.645605 0.220758
0.451294 0.650299 0.212573
0.672449 0.661255 0.198095
0.836267 0.661597 0.187067
0.943292 0.658728 0.183575
0.982971 0.656024 0.185321
0.986371 0.653381 0.191199
0.989771 0.650213 0.198254
0.993170 0.647748 0.204181
0.996570 0.645435 0.209296
0.999969 0.642132 0.212628
0.169684 0.742529 0.237586
0.173779 0.746552 0.236450
0.178589 0.754938 0.235199
0.187073 0.777575 0.235815
0.202014 0.762683 0.236035
0.250391 0.756348 0.233770
0.434326 0.757635 0.225098
0.666602 0.766205 0.210224
0.850867 0.771411 0.198028
0.967395 0.771063 0.195068
0.982971 0.769678 0.197894
0.986371 0.768622 0.205493
0.989771 0.767017 0.214520
0.993170 0.765436 0.222906
0.996570 0.763989 0.229083
0.999969 0.762225 0.232794
0.182043 0.817090 0.242627
0.186383 0.820623 0.241107
0.190741 0.824310 0.239575
0.198804 0.844439 0.244489
0.210101 0.860577 0.236792
0.252442 0.849438 0.237396
0.401776 0.849682 0.231336
0.665417 0.858221 0.214728
0.875250 0.865271 0.200665
0.979468 0.869208 0.198346
0.982971 0.866705 0.205139
0.986371 0.863434 0.216980
0.989771 0.860931 0.230157
0.993170 0.858722 0.241107
0.996570 0.855036 0.249127
0.999969 0.848456 0.257782
0.196033 0.878784 0.255908
0.200555 0.881793 0.253943
0.205139 0.884796 0.251935
0.210993 0.892755 0.253028
0.221460 0.916187 0.262292
0.262177 0.940771 0.228754
0.344024 0.938867 0.228692
0.637616 0.945276 0.209766
0.891467 0.952478 0.192133
0.979571 0.957697 0.191938
0.982971 0.961572 0.204547
0.986371 0.957306 0.224676
0.989771 0.951691 0.243036
0.993170 0.943634 0.257526
0.996570 0.930853 0.274524
0.999969 0.920563 0.288440
0.211640 0.932623 0.270099
0.216352 0.935229 0.267926
0.221106 0.938025 0.265796
0.226013 0.941120 0.263715
0.235126 0.960651 0.277551
0.263226 0.986371 0.241272
0.337066 0.986371 0.218897
0.550818 0.986371 0.201319
0.869226 0.986371 0.172406
0.979571 0.986371 0.170758
0.982971 0.986371 0.187506
0.986371 0.986371 0.219477
0.989771 0.986371 0.247467
0.993170 0.986371 0.276703
0.996570 0.986371 0.300867
0.999969 0.980096 0.318787
0.224383 0.974756 0.286414
0.229406 0.977277 0.283881
0.234467 0.979852 0.281195
0.239636 0.982465 0.278344
0.245721 0.988745 0.284393
0.254645 0.989771 0.308289
0.323615 0.989771 0.227509
0.448279 0.989771 0.214837
0.803442 0.989771 0.180096
0.978430 0.989771 0.165228
0.982971 0.989771 0.169489
0.986371 0.989771 0.196216
0.989771 0.989771 0.235919
0.993170 0.989771 0.285412
0.996570 0.989771 0.325116
0.999969 0.989771 0.348895
0.232471 0.993170 0.306036
0.237353 0.993170 0.303204
0.242389 0.993170 0.300342
0.247516 0.993170 0.297259
0.252795 0.993170 0.295386
0.256372 0.993170 0.333038
0.300293 0.993170 0.291711
0.398920 0.993170 0.267365
0.723206 0.993170 0.235309
0.957276 0.993170 0.204895
0.982971 0.993170 0.206494
0.986371 0.993170 0.233502
0.989771 0.993170 0.272559
0.993170 0.993170 0.297558
0.996570 0.993170 0.340796
0.999969 0.993170 0.379840
0.236865 0.996570 0.324799
0.241394 0.996570 0.321521
0.246173 0.996570 0.317969
0.251135 0.996570 0.314252
0.256299 0.996570 0.310296
0.257855 0.996570 0.349731
0.275250 0.996570 0.383612
0.369317 0.996570 0.326782
0.657007 0.996570 0.301398
0.923810 0.996570 0.269294
0.982971 0.996570 0.269538
0.986371 0.996570 0.290143
0.989771 0.996570 0.318726
0.993170 0.996570 0.352911
0.996570 0.996570 0.372620
0.999969 0.996570 0.408972
0.238324 0.999969 0.337714
0.242865 0.999969 0.334503
0.247394 0.999969 0.331311
0.252050 0.999969 0.327856
0.257129 0.999969 0.324035
0.258294 0.999969 0.367798
0.268194 0.999969 0.478253
0.356756 0.999969 0.376154
0.623309 0.999969 0.351453
0.901483 0.999969 0.324732
0.982971 0.999969 0.324200
0.986371 0.999969 0.343115
0.989771 0.999969 0.372961
0.993170 0.999969 0.407025
0.996570 0.999969 0.444928
0.999969 0.999969 0.479102
0.151636 0.149268 0.158362
0.158740 0.149713 0.158905
0.166681 0.150024 0.159125
0.183783 0.150653 0.158582
0.244470 0.153211 0.158960
0.353058 0.155298 0.157184
0.500384 0.153430 0.153833
0.636627 0.149506 0.150177
0.742035 0.145904 0.147174
0.824451 0.143213 0.144836
0.893366 0.141553 0.142786
0.949353 0.147186 0.141834
0.989771 0.159692 0.141748
0.993170 0.174798 0.141913
0.996570 0.189539 0.142761
0.999969 0.203980 0.145123
0.152685 0.155243 0.159332
0.157977 0.155066 0.159357
0.165985 0.155353 0.159571
0.186212 0.155139 0.158368
0.252942 0.157074 0.157556
0.362970 0.158838 0.155896
0.508142 0.156756 0.152924
0.643085 0.152808 0.149371
0.747199 0.149262 0.146454
0.829040 0.146582 0.144238
0.894660 0.145532 0.142645
0.949390 0.152179 0.141883
0.989771 0.165137 0.141718
0.993170 0.180518 0.141956
0.996570 0.195465 0.142987
0.999969 0.210187 0.145343
0.153973 0.162121 0.159906
0.159283 0.161987 0.159802
0.165338 0.161548 0.159411
0.184497 0.161170 0.158001
0.261285 0.161414 0.155579
0.381067 0.162488 0.153686
0.527991 0.159876 0.150866
0.658935 0.155884 0.147778
0.755023 0.152637 0.145496
0.832019 0.150299 0.143774
0.894989 0.149719 0.142590
0.949396 0.157294 0.141925
0.989771 0.170679 0.141657
0.993170 0.186359 0.141986
0.996570 0.201477 0.143219
0.999969 0.216602 0.145587
0.158526 0.181268 0.163489
0.164148 0.187494 0.164270
0.169958 0.187420 0.163733
0.184418 0.186383 0.162726
0.237824 0.182483 0.159082
0.331274 0.180963 0.156952
0.481427 0.179095 0.153528
0.631940 0.173981 0.149145
0.742761 0.168597 0.146051
0.825916 0.164014 0.144043
0.891980 0.160285 0.142694
0.949408 0.163385 0.141968
0.989771 0.176373 0.141638
0.993170 0.192334 0.142066
0.996570 0.207666 0.143481
0.999969 0.223059 0.145825
0.168482 0.235571 0.173657
0.172888 0.245831 0.173999
0.177326 0.256067 0.173016
0.189642 0.252155 0.171747
0.239606 0.248804 0.168805
0.323059 0.238080 0.164355
0.461780 0.233282 0.158606
0.622809 0.228003 0.151709
0.740271 0.222216 0.147351
0.831531 0.216901 0.144757
0.900751 0.212347 0.143292
0.961499 0.206897 0.142633
0.989771 0.201715 0.142395
0.993170 0.202906 0.142737
0.996570 0.214599 0.143805
0.999969 0.229773 0.146099
0.169647 0.330963 0.188684
0.173022 0.339630 0.188635
0.176447 0.366559 0.189453
0.185614 0.358539 0.188086
0.230066 0.347144 0.184222
0.325812 0.344030 0.179431
0.466107 0.331079 0.170697
0.632642 0.322748 0.160089
0.761517 0.317181 0.153064
0.853449 0.312030 0.149664
0.928143 0.307519 0.148169
0.986151 0.302270 0.148382
0.989771 0.297137 0.149249
0.993170 0.291992 0.150470
0.996570 0.286712 0.151190
0.999969 0.280633 0.151788
0.161133 0.482043 0.210327
0.164130 0.488080 0.209936
0.166254 0.526373 0.212561
0.172803 0.521155 0.211621
0.208618 0.505182 0.208118
0.310278 0.497675 0.202270
0.472784 0.501221 0.193262
0.662573 0.493476 0.179541
0.807800 0.486816 0.170380
0.902704 0.480487 0.167346
0.977466 0.475867 0.166956
0.986371 0.470605 0.168939
0.989771 0.465155 0.172315
0.993170 0.459955 0.175409
0.996570 0.454974 0.178564
0.999969 0.448285 0.180231
0.161663 0.634784 0.231470
0.165369 0.640344 0.230798
0.170105 0.662390 0.230951
0.176624 0.677740 0.231921
0.195636 0.660913 0.230749
0.280542 0.651459 0.225055
0.453076 0.656158 0.216626
0.680444 0.667163 0.201666
0.843927 0.665491 0.190533
0.948352 0.660852 0.187213
0.982971 0.656927 0.189111
0.986371 0.653259 0.195080
0.989771 0.649432 0.202076
0.993170 0.646686 0.208160
0.996570 0.644183 0.213275
0.999969 0.640533 0.216540
0.169544 0.742511 0.242438
0.173645 0.746509 0.241309
0.178137 0.753345 0.240051
0.186859 0.780597 0.239721
0.201373 0.767249 0.239637
0.248523 0.760681 0.237598
0.433923 0.762061 0.228870
0.671197 0.770636 0.213641
0.857989 0.775928 0.201398
0.972253 0.774335 0.198767
0.982971 0.772101 0.201861
0.986371 0.770184 0.209662
0.989771 0.768060 0.218707
0.993170 0.766156 0.227301
0.996570 0.764520 0.233429
0.999969 0.762470 0.237018
0.181860 0.816974 0.247705
0.186224 0.820502 0.246082
0.190582 0.824170 0.244549
0.198498 0.844049 0.249634
0.209833 0.862006 0.241131
0.252381 0.852832 0.240710
0.399701 0.853015 0.234839
0.667700 0.861621 0.217956
0.879785 0.868701 0.203797
0.979571 0.872674 0.201782
0.982971 0.869617 0.208966
0.986371 0.865649 0.221197
0.989771 0.862781 0.234753
0.993170 0.860022 0.245715
0.996570 0.855743 0.254108
0.999969 0.848370 0.263562
0.195716 0.878772 0.261420
0.200299 0.881769 0.259466
0.204883 0.884784 0.257459
0.210693 0.892658 0.258539
0.221142 0.916181 0.268005
0.262146 0.943475 0.231683
0.343250 0.941662 0.231757
0.637738 0.948095 0.212439
0.894354 0.955438 0.194806
0.979571 0.960718 0.195129
0.982971 0.964599 0.208209
0.986371 0.959772 0.229175
0.989771 0.953522 0.247497
0.993170 0.944366 0.262744
0.996570 0.930811 0.280487
0.999969 0.920600 0.294409
0.211353 0.932654 0.275623
0.216034 0.935303 0.273517
0.220813 0.938049 0.271350
0.225702 0.941107 0.269232
0.234692 0.960651 0.283484
0.262683 0.986371 0.247321
0.336377 0.986371 0.224225
0.548621 0.986371 0.206561
0.868341 0.986371 0.177417
0.979571 0.986371 0.175690
0.982971 0.986371 0.192816
0.986371 0.986371 0.225134
0.989771 0.986371 0.252960
0.993170 0.986371 0.282819
0.996570 0.986371 0.307214
0.999969 0.980200 0.325385
0.224036 0.974896 0.292450
0.228900 0.977356 0.289935
0.233960 0.979919 0.287329
0.239117 0.982568 0.284472
0.245172 0.988757 0.290545
0.254163 0.989771 0.315149
0.322791 0.989771 0.233521
0.446582 0.989771 0.220923
0.801446 0.989771 0.186517
0.978296 0.989771 0.171246
0.982971 0.989771 0.175495
0.986371 0.989771 0.202386
0.989771 0.989771 0.242572
0.993170 0.989771 0.292437
0.996570 0.989771 0.332013
0.999969 0.989771 0.355975
0.232080 0.993170 0.312427
0.236847 0.993170 0.309686
0.241815 0.993170 0.306873
0.246930 0.993170 0.303839
0.252179 0.993170 0.301947
0.255829 0.993170 0.340387
0.299530 0.993170 0.298841
0.397705 0.993170 0.273950
0.721265 0.993170 0.242065
0.956372 0.993170 0.211456
0.982971 0.993170 0.212921
0.986371 0.993170 0.240088
0.989771 0.993170 0.279218
0.993170 0.993170 0.304327
0.996570 0.993170 0.348535
0.999969 0.993170 0.387519
0.236414 0.996570 0.331745
0.240937 0.996570 0.328497
0.245514 0.996570 0.325110
0.250397 0.996570 0.321381
0.255469 0.996570 0.317535
0.257306 0.996570 0.357062
0.274420 0.996570 0.392071
0.368152 0.996570 0.334180
0.654956 0.996570 0.308917
0.922491 0.996570 0.276770
0.982971 0.996570 0.276959
0.986371 0.996570 0.297504
0.989771 0.996570 0.326105
0.993170 0.996570 0.360345
0.996570 0.996570 0.380231
0.999969 0.996570 0.417273
0.237836 0.999969 0.344788
0.242365 0.999969 0.341559
0.246912 0.999969 0.338348
0.251508 0.999969 0.334906
0.256323 0.999969 0.331335
0.257660 0.999969 0.375574
0.267401 0.999969 0.487103
0.355682 0.999969 0.384204
0.621344 0.999969 0.359393
0.899982 0.999969 0.332642
0.982971 0.999969 0.332202
0.986371 0.999969 0.351129
0.989771 0.999969 0.380945
0.993170 0.999969 0.415124
0.996570 0.999969 0.453448
0.999969 0.999969 0.487732
0.151257 0.149066 0.172668
0.157404 0.149268 0.175574
0.164661 0.149512 0.175922
0.182184 0.150287 0.176831
0.240826 0.152612 0.176355
0.344635 0.154443 0.172711
0.491071 0.152991 0.166181
0.629395 0.149109 0.160083
0.737244 0.145502 0.155548
0.819128 0.142962 0.152094
0.891602 0.140778 0.148438
0.958825 0.142853 0.145154
0.989771 0.155145 0.145245
0.993170 0.171008 0.145276
0.996570 0.186621 0.146051
0.999969 0.201690 0.148596
0.152069 0.154523 0.173944
0.155066 0.152869 0.178449
0.162653 0.153223 0.178912
0.183991 0.154217 0.179871
0.248120 0.156268 0.176557
0.353717 0.157971 0.171216
0.498559 0.156268 0.164612
0.635681 0.152356 0.158905
0.742102 0.148816 0.154620
0.823736 0.146271 0.151294
0.895477 0.144183 0.147784
0.959412 0.147486 0.145111
0.989771 0.160492 0.145251
0.993170 0.176788 0.145319
0.996570 0.192554 0.146277
0.999969 0.207843 0.148852
0.152942 0.160351 0.174841
0.156037 0.158990 0.179511
0.161365 0.158557 0.179285
0.182941 0.159589 0.180347
0.255273 0.160266 0.176447
0.370368 0.161487 0.169360
0.517993 0.159241 0.162494
0.650879 0.155347 0.157044
0.750097 0.152051 0.153113
0.829492 0.149512 0.150055
0.899548 0.147656 0.147040
0.959820 0.152258 0.145093
0.989771 0.166095 0.145257
0.993170 0.182672 0.145349
0.996570 0.198609 0.146533
0.999969 0.214166 0.149079
0.157385 0.179119 0.178571
0.162439 0.185040 0.184619
0.167969 0.184729 0.184338
0.179608 0.181403 0.180749
0.232153 0.178003 0.174860
0.350159 0.174182 0.165655
0.546130 0.166083 0.155762
0.694836 0.159125 0.150464
0.783368 0.156555 0.148303
0.851837 0.154871 0.146784
0.908044 0.153901 0.145776
0.958856 0.158514 0.145147
0.989771 0.172235 0.145203
0.993170 0.188775 0.145404
0.996570 0.204901 0.146808
0.999969 0.220697 0.149323
0.167719 0.232404 0.189624
0.172119 0.242218 0.193207
0.176386 0.252093 0.194757
0.185809 0.249646 0.190656
0.235284 0.244494 0.185693
0.329181 0.234131 0.176026
0.494958 0.223492 0.162189
0.663312 0.213501 0.152984
0.769897 0.208234 0.149433
0.849670 0.205048 0.147394
0.911700 0.202557 0.146203
0.968475 0.198217 0.145569
0.989771 0.194513 0.145545
0.993170 0.198590 0.145740
0.996570 0.211981 0.147088
0.999969 0.227539 0.149591
0.169098 0.326538 0.204394
0.172571 0.334723 0.204663
0.175879 0.362085 0.209784
0.179913 0.376569 0.205011
0.223193 0.364081 0.198504
0.335657 0.360327 0.191912
0.502258 0.337835 0.175696
0.678503 0.319397 0.160876
0.791657 0.309125 0.154749
0.873651 0.303320 0.151971
0.939038 0.299029 0.150873
0.986371 0.294452 0.151190
0.989771 0.289551 0.152088
0.993170 0.284516 0.153107
0.996570 0.279181 0.153821
0.999969 0.272894 0.154419
0.160821 0.479596 0.225366
0.163788 0.486237 0.224134
0.165741 0.516925 0.229687
0.169177 0.541339 0.228570
0.192847 0.549005 0.220905
0.306384 0.538684 0.213385
0.509015 0.542127 0.201385
0.709308 0.514862 0.183106
0.839191 0.495123 0.173822
0.921283 0.481805 0.170770
0.982605 0.473089 0.170386
0.986371 0.465314 0.172052
0.989771 0.458588 0.175171
0.993170 0.452686 0.178076
0.996570 0.447040 0.181195
0.999969 0.440058 0.182709
0.161066 0.634418 0.243713
0.164880 0.640680 0.242041
0.168927 0.654419 0.243036
