test-luts/APx90.cube
LUT_3D_SIZE 16
0.025138 -0.012864 -0.004761
0.027751 -0.012830 0.005975
0.034351 -0.005742 0.009015
0.047299 0.017682 0.011537
0.077175 0.028298 0.014324
0.115986 0.039334 0.013288
0.162307 0.053094 -0.005869
0.219627 0.066104 -0.005869
0.274691 0.083242 -0.005869
0.328847 0.094169 0.019751
0.381794 0.097118 -0.005869
0.420280 0.103678 -0.005869
0.445384 0.107776 -0.005869
0.464918 0.111243 0.007763
0.480269 0.114323 0.005109
0.489441 0.116233 -0.005869
0.027239 0.019537 0.019026
0.030140 0.020127 0.015421
0.037400 0.022607 0.016559
0.051699 0.029351 0.019058
0.087249 0.037623 0.021167
0.124360 0.050050 0.019356
0.174392 0.065047 -0.005869
0.234956 0.075528 -0.005869
0.293527 0.093761 0.017380
0.359277 0.102294 -0.005869
0.408558 0.111920 0.018389
0.442872 0.118544 0.029420
0.475955 0.115650 -0.005869
0.494271 0.119196 -0.005869
0.507577 0.122238 -0.005869
0.513691 0.134954 0.031224
0.029092 0.038877 0.024856
0.032342 0.039595 0.024696
0.040653 0.041722 0.025319
0.056980 0.047107 0.027046
0.095720 0.054133 0.028595
0.134412 0.069744 0.025906
0.189827 0.080282 -0.005869
0.254538 0.089518 -0.005869
0.318344 0.107256 -0.002890
0.387002 0.118181 -0.005869
0.438507 0.129566 0.025927
0.480525 0.130835 -0.005869
0.506349 0.136561 -0.005869
0.523979 0.140689 -0.005869
0.537414 0.144293 -0.005869
0.542945 0.156289 0.035273
0.032387 0.061709 0.039466
0.028754 0.063820 0.035200
0.039874 0.066224 0.035547
0.060525 0.079140 0.036505
0.103430 0.084643 0.037241
0.143513 0.093193 0.032906
0.205099 0.100895 -0.005869
0.274896 0.112923 -0.005869
0.346420 0.127534 -0.005869
0.414488 0.142566 0.013298
0.473298 0.151771 -0.005869
0.510327 0.160948 0.026176
0.533798 0.167076 0.033817
0.552107 0.172569 0.033658
0.568038 0.178193 0.025616
0.580455 0.183235 -0.005869
0.050692 0.095962 0.061319
0.047077 0.097229 0.058422
0.030957 0.103539 0.045991
0.058413 0.109830 0.046103
0.103241 0.118682 0.045457
0.150766 0.123160 0.037053
0.218704 0.130212 -0.005869
0.299395 0.143393 -0.005869
0.373956 0.160936 -0.005869
0.446669 0.176996 0.017540
0.504251 0.189190 0.029113
0.545823 0.195082 0.010202
0.568222 0.201397 0.033017
0.587215 0.208327 0.029658
0.605826 0.216434 -0.005869
0.614030 0.228172 0.037430
0.083675 0.117998 0.093249
0.081927 0.119306 0.091977
0.076883 0.124639 0.088372
0.033935 0.140024 0.055131
0.094814 0.149779 0.048324
0.157742 0.162146 0.030112
0.233111 0.171785 -0.005869
0.319660 0.189037 -0.005869
0.405102 0.211184 0.025756
0.484634 0.227777 0.014429
0.544390 0.239519 0.020552
0.585322 0.247879 0.028753
0.614607 0.252633 -0.005869
0.632403 0.259983 -0.005869
0.643711 0.272343 0.027200
0.655926 0.286102 0.040197
0.111722 0.145002 0.121149
0.108891 0.147223 0.119595
0.107413 0.153576 0.118815
0.094326 0.167897 0.108709
0.076402 0.192768 0.037168
0.158326 0.210367 -0.005869
0.248003 0.229159 -0.005869
0.344343 0.251732 -0.005869
0.440324 0.277263 0.027618
0.524503 0.296673 0.025136
0.587017 0.310713 0.035358
0.632900 0.320785 0.016355
0.662344 0.328417 -0.005869
0.679345 0.336737 -0.005869
0.691245 0.349578 0.027665
0.706095 0.366010 0.023520
0.138294 0.182530 0.149956
0.137207 0.185918 0.149503
0.133138 0.195091 0.147795
0.117120 0.213979 0.136335
0.025138 0.250674 0.031802
0.156128 0.276838 -0.005869
0.263428 0.302560 -0.005869
0.367760 0.330353 -0.005869
0.476481 0.361766 -0.005869
0.566934 0.386222 0.023221
0.637399 0.403502 -0.005869
0.682680 0.415174 0.028256
0.711793 0.424870 0.032775
0.730095 0.435502 0.036658
0.747529 0.449374 -0.005869
0.757880 0.467013 0.043928
0.160576 0.231256 0.177743
0.167297 0.234474 0.182732
0.162810 0.247455 0.181029
0.155713 0.270806 0.175794
0.057948 0.312458 0.100764
0.154493 0.355824 -0.005869
0.284262 0.388793 -0.005869
0.399156 0.421973 -0.005869
0.511538 0.457822 0.018469
0.611493 0.490056 -0.005869
0.686199 0.511738 -0.005869
0.735153 0.524280 -0.005869
0.765206 0.535408 0.038068
0.787680 0.547738 -0.005869
0.800690 0.561492 0.028425
0.812251 0.577281 0.034039
0.183176 0.278922 0.204758
0.195763 0.284755 0.214469
0.196065 0.299646 0.216311
0.181726 0.328173 0.206429
0.082594 0.380236 0.126517
0.157273 0.432546 -0.005869
0.305433 0.474013 -0.005869
0.434405 0.516321 -0.005869
0.545877 0.549746 -0.005869
0.650041 0.587725 -0.005869
0.730956 0.615692 -0.005869
0.785072 0.633544 -0.005869
0.817929 0.645082 -0.005869
0.835909 0.654680 0.030087
0.848940 0.665895 0.021669
0.860250 0.679076 -0.005869
0.216563 0.314033 0.236772
0.215583 0.325843 0.237094
0.214797 0.343180 0.238004
0.200848 0.376157 0.227509
0.073137 0.435357 0.132450
0.168888 0.492887 -0.005869
0.324929 0.541293 -0.005869
0.462650 0.590384 0.025994
0.582623 0.630871 -0.005869
0.682266 0.664810 -0.004175
0.767558 0.698355 -0.003443
0.823681 0.718609 0.033661
0.855808 0.729915 0.035016
0.873238 0.737417 0.031998
0.883777 0.745032 0.043701
0.891596 0.753398 0.044193
0.220906 0.340892 0.245900
0.232176 0.352086 0.255163
0.231565 0.372007 0.256415
0.216547 0.408040 0.245042
0.060357 0.472391 0.127674
0.186158 0.532901 -0.005869
0.343441 0.585464 0.031562
0.483504 0.639355 -0.005869
0.607999 0.684063 -0.005869
0.708971 0.718681 -0.005869
0.793575 0.752985 0.046074
0.848201 0.772980 0.061365
0.878855 0.783378 0.062072
0.895273 0.790140 0.083820
0.905310 0.795213 0.071602
0.910547 0.798905 0.079764
0.236966 0.356194 0.260035
0.232439 0.373428 0.259659
0.213906 0.400460 0.248017
0.209687 0.437985 0.240914
0.025138 0.500575 0.114008
0.204416 0.556631 0.032925
0.357759 0.611547 0.035418
0.498115 0.666477 0.033443
0.624454 0.714404 -0.005869
0.727428 0.751218 0.028306
0.809898 0.783838 0.054109
0.864762 0.804713 0.067369
0.893895 0.814163 0.088352
0.909812 0.819660 0.089694
0.918278 0.823142 0.094836
0.923294 0.824924 0.088382
0.242894 0.365047 0.266441
0.244237 0.388103 0.269842
0.242505 0.416470 0.270566
0.205563 0.458396 0.240161
0.081167 0.519051 0.116424
0.221277 0.574276 -0.005869
0.372139 0.628979 0.017330
0.512107 0.684358 0.031879
0.636904 0.731621 -0.005869
0.738569 0.767918 0.036290
0.819718 0.799874 0.059776
0.875328 0.821369 0.082025
0.905100 0.830565 0.089800
0.919626 0.834655 0.098348
0.927624 0.836929 0.095709
0.931639 0.838152 0.098344
0.241937 0.388903 0.272374
0.245937 0.420561 0.277039
0.212213 0.461272 0.250948
0.129409 0.509814 0.178678
0.048624 0.563779 -0.005869
0.269150 0.603662 0.033335
0.406056 0.655798 -0.005869
0.538329 0.707109 -0.005869
0.657293 0.750400 -0.005869
0.755113 0.784285 0.041447
0.834219 0.814528 0.064232
0.889131 0.835059 0.087276
0.917940 0.842737 0.094345
0.931213 0.844856 0.102211
0.938365 0.845885 0.099992
0.942133 0.846649 0.102470
0.275031 0.429416 0.306707
0.254589 0.478905 0.291559
0.207717 0.530706 0.247116
0.025138 0.588845 -0.005757
0.178049 0.621226 -0.005869
0.331727 0.657635 -0.005869
0.461587 0.699224 -0.005869
0.579718 0.738879 0.028010
0.688140 0.776069 0.018937
0.780608 0.806384 0.047191
0.856933 0.833988 0.076143
0.907882 0.850284 0.093987
0.933021 0.854453 0.100348
0.944955 0.854656 0.101657
0.950363 0.854487 0.105881
0.953135 0.853704 0.108318
0.025579 -0.012864 0.013994
0.028189 -0.008226 0.015352
0.035261 0.009748 0.016784
0.048579 0.019453 0.018761
0.081938 0.030139 0.021491
0.120326 0.041644 0.022574
0.168163 0.054470 -0.005869
0.225369 0.066188 -0.005869
0.287413 0.074145 -0.005869
0.341357 0.089215 -0.005869
0.392192 0.097820 -0.005869
0.431389 0.104120 0.018213
0.456517 0.108491 0.023325
0.474966 0.111670 0.027203
0.490590 0.114291 0.030323
0.502761 0.116821 0.029929
0.028244 0.021401 0.020695
0.030706 0.022272 0.021669
0.037880 0.025077 0.022749
0.052993 0.031514 0.024659
0.090422 0.040129 0.027008
0.128161 0.053131 0.025697
0.180752 0.066037 -0.005869
0.241639 0.075685 -0.005869
0.306284 0.087198 -0.005869
0.366244 0.102460 0.018918
0.423960 0.105181 -0.005869
0.460766 0.111772 -0.005869
0.486859 0.116540 -0.005869
0.504569 0.119947 -0.005869
0.518391 0.122903 -0.005869
0.533367 0.126391 -0.005869
0.029086 0.040717 0.029920
0.032859 0.041404 0.029421
0.040958 0.043535 0.030056
0.057907 0.049123 0.032019
0.097956 0.056461 0.033652
0.137690 0.072208 0.031467
0.195451 0.081550 -0.005869
0.262265 0.090187 -0.005869
0.326377 0.108424 0.022070
0.396016 0.119287 0.018103
0.455558 0.124764 -0.005869
0.492263 0.132461 -0.005869
0.515874 0.137269 0.012808
0.533782 0.141450 0.014170
0.549335 0.145768 -0.005869
0.563033 0.149745 -0.005869
0.043110 0.061959 0.048988
0.035265 0.064989 0.042623
0.040412 0.068743 0.039640
0.060628 0.082749 0.041458
0.104811 0.086531 0.041949
0.146883 0.094831 0.038505
0.210285 0.102424 -0.005869
0.286486 0.112046 -0.005869
0.357990 0.129823 -0.005869
0.426650 0.145247 0.027466
0.486164 0.154494 0.017583
0.530850 0.157622 -0.005869
0.553168 0.162816 -0.005869
0.571835 0.168016 -0.005869
0.589856 0.173987 -0.005869
0.595169 0.186056 0.027808
0.058244 0.096738 0.067992
0.054353 0.098354 0.064978
0.045372 0.104732 0.057527
0.059205 0.112149 0.051174
0.104402 0.120316 0.050069
0.154612 0.124808 0.042851
0.224791 0.132122 -0.005869
0.307538 0.145793 -0.005869
0.387431 0.164687 -0.005869
0.460238 0.180992 0.031273
0.524330 0.189207 -0.005869
0.561546 0.199565 0.028560
0.592857 0.201596 -0.005869
0.603690 0.212967 0.039466
0.621284 0.220524 0.023814
0.638370 0.228601 -0.005869
0.089894 0.119057 0.098547
0.089384 0.120352 0.098316
0.086265 0.125336 0.096375
0.055064 0.141174 0.070745
0.096388 0.153153 0.052804
0.161961 0.165557 0.038355
0.240816 0.175797 -0.005869
0.332167 0.193113 -0.005869
0.422255 0.213966 -0.005869
0.498568 0.232992 0.031486
0.560360 0.245261 0.035220
0.607710 0.250661 -0.005869
0.631996 0.258569 -0.005869
0.650264 0.266127 -0.005869
0.660843 0.278349 0.040168
0.680081 0.289485 -0.005869
0.116214 0.146482 0.125126
0.115520 0.149143 0.125061
0.113396 0.155781 0.124352
0.102519 0.170312 0.116471
0.078004 0.197860 0.044706
0.164408 0.216577 -0.005869
0.257066 0.236261 -0.005869
0.356226 0.259089 -0.005869
0.454875 0.283697 -0.005869
0.541016 0.305491 0.030472
0.606152 0.320441 0.038711
0.650414 0.328547 0.033408
0.681173 0.336727 -0.005869
0.699582 0.345873 -0.005869
0.711408 0.358901 0.038273
0.726929 0.376082 0.033771
0.142444 0.186346 0.154071
0.140417 0.190803 0.153593
0.141883 0.199746 0.155549
0.132673 0.217191 0.149153
0.025138 0.257360 0.035795
0.161183 0.284890 -0.005869
0.272358 0.311707 -0.005869
0.380337 0.339826 -0.005869
0.490207 0.370513 -0.005869
0.584748 0.397768 0.028691
0.659250 0.417887 -0.005869
0.704920 0.428901 0.025869
0.735096 0.438602 0.034451
0.756198 0.447140 -0.005869
0.767804 0.460066 -0.005869
0.781793 0.481654 0.045101
0.174523 0.235863 0.189333
0.173954 0.242874 0.189754
0.173830 0.254167 0.190990
0.150780 0.277534 0.174835
0.070992 0.319494 0.109207
0.152871 0.364751 -0.005869
0.290633 0.400463 -0.005869
0.410204 0.433141 -0.005869
0.524814 0.468533 -0.005869
0.628670 0.502814 -0.005869
0.708953 0.528884 -0.005869
0.761079 0.544118 -0.005869
0.791020 0.554276 0.031876
0.808845 0.561407 -0.005869
0.818868 0.572107 0.044789
0.834925 0.593037 0.037211
0.204072 0.284615 0.222010
0.203332 0.293730 0.222402
0.202712 0.307813 0.223315
0.193139 0.334760 0.216754
0.090997 0.389694 0.133616
0.157717 0.445319 -0.005869
0.314539 0.487833 -0.005869
0.447222 0.531577 -0.005869
0.561765 0.565043 -0.005869
0.670781 0.604961 -0.005869
0.754129 0.633917 -0.005869
0.808580 0.651446 0.019337
0.842880 0.664829 -0.005869
0.859697 0.673415 0.030248
0.870237 0.681770 0.028572
0.881491 0.694928 -0.005869
0.224316 0.322825 0.244858
0.227394 0.331989 0.248956
0.219521 0.351029 0.245038
0.197299 0.384615 0.229087
0.104518 0.444616 0.151287
0.168931 0.507152 -0.005869
0.337387 0.556005 0.035385
0.478135 0.607119 0.016347
0.600612 0.647706 0.014199
0.704616 0.683204 -0.005869
0.790573 0.716142 0.033705
0.846210 0.735197 0.022012
0.877822 0.746743 0.053084
0.895053 0.754332 0.051062
0.904145 0.760725 0.058338
0.910910 0.767761 0.059330
0.240451 0.346130 0.262225
0.223710 0.362854 0.252712
0.240387 0.382897 0.265729
0.224802 0.418959 0.253807
0.111608 0.479819 0.161497
0.181721 0.545394 -0.005869
0.353193 0.599831 0.027163
0.498760 0.654693 -0.005869
0.624647 0.698631 -0.005869
0.727755 0.733361 0.025767
0.816462 0.769747 0.050394
0.871583 0.789651 0.062316
0.899531 0.797415 0.082556
0.914367 0.801569 0.083036
0.922413 0.805729 0.089567
0.927770 0.810203 0.092072
0.251731 0.361290 0.274242
0.252844 0.379350 0.277121
0.253613 0.404778 0.280176
0.236609 0.443212 0.267018
0.053224 0.507353 0.137161
0.190558 0.571511 -0.005869
0.361958 0.625924 -0.005869
0.510105 0.681130 0.030477
0.641405 0.729141 0.025300
0.745964 0.765217 0.038344
0.831101 0.798658 0.062638
0.886806 0.818974 0.086430
0.914749 0.826142 0.090394
0.927836 0.828950 0.090356
0.934395 0.831295 0.095130
0.937914 0.832643 0.097533
0.253902 0.369689 0.279270
0.248062 0.393532 0.278125
0.263314 0.420270 0.290742
0.219524 0.464696 0.257223
0.025138 0.533007 0.121009
0.211726 0.590170 -0.005869
0.377259 0.643895 0.034854
0.524518 0.700108 0.030436
0.654231 0.748006 -0.005869
0.758077 0.783391 0.040626
0.841416 0.814960 0.064930
0.896113 0.834442 0.087332
0.923290 0.841162 0.098388
0.935909 0.843430 0.099292
0.941689 0.844545 0.102990
0.944926 0.844605 0.097687
0.293313 0.388640 0.315211
0.294740 0.421911 0.320402
0.287872 0.458265 0.317321
0.244136 0.507348 0.279215
0.025138 0.578036 0.107082
0.224203 0.635962 -0.005869
0.403900 0.682612 -0.005869
0.551275 0.729264 -0.005869
0.674399 0.771467 -0.005869
0.775728 0.803767 0.046762
0.857453 0.832781 0.071430
0.909829 0.849418 0.095293
0.934896 0.853372 0.101728
0.945759 0.853522 0.102665
0.950724 0.853242 0.106521
0.953560 0.852742 0.101914
0.344322 0.427709 0.365490
0.329374 0.478241 0.361485
0.305211 0.528503 0.344722
0.235058 0.581300 0.284293
0.025138 0.652738 -0.005832
0.284880 0.695054 -0.005869
0.447985 0.738797 -0.005869
0.589706 0.779302 -0.005869
0.711537 0.812924 -0.005869
0.807477 0.836312 -0.005869
0.882750 0.857287 -0.005869
0.931152 0.868254 -0.005836
0.948810 0.865762 0.099451
0.955671 0.861820 0.107669
0.958225 0.858992 0.111535
0.958369 0.858200 0.139554
0.025172 -0.009866 0.029372
0.028146 0.007332 0.030168
0.035859 0.015495 0.031014
0.050052 0.022876 0.032652
0.084975 0.032406 0.035194
0.122667 0.043950 0.036743
0.171979 0.054720 0.032210
0.236822 0.051429 -0.005869
0.304853 0.051960 -0.005869
0.364164 0.072022 -0.005869
0.412308 0.086975 -0.005869
0.451958 0.091669 0.014003
0.478537 0.095358 0.016868
0.497852 0.098054 0.018858
0.513678 0.099722 0.024556
0.526997 0.100811 0.030073
0.027893 0.024695 0.035052
0.030969 0.025414 0.035306
0.038858 0.028839 0.036183
0.055095 0.034862 0.038024
0.092988 0.043092 0.040325
0.130414 0.055626 0.041002
0.185740 0.067728 0.034310
0.257045 0.066529 -0.005869
0.327977 0.073482 -0.005869
0.387380 0.092737 0.007557
0.447612 0.090944 -0.005869
0.484714 0.098885 -0.005869
0.511233 0.102637 -0.005869
0.529387 0.105411 -0.005869
0.544110 0.107626 -0.005869
0.558740 0.109897 -0.005869
0.037500 0.041932 0.041493
0.039271 0.042804 0.042310
0.042513 0.046470 0.043769
0.059604 0.052284 0.044541
0.099919 0.059737 0.046988
0.140298 0.074607 0.047301
0.200273 0.082647 0.038024
0.277523 0.083923 -0.005869
0.356463 0.089124 -0.005869
0.418379 0.110439 -0.005869
0.478430 0.114553 -0.005869
0.516260 0.122370 -0.005869
0.540839 0.126688 -0.005869
0.559537 0.130541 -0.005869
0.575737 0.134271 -0.005869
0.589858 0.137538 -0.005869
0.053064 0.063186 0.058402
0.053975 0.064383 0.059016
0.048957 0.077008 0.056778
0.061315 0.087140 0.054194
0.106458 0.091231 0.056056
0.150450 0.097369 0.054723
0.215264 0.104034 0.041582
0.299860 0.108682 -0.005869
0.386924 0.115962 -0.005869
0.462078 0.128630 -0.005869
0.510610 0.149397 0.019103
0.548347 0.157889 0.035658
0.579930 0.155030 -0.005869
0.599181 0.159846 -0.005869
0.608013 0.173869 0.039179
0.622376 0.178878 0.031324
0.075051 0.096392 0.082066
0.072939 0.097617 0.080663
0.071588 0.103437 0.080261
0.058216 0.115539 0.064594
0.105942 0.123467 0.065593
0.158914 0.127846 0.060203
0.230598 0.135032 0.042203
0.323219 0.144951 -0.005869
0.418212 0.157663 -0.005869
0.499374 0.171678 -0.005869
0.557087 0.184864 -0.005869
0.589436 0.197282 0.028830
0.613601 0.203919 0.039747
0.632322 0.210159 0.039271
0.650174 0.217162 0.026569
0.667080 0.224722 -0.005869
0.098945 0.120685 0.107061
0.099523 0.121388 0.107352
0.101824 0.125357 0.109367
0.089465 0.139765 0.101071
0.099609 0.156534 0.074972
0.165709 0.169661 0.060868
0.246607 0.180103 0.031276
0.347287 0.195974 -0.005869
0.449754 0.215852 -0.005869
0.536892 0.230990 -0.005869
0.597197 0.242417 -0.005869
0.627701 0.254591 0.039916
0.659924 0.259127 -0.005869
0.680676 0.267514 -0.005869
0.692176 0.280832 0.037930
0.711885 0.291367 -0.005869
0.122606 0.149797 0.131981
0.124433 0.152243 0.133740
0.127506 0.157223 0.136520
0.120409 0.171119 0.132681
0.073711 0.202681 0.069012
0.165531 0.221376 0.049786
0.263874 0.241740 -0.005869
0.373111 0.265110 -0.005869
0.481370 0.288849 -0.005869
0.572078 0.309192 -0.005869
0.635160 0.323823 -0.005869
0.676214 0.332793 0.035565
0.709780 0.341839 -0.005869
0.731076 0.352695 -0.005869
0.743889 0.366648 0.027073
0.758774 0.383406 0.029080
0.154764 0.189658 0.165186
0.157363 0.194395 0.167982
0.153106 0.203923 0.166866
0.150685 0.220437 0.166040
0.045238 0.263250 0.084466
0.157990 0.293473 -0.005869
0.279745 0.321297 -0.005869
0.398015 0.351401 -0.005869
0.511187 0.380497 -0.005869
0.606190 0.407063 0.021018
0.681211 0.427243 0.040754
0.733020 0.438564 0.016496
0.765258 0.449494 0.017446
0.784071 0.460187 0.024492
0.795485 0.473400 0.046293
0.810354 0.491881 0.037734
0.186517 0.241452 0.201121
0.189988 0.247274 0.204475
0.187438 0.259551 0.204661
0.184756 0.281722 0.204004
0.098816 0.327400 0.138202
0.138803 0.380829 -0.005869
0.297643 0.417044 -0.005869
0.425910 0.450084 -0.005869
0.543998 0.484478 -0.005869
0.651001 0.518463 -0.005869
0.734344 0.544949 0.026179
0.788958 0.560632 0.034550
0.821273 0.570239 -0.005869
0.836502 0.578154 0.029124
0.849390 0.589488 -0.005869
0.861025 0.605395 -0.005869
0.207656 0.293680 0.229058
0.222724 0.298642 0.240504
0.212681 0.315134 0.235471
0.213841 0.342065 0.236992
0.154331 0.396120 0.185840
0.129725 0.465452 -0.005869
0.319797 0.508682 -0.005869
0.462008 0.550727 -0.004805
0.581021 0.583741 -0.005869
0.695082 0.625036 -0.005869
0.781806 0.655118 0.022374
0.837215 0.672552 0.034890
0.869228 0.682903 -0.005869
0.885369 0.689131 -0.005869
0.894677 0.696898 -0.005869
0.902944 0.709105 0.034685
0.246204 0.328545 0.265350
0.246834 0.339795 0.267340
0.248283 0.357224 0.270656
0.242732 0.389310 0.268511
0.176560 0.451035 0.211253
0.122710 0.529287 -0.005869
0.339087 0.576800 -0.005869
0.490591 0.626612 0.029116
0.618227 0.666824 0.014662
0.727910 0.703852 -0.005869
0.816995 0.737481 0.034895
0.871222 0.754806 0.048268
0.900030 0.763246 0.067166
0.914835 0.767873 0.066571
0.922413 0.772618 0.078844
0.928757 0.780294 0.078422
0.265150 0.352447 0.285364
0.266563 0.366060 0.288354
0.269932 0.387502 0.293854
0.265001 0.423528 0.292592
0.192915 0.487631 0.229585
0.117394 0.569809 -0.005869
0.350300 0.621182 -0.005869
0.508697 0.674021 -0.005869
0.640842 0.718085 -0.005869
0.748117 0.752134 0.036679
0.839327 0.788603 0.061147
0.892657 0.805478 0.080849
0.918260 0.810441 0.092961
0.931079 0.813267 0.093363
0.938404 0.816142 0.086495
0.942392 0.819203 0.088979
0.269735 0.367943 0.293821
0.286976 0.381548 0.308613
0.286977 0.409157 0.311861
0.280484 0.446141 0.309281
0.205221 0.511830 0.243078
0.105105 0.598619 -0.005869
0.357076 0.651483 -0.005869
0.520904 0.703648 -0.005869
0.656370 0.749498 -0.005869
0.765645 0.784519 0.045018
0.854490 0.817876 0.067361
0.906936 0.833987 0.094746
0.931173 0.837506 0.098145
0.941930 0.838126 0.098220
0.947358 0.839743 0.102197
0.950089 0.840304 0.104150
0.290602 0.374032 0.312026
0.291887 0.396706 0.317460
0.307213 0.422627 0.331952
0.294432 0.465240 0.324158
0.163212 0.535536 0.223995
0.099991 0.623163 -0.005869
0.362461 0.676427 -0.005869
0.530748 0.725490 -0.005869
0.666224 0.768679 0.026085
0.776067 0.803650 0.046661
0.863111 0.834377 0.078025
0.915310 0.849360 0.095027
0.938380 0.851527 0.104512
0.948493 0.851326 0.105527
0.953282 0.851074 0.102313
0.955093 0.850888 0.104240
0.322665 0.395800 0.344037
0.343306 0.424812 0.364102
0.347799 0.459294 0.373034
0.337685 0.503804 0.368529
0.273018 0.573529 0.311944
0.138087 0.664472 -0.005869
0.379864 0.717223 -0.005869
0.551644 0.765577 -0.005869
0.691643 0.804338 -0.005869
0.801215 0.832677 -0.005869
0.883627 0.855955 -0.005869
0.930551 0.864662 0.037501
0.949254 0.863100 0.104794
0.956693 0.859258 0.101930
0.958369 0.855571 0.066149
0.958369 0.856263 0.134126
0.359884 0.441721 0.387905
0.391066 0.480400 0.416563
0.411169 0.521691 0.437619
0.401542 0.568762 0.434619
0.301106 0.650545 0.344739
0.236763 0.714351 0.172610
0.427279 0.761538 0.153501
0.585162 0.806149 0.122215
0.719628 0.842392 -0.005869
0.829556 0.868482 -0.005869
0.910374 0.884045 -0.005869
0.951940 0.881398 -0.005869
0.958369 0.873420 -0.005836
0.958369 0.872740 0.108004
0.958369 0.869248 0.219576
0.958534 0.869429 0.236283
0.025138 0.010088 0.052161
0.027815 0.012783 0.052604
0.036102 0.018907 0.053697
0.051025 0.026013 0.055910
0.087119 0.034584 0.056817
0.124763 0.046145 0.061273
0.174878 0.054328 0.062918
0.242463 0.046389 0.054691
0.322695 -0.012864 0.030534
0.396220 -0.012864 -0.005869
0.452875 -0.012864 -0.005869
0.493237 -0.012864 -0.005869
0.519461 -0.012864 -0.005869
0.538515 -0.012864 -0.005869
0.554045 -0.012864 -0.005869
0.566564 -0.012864 -0.005869
0.026448 0.028957 0.058730
0.030326 0.029120 0.058089
0.039023 0.032400 0.059410
0.056453 0.038207 0.062638
0.094936 0.046294 0.062900
0.132426 0.058321 0.066721
0.189628 0.067418 0.066005
0.264947 0.061163 0.056695
0.351137 -0.012864 0.028688
0.431099 -0.012864 -0.005869
0.489889 -0.012864 -0.005869
0.528939 -0.012864 -0.005869
0.556159 -0.012864 -0.005869
0.576092 -0.012864 -0.005869
0.592292 -0.012864 -0.005869
0.607216 -0.012864 -0.005869
0.041103 0.046748 0.053586
0.041937 0.047392 0.054904
0.044616 0.050925 0.062341
0.060548 0.057049 0.076459
0.101870 0.066215 0.074409
0.142297 0.084869 0.082407
0.204535 0.087572 0.077211
0.286076 0.082294 0.060971
0.378065 0.068390 0.028015
0.464846 -0.012864 -0.005869
0.528261 -0.012864 -0.005869
0.569724 -0.012864 -0.005869
0.596996 -0.012864 -0.005869
0.617122 -0.012864 -0.005869
0.634760 -0.012864 -0.005869
0.651320 -0.012864 -0.005869
0.057760 0.066902 0.071498
0.060417 0.070403 0.074081
0.067321 0.079223 0.080618
0.079964 0.088736 0.087140
0.107761 0.100209 0.092035
0.152844 0.107419 0.092303
0.219771 0.112386 0.087141
0.307521 0.109450 0.065378
0.407101 0.105634 0.027242
0.498714 0.095928 -0.005869
0.571160 0.076645 -0.005869
0.613961 0.073998 -0.005869
0.641054 0.077417 -0.005869
0.661640 0.080436 -0.005869
0.680468 0.081339 -0.005869
0.697505 0.082066 -0.005869
0.083734 0.100280 0.095288
0.084380 0.101293 0.095891
0.086777 0.105182 0.098370
0.094991 0.111996 0.103321
0.109696 0.127091 0.100266
0.161486 0.135494 0.099191
0.235180 0.144109 0.093523
0.331580 0.147510 0.067874
0.441113 0.151977 0.012232
0.537665 0.153731 -0.005869
0.608126 0.154424 -0.005869
0.645039 0.162231 -0.005869
0.683265 0.153033 -0.005869
0.705549 0.157378 -0.005869
0.712723 0.177971 -0.005869
0.731751 0.182940 -0.005869
0.102721 0.124966 0.115078
0.103699 0.126226 0.116021
0.106712 0.129983 0.118659
0.113681 0.138839 0.123633
0.104565 0.160779 0.106477
0.166561 0.174025 0.104286
0.250742 0.188061 0.096569
0.358766 0.201165 0.066374
0.478816 0.215171 -0.005869
0.577396 0.223153 -0.005869
0.650045 0.227182 -0.005869
0.697572 0.229898 -0.005869
0.723886 0.237679 -0.005869
0.746816 0.245242 -0.005869
0.756696 0.261612 -0.005869
0.777772 0.270455 -0.005869
0.127541 0.155594 0.140502
0.129446 0.158002 0.142307
0.133056 0.162674 0.145431
0.140789 0.172382 0.151729
0.100134 0.204349 0.122719
0.165208 0.226425 0.106648
0.265991 0.247613 0.093620
0.388375 0.273209 0.047155
0.513572 0.294519 -0.005869
0.617518 0.309948 -0.005869
0.694543 0.320992 -0.005869
