test-luts/APx90.cube
LUT_3D_SIZE 6
0.025138 -0.012864 -0.004761
0.047299 0.017682 0.011537
0.162307 0.053094 -0.005869
0.328847 0.094169 0.019751
0.445384 0.107776 -0.005869
0.489441 0.116233 -0.005869
0.032387 0.061709 0.039466
0.060525 0.079140 0.036505
0.205099 0.100895 -0.005869
0.414488 0.142566 0.013298
0.533798 0.167076 0.033817
0.580455 0.183235 -0.005869
0.111722 0.145002 0.121149
0.094326 0.167897 0.108709
0.248003 0.229159 -0.005869
0.524503 0.296673 0.025136
0.662344 0.328417 -0.005869
0.706095 0.366010 0.023520
0.183176 0.278922 0.204758
0.181726 0.328173 0.206429
0.305433 0.474013 -0.005869
0.650041 0.587725 -0.005869
0.817929 0.645082 -0.005869
0.860250 0.679076 -0.005869
0.236966 0.356194 0.260035
0.209687 0.437985 0.240914
0.357759 0.611547 0.035418
0.727428 0.751218 0.028306
0.893895 0.814163 0.088352
0.923294 0.824924 0.088382
0.275031 0.429416 0.306707
0.025138 0.588845 -0.005757
0.461587 0.699224 -0.005869
0.780608 0.806384 0.047191
0.933021 0.854453 0.100348
0.953135 0.853704 0.108318
0.025138 0.010088 0.052161
0.051025 0.026013 0.055910
0.174878 0.054328 0.062918
0.396220 -0.012864 -0.005869
0.519461 -0.012864 -0.005869
0.566564 -0.012864 -0.005869
0.057760 0.066902 0.071498
0.079964 0.088736 0.087140
0.219771 0.112386 0.087141
0.498714 0.095928 -0.005869
0.641054 0.077417 -0.005869
0.697505 0.082066 -0.005869
0.127541 0.155594 0.140502
0.140789 0.172382 0.151729
0.265991 0.247613 0.093620
0.617518 0.309948 -0.005869
0.772683 0.335625 -0.005869
0.822206 0.379344 -0.005869
0.243075 0.298436 0.259113
0.247950 0.348082 0.271295
0.312853 0.538606 -0.005869
0.725493 0.648562 -0.005869
0.897017 0.698160 -0.005869
0.927402 0.722369 0.018950
0.305467 0.375058 0.326372
0.338183 0.447135 0.362884
0.324441 0.687406 -0.005869
0.792921 0.814186 -0.005869
0.946426 0.849142 0.104740
0.958369 0.843614 0.052048
0.374584 0.459000 0.412575
0.464513 0.570561 0.495911
0.386009 0.779393 0.254237
0.825411 0.887790 0.212467
0.958369 0.888412 0.182779
0.958369 0.884782 0.340836
0.032423 0.058911 0.146991
0.056874 -0.012864 0.181217
0.182295 0.017090 0.199435
0.410574 -0.012864 0.214713
0.534055 -0.012864 0.231771
0.584675 -0.012864 0.248561
0.090108 0.105521 0.134822
0.062928 0.095909 0.198098
0.228038 0.126079 0.244728
0.528564 0.101486 0.271493
0.685181 -0.012864 0.279931
0.734493 -0.012864 0.305909
0.161091 0.194369 0.204901
0.173580 0.209488 0.220954
0.271422 0.279446 0.286436
0.643457 0.308933 0.302733
0.822483 0.305512 0.299731
0.867848 0.354099 0.317735
0.291452 0.355405 0.338225
0.329344 0.402108 0.378266
0.402490 0.578962 0.456451
0.763191 0.718298 0.341338
0.945913 0.738434 0.329504
0.958369 0.752644 0.343414
0.360624 0.440168 0.416531
0.414234 0.506132 0.472110
0.562110 0.706650 0.607345
0.803288 0.903177 0.404090
0.958369 0.897030 0.385573
0.958369 0.896325 0.478056
0.430182 0.524039 0.507849
0.517544 0.631686 0.598408
0.655432 0.786875 0.712700
0.788085 0.945222 0.562490
0.958168 0.943207 0.556558
0.958369 0.937142 0.634179
0.095744 0.123054 0.190180
0.039772 -0.012864 0.336031
0.195165 -0.012864 0.381090
0.421542 -0.012864 0.406123
0.552580 0.048752 0.431682
0.602725 0.049351 0.457915
0.138673 0.164978 0.224748
0.134577 0.170444 0.264309
0.251186 0.112468 0.499369
0.543999 -0.012864 0.527395
0.703173 -0.012864 0.557483
0.752296 -0.012864 0.589291
0.224790 0.268006 0.316070
0.242015 0.288081 0.344002
0.242673 0.332116 0.594297
0.646079 0.339813 0.648861
0.829341 0.333913 0.672551
0.872413 0.380330 0.696929
0.367307 0.444338 0.464212
0.407444 0.493166 0.512062
0.531876 0.644905 0.658487
0.754316 0.771679 0.762771
0.935862 0.793335 0.756776
0.954059 0.820132 0.767415
0.435179 0.527541 0.539326
0.490941 0.595701 0.603485
0.639637 0.778185 0.766053
0.797747 0.950791 0.848485
0.954386 0.976426 0.820461
0.958689 0.970701 0.849403
0.494225 0.598945 0.614513
0.577543 0.700831 0.709631
0.693661 0.840857 0.833573
0.877691 0.951204 0.920010
0.948595 1.003982 0.900510
0.958555 0.996977 0.926005
0.121848 0.154545 0.238730
0.114086 0.155846 0.279541
0.208613 -0.012864 0.493402
0.447128 0.043623 0.525122
0.571869 0.064330 0.545509
0.621529 0.057859 0.572904
0.174759 0.207246 0.283565
0.177345 0.217011 0.317767
0.261426 0.098398 0.655774
0.579184 -0.012864 0.700505
0.717227 -0.012864 0.709380
0.768569 -0.012864 0.745189
0.262744 0.312203 0.378018
0.282980 0.335251 0.414870
0.233991 0.364849 0.766674
0.664255 0.349519 0.845174
0.835379 0.345607 0.855959
0.873908 0.391909 0.873898
0.410781 0.494880 0.534815
0.449742 0.542233 0.584919
0.580189 0.698950 0.760405
0.738621 0.798773 0.904655
0.927567 0.815576 0.962396
0.949984 0.848758 0.959580
0.474904 0.574020 0.602954
0.533288 0.645018 0.672914
0.670092 0.811893 0.835779
0.867307 0.945229 0.948015
0.976416 0.993608 0.990133
0.982463 0.996341 0.992946
0.525374 0.635596 0.664137
0.607964 0.736251 0.761658
0.707791 0.858039 0.878915
0.877859 0.958313 0.958966
0.978817 0.998987 0.995292
0.985880 1.001537 0.998740
0.147767 0.181674 0.266027
0.135900 0.183632 0.327002
0.242791 -0.012864 0.603244
0.517222 -0.012864 0.636616
0.635497 -0.012864 0.636576
0.695082 -0.012864 0.680134
0.205450 0.240903 0.317580
0.215257 0.254908 0.350593
0.256029 0.164499 0.730076
0.610737 0.153660 0.782068
0.763418 0.121276 0.797568
0.806540 0.166773 0.822575
0.285748 0.339736 0.409840
0.308146 0.365762 0.447202
0.284875 0.416101 0.762708
0.667458 0.390553 0.898253
0.849461 0.387729 0.911140
0.891025 0.437136 0.928957
0.420621 0.506420 0.549825
0.464691 0.560026 0.606638
0.585100 0.704392 0.770652
0.734233 0.802780 0.919807
0.915585 0.826083 0.992570
0.949190 0.854633 0.995610
0.482128 0.582313 0.614206
0.545038 0.659119 0.690693
0.672638 0.814461 0.843711
0.855498 0.935285 0.946502
0.975322 0.993507 0.993961
0.984239 0.998898 0.998004
0.532188 0.643328 0.673666
0.613297 0.742448 0.770692
0.706583 0.856045 0.882249
0.866470 0.948726 0.955058
0.977055 0.998322 0.996913
0.986285 1.002227 1.000262
