test-luts/BrightShades.cube
LUT_3D_SIZE 16
0.000000 0.000000 0.000000
0.006937 0.002048 0.002055
0.056822 0.016777 0.016781
0.121356 0.035832 0.035835
0.203246 0.060012 0.060026
0.320923 0.094752 0.094823
0.459302 0.135616 0.135895
0.597443 0.176431 0.177240
0.732094 0.216191 0.218194
0.860517 0.254158 0.258037
0.927436 0.273937 0.279981
0.927446 0.273982 0.281960
0.927451 0.274021 0.283160
0.927454 0.274033 0.283681
0.927455 0.274020 0.283850
0.927456 0.274025 0.284105
0.000000 0.006439 0.000000
0.005568 0.006270 0.000000
0.055030 0.016624 0.016307
0.120407 0.035580 0.035557
0.202716 0.059854 0.059861
0.320634 0.094666 0.094729
0.459014 0.135533 0.135787
0.597331 0.176376 0.177185
0.731919 0.216155 0.218079
0.860462 0.254129 0.257940
0.927435 0.273935 0.279917
0.927445 0.273981 0.281891
0.927451 0.274019 0.283078
0.927454 0.274031 0.283594
0.927454 0.274018 0.283772
0.927456 0.274024 0.284038
0.000000 0.053198 0.000000
0.000843 0.053040 0.000000
0.044981 0.051825 0.000000
0.114101 0.055769 0.038282
0.199015 0.068984 0.060479
0.318462 0.096388 0.094402
0.457713 0.135183 0.135265
0.596403 0.176088 0.176632
0.731424 0.215978 0.217508
0.859865 0.253945 0.257280
0.927433 0.273942 0.279407
0.927443 0.273968 0.281360
0.927448 0.273995 0.282501
0.927451 0.274018 0.283017
0.927452 0.274023 0.283218
0.927453 0.274028 0.283453
0.000000 0.118839 0.000000
0.000000 0.118769 0.000000
0.017886 0.118060 0.000000
0.105099 0.116694 0.000000
0.196918 0.117904 0.063848
0.315431 0.130441 0.100130
0.455605 0.150861 0.137200
0.594730 0.178667 0.176262
0.730023 0.215635 0.216497
0.858829 0.253622 0.256071
0.927428 0.273920 0.278421
0.927437 0.273945 0.280307
0.927443 0.273970 0.281432
0.927445 0.273982 0.281945
0.927446 0.273986 0.282121
0.927448 0.273991 0.282374
0.000000 0.202491 0.000000
0.000000 0.202404 0.000000
0.000000 0.202014 0.000000
0.053379 0.201276 0.000000
0.183099 0.199482 0.000000
0.316932 0.199546 0.096429
0.452340 0.212515 0.149583
0.592375 0.226653 0.184157
0.728040 0.244022 0.219861
0.856735 0.263730 0.255580
0.927471 0.275190 0.276588
0.927447 0.274411 0.278130
0.927444 0.274257 0.279153
0.927444 0.274182 0.279606
0.927444 0.274174 0.279768
0.927443 0.274141 0.279989
0.000000 0.322645 0.000000
0.000000 0.322610 0.000000
0.000000 0.322387 0.000000
0.000000 0.321979 0.000000
0.098847 0.320986 0.000000
0.295466 0.318438 0.000000
0.459032 0.315975 0.116815
0.589144 0.327533 0.205123
0.724605 0.337975 0.239005
0.854191 0.349003 0.270223
0.930204 0.353270 0.288737
0.929854 0.345557 0.287383
0.929706 0.341064 0.286824
0.929601 0.339109 0.286624
0.929635 0.338428 0.286579
0.929584 0.337435 0.286491
0.000000 0.463871 0.000000
0.000000 0.463839 0.000000
0.000000 0.463750 0.000000
0.000000 0.463498 0.000000
0.004710 0.462859 0.000000
0.210025 0.461395 0.000000
0.428526 0.458323 0.000000
0.599449 0.453966 0.085223
0.733723 0.458579 0.225587
0.851220 0.471492 0.297313
0.933677 0.476109 0.318436
0.936225 0.471416 0.317735
0.936047 0.468460 0.316912
0.935937 0.467149 0.316559
0.935899 0.466695 0.316433
0.935957 0.466059 0.316244
0.000000 0.604977 0.000000
0.000000 0.604965 0.000000
0.000000 0.604933 0.000000
0.000000 0.604759 0.000000
0.000000 0.604322 0.000000
0.045350 0.603304 0.000000
0.357770 0.601254 0.000000
0.561513 0.598109 0.000000
0.731030 0.593749 0.000000
0.868370 0.593605 0.225208
0.957734 0.597772 0.295007
0.964644 0.595419 0.301740
0.964057 0.593458 0.302644
0.963904 0.592624 0.303011
0.963789 0.592330 0.303140
0.963621 0.591906 0.303341
0.000000 0.742612 0.000000
0.000000 0.742590 0.000000
0.000000 0.742448 0.000000
0.000000 0.742266 0.000000
0.000000 0.742014 0.000000
0.000000 0.741181 0.000000
0.184749 0.739803 0.000000
0.499041 0.737468 0.000000
0.691037 0.734311 0.000000
0.853782 0.730231 0.000000
0.973635 0.727405 0.163432
0.992756 0.725472 0.197774
0.992483 0.723861 0.200040
0.992441 0.723212 0.200922
0.992356 0.722938 0.201415
0.992293 0.722578 0.201781
0.000000 0.873520 0.000000
0.000000 0.873496 0.000000
0.000000 0.873607 0.000000
0.000000 0.873441 0.000000
0.000000 0.873149 0.000000
0.000000 0.872495 0.000000
0.029283 0.871504 0.000000
0.396975 0.869533 0.000000
0.635094 0.867120 0.000000
0.814501 0.864112 0.000000
0.947059 0.861024 0.000000
0.999640 0.858850 0.000000
1.000000 0.857463 0.000000
1.000000 0.856879 0.000000
1.000000 0.856759 0.000000
1.000000 0.856497 0.000000
0.000000 0.979247 0.000000
0.000000 0.979235 0.000000
0.000000 0.979138 0.000000
0.000000 0.979061 0.000000
0.000000 0.979023 0.000000
0.000000 0.978547 0.000000
0.000000 0.977473 0.000000
0.204938 0.976057 0.000000
0.570889 0.973905 0.000000
0.772438 0.971225 0.000000
0.914373 0.968702 0.000000
0.993274 0.966886 0.000000
1.000000 0.965837 0.000000
1.000000 0.965345 0.000000
1.000000 0.965275 0.000000
1.000000 0.964998 0.000000
0.000000 1.000000 0.000000
0.000000 1.000000 0.000000
0.000000 1.000000 0.000000
0.000000 1.000000 0.000000
0.000000 1.000000 0.000000
0.000000 1.000000 0.000000
0.000000 1.000000 0.000000
0.117489 1.000000 0.000000
0.517679 1.000000 0.000000
0.740430 1.000000 0.000000
0.890025 1.000000 0.000000
0.975880 1.000000 0.000000
1.000000 1.000000 0.000000
1.000000 1.000000 0.000000
1.000000 1.000000 0.000000
1.000000 1.000000 0.000000
0.000000 1.000000 0.000000
0.000000 1.000000 0.000000
0.000000 1.000000 0.000000
0.000000 1.000000 0.000000
0.000000 1.000000 0.000000
0.000000 1.000000 0.000000
0.000000 1.000000 0.000000
0.064408 1.000000 0.000000
0.483177 1.000000 0.000000
0.721196 1.000000 0.000000
0.875688 1.000000 0.000000
0.963459 1.000000 0.000000
0.998966 1.000000 0.000000
1.000000 1.000000 0.000000
1.000000 1.000000 0.000000
1.000000 1.000000 0.000000
0.000000 1.000000 0.000000
0.000000 1.000000 0.000000
0.000000 1.000000 0.000000
0.000000 1.000000 0.000000
0.000000 1.000000 0.000000
0.000000 1.000000 0.000000
0.000000 1.000000 0.000000
0.014955 1.000000 0.000000
0.466831 1.000000 0.000000
0.712518 1.000000 0.000000
0.869349 1.000000 0.000000
0.958084 1.000000 0.000000
0.997996 1.000000 0.000000
1.000000 1.000000 0.000000
1.000000 1.000000 0.000000
1.000000 1.000000 0.000000
0.000000 1.000000 0.000000
0.000000 1.000000 0.000000
0.000000 1.000000 0.000000
0.000000 1.000000 0.000000
0.000000 1.000000 0.000000
0.000000 1.000000 0.000000
0.000000 1.000000 0.000000
0.000000 1.000000 0.000000
0.460647 1.000000 0.000000
0.709421 1.000000 0.000000
0.867092 1.000000 0.000000
0.955927 1.000000 0.000000
0.997574 1.000000 0.000000
1.000000 1.000000 0.000000
1.000000 1.000000 0.000000
1.000000 1.000000 0.000000
0.000000 1.000000 0.000000
0.000000 1.000000 0.000000
0.000000 1.000000 0.000000
0.000000 1.000000 0.000000
0.000000 1.000000 0.000000
0.000000 1.000000 0.000000
0.000000 1.000000 0.000000
0.000000 1.000000 0.000000
0.452328 1.000000 0.000000
0.705106 1.000000 0.000000
0.864015 1.000000 0.000000
0.953575 1.000000 0.000000
0.997144 1.000000 0.000000
1.000000 1.000000 0.000000
1.000000 1.000000 0.000000
1.000000 1.000000 0.000000
0.000000 0.000000 0.005578
0.007034 0.000000 0.005632
0.056446 0.016675 0.017146
0.121160 0.035779 0.035997
0.203130 0.059979 0.060164
0.320838 0.094735 0.095002
0.459278 0.135615 0.136178
0.597434 0.176420 0.177667
0.732138 0.216195 0.218784
0.860479 0.254162 0.258667
0.927439 0.273952 0.280621
0.927449 0.273998 0.282658
0.927455 0.274019 0.283850
0.927457 0.274031 0.284378
0.927458 0.274036 0.284576
0.927460 0.274042 0.284818
0.000000 0.005189 0.004965
0.005178 0.005049 0.005047
0.054640 0.016342 0.016556
0.120195 0.035505 0.035672
0.202564 0.059816 0.059971
0.320585 0.094668 0.094893
0.459122 0.135564 0.136095
0.597290 0.176387 0.177576
0.731961 0.216159 0.218662
0.860424 0.254132 0.258569
0.927439 0.273950 0.280550
0.927449 0.273996 0.282590
0.927454 0.274018 0.283772
0.927457 0.274030 0.284292
0.927458 0.274034 0.284502
0.927459 0.274040 0.284738
0.000000 0.051982 0.001127
0.000815 0.051815 0.001131
0.044568 0.050612 0.001296
0.113836 0.054757 0.037978
0.198877 0.068348 0.060355
0.318399 0.096152 0.094428
0.457719 0.135177 0.135458
0.596359 0.176088 0.176955
0.731341 0.215987 0.218028
0.859825 0.253948 0.257881
0.927436 0.273938 0.280024
0.927446 0.273984 0.282036
0.927452 0.274022 0.283210
0.927454 0.274034 0.283731
0.927455 0.274021 0.283892
0.927456 0.274027 0.284158
0.000000 0.118153 0.000550
0.000000 0.118043 0.000553
0.017538 0.117357 0.000580
0.104825 0.115992 0.000631
0.196577 0.117323 0.064210
0.315329 0.129897 0.099990
0.455523 0.150450 0.137160
0.594730 0.178487 0.176440
0.730062 0.215630 0.216884
0.858848 0.253638 0.256640
0.927431 0.273934 0.279025
0.927441 0.273960 0.280988
0.927446 0.273986 0.282114
0.927449 0.273997 0.282645
0.927450 0.274014 0.282808
0.927451 0.274019 0.283061
0.000000 0.202066 0.000000
0.000000 0.202010 0.000000
0.000000 0.201649 0.000000
0.053000 0.200872 0.000000
0.182962 0.199081 0.000000
0.316780 0.199211 0.096578
0.452301 0.212137 0.149481
0.592364 0.226352 0.184092
0.727978 0.243749 0.219947
0.856744 0.263531 0.255899
0.927473 0.275181 0.277100
0.927449 0.274415 0.278720
0.927447 0.274244 0.279779
0.927447 0.274188 0.280225
0.927446 0.274181 0.280409
0.927446 0.274148 0.280627
0.000000 0.322430 0.000000
0.000000 0.322385 0.000000
0.000000 0.322172 0.000000
0.000000 0.321752 0.000000
0.098679 0.320759 0.000000
0.295409 0.318222 0.000000
0.458950 0.315771 0.116943
0.589043 0.327350 0.205169
0.724539 0.337766 0.238946
0.854340 0.348849 0.270232
0.930194 0.353093 0.288750
0.929843 0.345348 0.287548
0.929698 0.340900 0.287066
0.929593 0.338944 0.286912
0.929625 0.338209 0.286865
0.929575 0.337239 0.286798
0.000000 0.463776 0.000000
0.000000 0.463749 0.000000
0.000000 0.463649 0.000000
0.000000 0.463406 0.000000
0.004643 0.462772 0.000000
0.209866 0.461196 0.000000
0.428448 0.458231 0.000000
0.599410 0.453886 0.085368
0.733688 0.458389 0.225669
0.851150 0.471423 0.297320
0.933656 0.476007 0.318414
0.936209 0.471222 0.317658
0.936029 0.468251 0.316844
0.935928 0.467042 0.316516
0.935885 0.466508 0.316359
0.935946 0.465932 0.316198
0.000000 0.604944 0.000000
0.000000 0.604933 0.000000
0.000000 0.604831 0.000000
0.000000 0.604617 0.000000
0.000000 0.604236 0.000000
0.045255 0.603198 0.000000
0.357693 0.601175 0.000000
0.561511 0.598021 0.000000
0.730997 0.593641 0.000000
0.868314 0.593516 0.225252
0.957703 0.597716 0.295033
0.964606 0.595341 0.301785
0.964127 0.593386 0.302647
0.963886 0.592578 0.303036
0.963750 0.592216 0.303197
0.963680 0.591827 0.303361
0.000000 0.742466 0.000000
0.000000 0.742446 0.000000
0.000000 0.742400 0.000000
0.000000 0.742247 0.000000
0.000000 0.741964 0.000000
0.000000 0.741194 0.000000
0.184681 0.739815 0.000000
0.498953 0.737412 0.000000
0.691000 0.734206 0.000000
0.853755 0.730184 0.000000
0.973585 0.727251 0.163677
0.992728 0.725341 0.197941
0.992496 0.723827 0.199997
0.992424 0.723151 0.201027
0.992354 0.722927 0.201432
0.992277 0.722521 0.201876
0.000000 0.873621 0.000000
0.000000 0.873605 0.000000
0.000000 0.873551 0.000000
0.000000 0.873396 0.000000
0.000000 0.873039 0.000000
0.000000 0.872427 0.000000
0.029262 0.871447 0.000000
0.396948 0.869685 0.000000
0.635064 0.867208 0.000000
0.814455 0.864033 0.000000
0.947025 0.860915 0.000000
0.999635 0.858772 0.000000
1.000000 0.857384 0.000000
1.000000 0.856948 0.000000
1.000000 0.856705 0.000000
1.000000 0.856362 0.000000
0.000000 0.979149 0.000000
0.000000 0.979136 0.000000
0.000000 0.979159 0.000000
0.000000 0.978968 0.000000
0.000000 0.978929 0.000000
0.000000 0.978552 0.000000
0.000000 0.977477 0.000000
0.204906 0.976060 0.000000
0.570855 0.973906 0.000000
0.772408 0.971128 0.000000
0.914337 0.968778 0.000000
0.993266 0.966789 0.000000
1.000000 0.965761 0.000000
1.000000 0.965340 0.000000
1.000000 0.965179 0.000000
1.000000 0.964887 0.000000
0.000000 1.000000 0.000000
0.000000 1.000000 0.000000
0.000000 1.000000 0.000000
0.000000 1.000000 0.000000
0.000000 1.000000 0.000000
0.000000 1.000000 0.000000
0.000000 1.000000 0.000000
0.117450 1.000000 0.000000
0.517621 1.000000 0.000000
0.740473 1.000000 0.000000
0.890060 1.000000 0.000000
0.975848 1.000000 0.000000
1.000000 1.000000 0.000000
1.000000 1.000000 0.000000
1.000000 1.000000 0.000000
1.000000 1.000000 0.000000
0.000000 1.000000 0.000000
0.000000 1.000000 0.000000
0.000000 1.000000 0.000000
0.000000 1.000000 0.000000
0.000000 1.000000 0.000000
0.000000 1.000000 0.000000
0.000000 1.000000 0.000000
0.064310 1.000000 0.000000
0.483111 1.000000 0.000000
0.721231 1.000000 0.000000
0.875651 1.000000 0.000000
0.963427 1.000000 0.000000
0.998960 1.000000 0.000000
1.000000 1.000000 0.000000
1.000000 1.000000 0.000000
1.000000 1.000000 0.000000
0.000000 1.000000 0.000000
0.000000 1.000000 0.000000
0.000000 1.000000 0.000000
0.000000 1.000000 0.000000
0.000000 1.000000 0.000000
0.000000 1.000000 0.000000
0.000000 1.000000 0.000000
0.014765 1.000000 0.000000
0.466778 1.000000 0.000000
0.712601 1.000000 0.000000
0.869312 1.000000 0.000000
0.958052 1.000000 0.000000
0.997990 1.000000 0.000000
1.000000 1.000000 0.000000
1.000000 1.000000 0.000000
1.000000 1.000000 0.000000
0.000000 1.000000 0.000000
0.000000 1.000000 0.000000
0.000000 1.000000 0.000000
0.000000 1.000000 0.000000
0.000000 1.000000 0.000000
0.000000 1.000000 0.000000
0.000000 1.000000 0.000000
0.000000 1.000000 0.000000
0.460677 1.000000 0.000000
0.709396 1.000000 0.000000
0.867054 1.000000 0.000000
0.955906 1.000000 0.000000
0.997568 1.000000 0.000000
1.000000 1.000000 0.000000
1.000000 1.000000 0.000000
1.000000 1.000000 0.000000
0.000000 1.000000 0.000000
0.000000 1.000000 0.000000
0.000000 1.000000 0.000000
0.000000 1.000000 0.000000
0.000000 1.000000 0.000000
0.000000 1.000000 0.000000
0.000000 1.000000 0.000000
0.000000 1.000000 0.000000
0.452262 1.000000 0.000000
0.705138 1.000000 0.000000
0.863989 1.000000 0.000000
0.953542 1.000000 0.000000
0.997138 1.000000 0.000000
1.000000 1.000000 0.000000
1.000000 1.000000 0.000000
1.000000 1.000000 0.000000
0.000000 0.000000 0.046288
0.003953 0.000000 0.046343
0.057846 0.000000 0.046729
0.119769 0.035792 0.052949
0.202373 0.059975 0.070857
0.320419 0.094747 0.102282
0.458996 0.135645 0.142288
0.597288 0.176481 0.183556
0.731873 0.216235 0.224431
0.860342 0.254214 0.263862
0.927464 0.274063 0.285755
0.927475 0.274102 0.287925
0.927482 0.274132 0.289199
0.927485 0.274145 0.289745
0.927486 0.274150 0.289963
0.927487 0.274156 0.290227
0.000000 0.000999 0.045686
0.002407 0.000988 0.045738
0.055901 0.000905 0.046129
0.118793 0.035495 0.052363
0.201804 0.059805 0.070438
0.320139 0.094675 0.102016
0.458764 0.135580 0.142076
0.597126 0.176442 0.183404
0.731959 0.216254 0.224342
0.860333 0.254193 0.263769
0.927464 0.274061 0.285671
0.927475 0.274100 0.287862
0.927481 0.274130 0.289115
0.927484 0.274143 0.289681
0.927485 0.274148 0.289871
0.927486 0.274154 0.290137
0.000000 0.043032 0.041267
0.000612 0.042871 0.041319
0.041560 0.041654 0.041715
0.111986 0.047947 0.049897
0.197928 0.064338 0.068236
0.317928 0.094859 0.100188
0.457430 0.135164 0.140678
0.596207 0.176154 0.182318
0.731148 0.216031 0.223421
0.859732 0.254023 0.263003
0.927461 0.274048 0.285088
0.927472 0.274098 0.287255
0.927478 0.274116 0.288504
0.927481 0.274129 0.289065
0.927482 0.274134 0.289266
0.927483 0.274140 0.289528
0.000000 0.112882 0.032674
0.000000 0.112784 0.032727
0.014993 0.112054 0.033122
0.102848 0.110629 0.033884
0.192585 0.113822 0.074558
0.314681 0.125797 0.102636
0.455131 0.147508 0.140299
0.594511 0.177422 0.180570
0.729822 0.215636 0.221744
0.858835 0.253740 0.261580
0.927455 0.274022 0.283964
0.927466 0.274072 0.286105
0.927472 0.274101 0.287342
0.927475 0.274102 0.287902
0.927476 0.274106 0.288093
0.927477 0.274112 0.288372
0.000000 0.199122 0.013476
0.000000 0.199081 0.013519
0.000000 0.198663 0.013823
0.050740 0.197883 0.014410
0.181851 0.196074 0.015824
0.314034 0.197229 0.103896
0.451871 0.209564 0.149735
0.592124 0.224066 0.185397
0.727672 0.241782 0.222626
0.856719 0.262027 0.259757
0.927485 0.275021 0.281614
0.927471 0.274457 0.283600
0.927470 0.274309 0.284790
0.927470 0.274247 0.285306
0.927470 0.274224 0.285486
0.927470 0.274195 0.285752
0.000000 0.320802 0.000000
0.000000 0.320755 0.000000
0.000000 0.320542 0.000000
0.000000 0.320079 0.000041
0.097407 0.319079 0.000198
0.294765 0.316568 0.000596
0.458331 0.314208 0.118513
0.587972 0.326225 0.206440
0.724227 0.336281 0.238642
0.854127 0.347458 0.270515
0.930124 0.351763 0.290275
0.929854 0.344052 0.290110
0.929639 0.339536 0.290130
0.929607 0.337587 0.290167
0.929568 0.336845 0.290182
0.929518 0.335898 0.290213
0.000000 0.462795 0.000000
0.000000 0.462768 0.000000
0.000000 0.462685 0.000000
0.000000 0.462427 0.000000
0.004149 0.461718 0.000000
0.208815 0.460214 0.000000
0.428113 0.457207 0.000000
0.599119 0.452880 0.087570
0.733243 0.457513 0.225969
0.850716 0.470570 0.297460
0.933476 0.475078 0.318134
0.936134 0.470321 0.317423
0.935956 0.467364 0.316620
0.935961 0.466100 0.316268
0.935922 0.465646 0.316142
0.935868 0.464997 0.315973
0.000000 0.604257 0.000000
0.000000 0.604234 0.000000
0.000000 0.604142 0.000000
0.000000 0.603990 0.000000
0.000000 0.603557 0.000000
0.044613 0.602508 0.000000
0.357181 0.600513 0.000000
0.561228 0.597322 0.000000
0.730992 0.592935 0.000000
0.867991 0.592898 0.225592
0.957714 0.597128 0.295437
0.964456 0.594733 0.302067
0.963882 0.592780 0.302924
0.963632 0.591934 0.303325
0.963609 0.591641 0.303452
0.963458 0.591239 0.303625
0.000000 0.741887 0.000000
0.000000 0.741960 0.000000
0.000000 0.741815 0.000000
0.000000 0.741639 0.000000
0.000000 0.741546 0.000000
0.000000 0.740733 0.000000
0.184205 0.739226 0.000000
0.498662 0.736860 0.000000
0.690911 0.733688 0.000000
0.853644 0.729728 0.000000
0.973461 0.726831 0.164135
0.992625 0.724864 0.198564
0.992482 0.723384 0.200688
0.992300 0.722611 0.201739
0.992244 0.722367 0.202063
0.992266 0.722082 0.202550
0.000000 0.873052 0.000000
0.000000 0.873037 0.000000
0.000000 0.872981 0.000000
0.000000 0.872982 0.000000
0.000000 0.872692 0.000000
0.000000 0.872144 0.000000
0.029082 0.871108 0.000000
0.396492 0.869176 0.000000
0.634815 0.866713 0.000000
0.814394 0.863718 0.000000
0.946886 0.860479 0.000000
0.999599 0.858416 0.000000
1.000000 0.857002 0.000000
1.000000 0.856524 0.000000
1.000000 0.856348 0.000000
1.000000 0.855928 0.000000
0.000000 0.978939 0.000000
0.000000 0.978927 0.000000
0.000000 0.978932 0.000000
0.000000 0.978749 0.000000
0.000000 0.978544 0.000000
0.000000 0.978024 0.000000
0.000000 0.976995 0.000000
0.204519 0.975537 0.000000
0.570612 0.973684 0.000000
0.772316 0.970914 0.000000
0.914117 0.968300 0.000000
0.993203 0.966539 0.000000
1.000000 0.965498 0.000000
1.000000 0.964940 0.000000
1.000000 0.964769 0.000000
1.000000 0.964652 0.000000
0.000000 1.000000 0.000000
0.000000 1.000000 0.000000
0.000000 1.000000 0.000000
0.000000 1.000000 0.000000
0.000000 1.000000 0.000000
0.000000 1.000000 0.000000
0.000000 1.000000 0.000000
0.117112 1.000000 0.000000
0.517322 1.000000 0.000000
0.740351 1.000000 0.000000
0.889840 1.000000 0.000000
0.975744 1.000000 0.000000
1.000000 1.000000 0.000000
1.000000 1.000000 0.000000
1.000000 1.000000 0.000000
1.000000 1.000000 0.000000
0.000000 1.000000 0.000000
0.000000 1.000000 0.000000
0.000000 1.000000 0.000000
0.000000 1.000000 0.000000
0.000000 1.000000 0.000000
0.000000 1.000000 0.000000
0.000000 1.000000 0.000000
0.063606 1.000000 0.000000
0.482774 1.000000 0.000000
0.720958 1.000000 0.000000
0.875506 1.000000 0.000000
0.963458 1.000000 0.000000
0.998915 1.000000 0.000000
1.000000 1.000000 0.000000
1.000000 1.000000 0.000000
1.000000 1.000000 0.000000
0.000000 1.000000 0.000000
0.000000 1.000000 0.000000
0.000000 1.000000 0.000000
0.000000 1.000000 0.000000
0.000000 1.000000 0.000000
0.000000 1.000000 0.000000
0.000000 1.000000 0.000000
0.013358 1.000000 0.000000
0.466497 1.000000 0.000000
0.712429 1.000000 0.000000
0.869192 1.000000 0.000000
0.958140 1.000000 0.000000
0.997944 1.000000 0.000000
1.000000 1.000000 0.000000
1.000000 1.000000 0.000000
1.000000 1.000000 0.000000
0.000000 1.000000 0.000000
0.000000 1.000000 0.000000
0.000000 1.000000 0.000000
0.000000 1.000000 0.000000
0.000000 1.000000 0.000000
0.000000 1.000000 0.000000
0.000000 1.000000 0.000000
0.000000 1.000000 0.000000
0.460303 1.000000 0.000000
0.709249 1.000000 0.000000
0.866987 1.000000 0.000000
0.956005 1.000000 0.000000
0.997517 1.000000 0.000000
1.000000 1.000000 0.000000
1.000000 1.000000 0.000000
1.000000 1.000000 0.000000
0.000000 1.000000 0.000000
0.000000 1.000000 0.000000
0.000000 1.000000 0.000000
0.000000 1.000000 0.000000
0.000000 1.000000 0.000000
0.000000 1.000000 0.000000
0.000000 1.000000 0.000000
0.000000 1.000000 0.000000
0.451942 1.000000 0.000000
0.704959 1.000000 0.000000
0.863790 1.000000 0.000000
0.953299 1.000000 0.000000
0.997091 1.000000 0.000000
1.000000 1.000000 0.000000
1.000000 1.000000 0.000000
1.000000 1.000000 0.000000
0.000000 0.000000 0.107769
0.001331 0.000000 0.107794
0.052094 0.000000 0.108039
0.125844 0.000000 0.108520
0.202332 0.058689 0.111027
0.319640 0.095216 0.131616
0.458450 0.135935 0.163449
0.596901 0.176707 0.199864
0.731727 0.216464 0.237751
0.860169 0.254368 0.275164
0.927519 0.274280 0.296335
0.927531 0.274336 0.298638
0.927538 0.274357 0.299945
0.927541 0.274371 0.300520
0.927542 0.274376 0.300734
0.927543 0.274383 0.300991
0.000000 0.000000 0.107384
0.001197 0.000000 0.107413
0.050132 0.000000 0.107662
0.124771 0.000000 0.108145
0.201733 0.058547 0.110666
0.319387 0.095141 0.131316
0.458303 0.135888 0.163237
0.596848 0.176672 0.199695
0.731641 0.216455 0.237630
0.860229 0.254381 0.275087
0.927518 0.274278 0.296244
0.927530 0.274334 0.298560
0.927537 0.274355 0.299880
0.927540 0.274369 0.300445
0.927542 0.274374 0.300635
0.927543 0.274381 0.300916
0.000000 0.025516 0.104612
0.000263 0.025345 0.104632
0.035726 0.024110 0.104879
0.116612 0.021716 0.105357
0.196342 0.060470 0.108195
0.317113 0.094490 0.129184
0.456950 0.135464 0.161643
0.595927 0.176384 0.198489
0.730998 0.216254 0.236652
0.859714 0.254228 0.274278
0.927515 0.274250 0.295628
0.927527 0.274319 0.297941
0.927534 0.274339 0.299255
0.927537 0.274353 0.299787
0.927538 0.274358 0.300017
0.927540 0.274365 0.300298
0.000000 0.101943 0.098992
0.000000 0.101838 0.099034
0.010078 0.101022 0.099312
0.098942 0.099459 0.099796
0.190369 0.104331 0.108020
0.313551 0.118076 0.128067
0.454608 0.142578 0.159590
0.594160 0.176382 0.196192
0.729589 0.215800 0.234720
0.858642 0.253881 0.272694
0.927509 0.274239 0.294437
0.927521 0.274289 0.296728
0.927528 0.274322 0.298049
0.927531 0.274336 0.298607
0.927532 0.274341 0.298810
0.927533 0.274335 0.299089
0.000000 0.193251 0.084821
0.000000 0.193242 0.084862
0.000000 0.192783 0.085155
0.046474 0.191978 0.085738
0.179655 0.190110 0.087043
0.307945 0.193978 0.134917
0.451178 0.204679 0.163953
0.591631 0.219764 0.198032
0.727413 0.238141 0.233985
0.856397 0.259336 0.269977
0.927522 0.274877 0.291766
0.927519 0.274566 0.294019
0.927520 0.274418 0.295275
0.927520 0.274381 0.295827
0.927521 0.274363 0.296060
0.927521 0.274343 0.296324
0.000000 0.317593 0.039685
0.000000 0.317562 0.039738
0.000000 0.317330 0.040114
0.000000 0.316913 0.040841
0.094972 0.315883 0.042511
0.293543 0.313293 0.046750
0.453935 0.312338 0.143315
0.586812 0.323706 0.211500
0.724053 0.333538 0.243947
0.853733 0.344811 0.277282
0.930090 0.349266 0.298009
0.929750 0.341470 0.298543
0.929611 0.336955 0.298866
0.929508 0.334951 0.299019
0.929469 0.334224 0.299081
0.929418 0.333229 0.299147
0.000000 0.460844 0.001772
0.000000 0.460817 0.001778
0.000000 0.460649 0.001826
0.000000 0.460485 0.001918
0.003199 0.459837 0.002129
0.206749 0.458284 0.002666
0.427412 0.455261 0.003734
0.598299 0.451037 0.094345
0.731855 0.456114 0.229250
0.849227 0.469559 0.300019
0.933470 0.473370 0.318372
0.936065 0.468574 0.318225
0.935931 0.465648 0.317970
0.935821 0.464308 0.317888
0.935782 0.463823 0.317864
0.935729 0.463209 0.317818
0.000000 0.602968 0.000000
0.000000 0.602955 0.000000
0.000000 0.602850 0.000000
0.000000 0.602679 0.000000
0.000000 0.602265 0.000000
0.043353 0.601237 0.000000
0.356256 0.599174 0.000000
0.560781 0.596020 0.000000
