test-luts/BrightShades.cube
LUT_3D_SIZE 6
0.000000 0.000000 0.000000
0.121356 0.035832 0.035835
0.459302 0.135616 0.135895
0.860517 0.254158 0.258037
0.927451 0.274021 0.283160
0.927456 0.274025 0.284105
0.000000 0.118839 0.000000
0.105099 0.116694 0.000000
0.455605 0.150861 0.137200
0.858829 0.253622 0.256071
0.927443 0.273970 0.281432
0.927448 0.273991 0.282374
0.000000 0.463871 0.000000
0.000000 0.463498 0.000000
0.428526 0.458323 0.000000
0.851220 0.471492 0.297313
0.936047 0.468460 0.316912
0.935957 0.466059 0.316244
0.000000 0.873520 0.000000
0.000000 0.873441 0.000000
0.029283 0.871504 0.000000
0.814501 0.864112 0.000000
1.000000 0.857463 0.000000
1.000000 0.856497 0.000000
0.000000 1.000000 0.000000
0.000000 1.000000 0.000000
0.000000 1.000000 0.000000
0.721196 1.000000 0.000000
0.998966 1.000000 0.000000
1.000000 1.000000 0.000000
0.000000 1.000000 0.000000
0.000000 1.000000 0.000000
0.000000 1.000000 0.000000
0.705106 1.000000 0.000000
0.997144 1.000000 0.000000
1.000000 1.000000 0.000000
0.000000 0.000000 0.107769
0.125844 0.000000 0.108520
0.458450 0.135935 0.163449
0.860169 0.254368 0.275164
0.927538 0.274357 0.299945
0.927543 0.274383 0.300991
0.000000 0.101943 0.098992
0.098942 0.099459 0.099796
0.454608 0.142578 0.159590
0.858642 0.253881 0.272694
0.927528 0.274322 0.298049
0.927533 0.274335 0.299089
0.000000 0.460844 0.001772
0.000000 0.460485 0.001918
0.427412 0.455261 0.003734
0.849227 0.469559 0.300019
0.935931 0.465648 0.317970
0.935729 0.463209 0.317818
0.000000 0.872383 0.000000
0.000000 0.872185 0.000000
0.028746 0.870221 0.000000
0.814095 0.862812 0.000000
1.000000 0.856331 0.000000
1.000000 0.855346 0.000000
0.000000 1.000000 0.000000
0.000000 1.000000 0.000000
0.000000 1.000000 0.000000
0.720694 1.000000 0.000000
0.998939 1.000000 0.000000
1.000000 1.000000 0.000000
0.000000 1.000000 0.000000
0.000000 1.000000 0.000000
0.000000 1.000000 0.000000
0.704583 1.000000 0.000000
0.996991 1.000000 0.000000
1.000000 1.000000 0.000000
0.000000 0.000000 0.435057
0.038786 0.000000 0.435278
0.482159 0.000000 0.436957
0.857400 0.258455 0.455409
0.928490 0.279433 0.469356
0.928496 0.279462 0.469963
0.000000 0.000000 0.433489
0.012001 0.000000 0.433584
0.477519 0.000000 0.435390
0.855576 0.258093 0.453953
0.928478 0.279399 0.468136
0.928484 0.279409 0.468823
0.000000 0.420186 0.412407
0.000000 0.419668 0.412636
0.412646 0.413768 0.414527
0.843359 0.434286 0.455867
0.934644 0.430411 0.469939
0.934525 0.427777 0.470228
0.000000 0.857640 0.315762
0.000000 0.857424 0.315979
0.020691 0.855583 0.318815
0.808581 0.847908 0.328905
0.998476 0.841385 0.351144
0.998234 0.840333 0.353914
0.000000 1.000000 0.156766
0.000000 1.000000 0.157457
0.000000 1.000000 0.165722
0.713898 1.000000 0.191185
0.998255 1.000000 0.209605
1.000000 1.000000 0.212132
0.000000 1.000000 0.104056
0.000000 1.000000 0.104174
0.000000 1.000000 0.111050
0.697829 1.000000 0.149293
0.994655 1.000000 0.175881
1.000000 1.000000 0.179320
0.000000 0.000000 0.823649
0.000000 0.000000 0.823731
0.434268 0.000000 0.824536
0.905336 0.000000 0.827089
1.000000 0.000000 0.829180
1.000000 0.000000 0.829479
0.000000 0.000000 0.823207
0.000000 0.000000 0.823181
0.428800 0.000000 0.823808
0.903704 0.000000 0.826411
1.000000 0.000000 0.828590
1.000000 0.000000 0.829043
0.000000 0.145518 0.815284
0.000000 0.144761 0.815385
0.349684 0.134497 0.815941
0.880855 0.090212 0.818635
1.000000 0.069567 0.820793
1.000000 0.065631 0.821216
0.000000 0.799226 0.785094
0.000000 0.798933 0.785197
0.000000 0.796817 0.785862
0.787707 0.788306 0.788519
0.968593 0.793000 0.801103
0.968497 0.791918 0.801176
0.000000 1.000000 0.756808
0.000000 1.000000 0.756899
0.000000 1.000000 0.757796
0.688453 1.000000 0.760632
0.989119 1.000074 0.763178
1.000000 0.999952 0.763552
0.000000 1.000000 0.752456
0.000000 1.000000 0.752437
0.000000 1.000000 0.753308
0.671246 1.000000 0.756228
0.979567 1.000000 0.758807
1.000000 1.000000 0.759148
0.000000 0.000000 1.000000
0.000000 0.000000 1.000000
0.384541 0.000000 1.000000
0.890188 0.000000 1.000000
1.000000 0.000000 1.000000
1.000000 0.000000 1.000000
0.000000 0.000000 1.000000
0.000000 0.000000 1.000000
0.377992 0.000000 1.000000
0.888238 0.000000 1.000000
1.000000 0.000000 1.000000
1.000000 0.000000 1.000000
0.000000 0.000000 1.000000
0.000000 0.000000 1.000000
0.274541 0.000000 1.000000
0.865011 0.000000 1.000000
1.000000 0.000000 1.000000
1.000000 0.000000 1.000000
0.000000 0.741617 0.991133
0.000000 0.741324 0.991223
0.000000 0.738675 0.991826
0.768572 0.729264 0.993583
1.000000 0.720583 0.995133
1.000000 0.719339 0.995117
0.000000 0.989307 0.971709
0.000000 0.989137 0.971805
0.000000 0.987362 0.972368
0.664613 0.981519 0.974264
0.976170 0.976193 0.976209
0.996092 0.976966 0.977908
0.000000 1.000000 0.968755
0.000000 1.000000 0.968835
0.000000 1.000000 0.969334
0.646430 1.000000 0.971205
0.966255 1.000000 0.973171
1.000028 1.000000 0.973278
0.000000 0.000000 1.000000
0.000000 0.000000 1.000000
0.375980 0.000000 1.000000
0.887680 0.000000 1.000000
1.000000 0.000000 1.000000
1.000000 0.000000 1.000000
0.000000 0.000000 1.000000
0.000000 0.000000 1.000000
0.369321 0.000000 1.000000
0.885914 0.000000 1.000000
1.000000 0.000000 1.000000
1.000000 0.000000 1.000000
0.000000 0.000000 1.000000
0.000000 0.000000 1.000000
0.259682 0.000000 1.000000
0.862537 0.000000 1.000000
1.000000 0.000000 1.000000
1.000000 0.000000 1.000000
0.000000 0.732099 1.000000
0.000000 0.731964 1.000000
0.000000 0.729245 1.000000
0.765550 0.719502 1.000000
1.000000 0.710782 1.000000
1.000000 0.709455 1.000000
0.000000 0.983143 0.998625
0.000000 0.982968 0.998713
0.000000 0.981610 0.999158
0.660887 0.975352 1.000034
0.974019 0.969894 1.000059
1.000000 0.969238 1.000063
0.000000 1.000000 0.995441
0.000000 1.000000 0.995530
0.000000 1.000000 0.996137
0.642478 1.000000 0.997933
0.964050 1.000022 0.999624
1.000033 1.000010 1.000020
