test-luts/CityLights.cube
LUT_3D_SIZE 16
0.000873 0.024599 0.028702
0.000873 0.021357 0.028150
0.000873 0.007696 0.027650
0.033152 0.000000 0.026980
0.061409 0.000000 0.033379
0.108127 0.000000 0.044119
0.165716 0.000000 0.052642
0.238888 0.000000 0.059419
0.332428 0.000000 0.064524
0.441419 0.000000 0.066746
0.545028 0.000000 0.064909
0.621721 0.000000 0.059395
0.683795 0.000000 0.054510
0.743558 0.000000 0.051329
0.797769 0.000000 0.048806
0.840207 0.000000 0.046274
0.000873 0.031585 0.027650
0.000873 0.030228 0.027035
0.000873 0.027371 0.026361
0.028223 0.018389 0.025665
0.068004 0.018953 0.028787
0.116601 0.019533 0.032353
0.176877 0.020096 0.034604
0.253908 0.020745 0.035416
0.351767 0.021400 0.034555
0.462415 0.022006 0.031633
0.562140 0.022750 0.025878
0.634795 0.024705 0.019066
0.696140 0.032540 0.018179
0.755853 0.037831 0.017230
0.807997 0.042277 0.016297
0.848064 0.045852 0.015321
0.000873 0.052184 0.034396
0.000873 0.052828 0.033774
0.000873 0.053411 0.031743
0.033212 0.054047 0.025047
0.075581 0.057673 0.023423
0.126226 0.067832 0.022590
0.189457 0.078126 0.021755
0.270806 0.088373 0.020901
0.372918 0.097270 0.019977
0.484370 0.102483 0.019073
0.578965 0.101429 0.018200
0.648019 0.097035 0.017261
0.709140 0.094707 0.016333
0.768157 0.094485 0.015377
0.817969 0.094698 0.014457
0.855790 0.094827 0.013542
0.000873 0.095205 0.048232
0.000873 0.095995 0.045507
0.001640 0.096866 0.038712
0.045540 0.097818 0.022625
0.090288 0.098765 0.021761
0.137063 0.108270 0.020900
0.203863 0.124284 0.019993
0.289814 0.138880 0.019098
0.395879 0.150275 0.018207
0.506830 0.154741 0.017288
0.595396 0.149544 0.016371
0.661641 0.141539 0.015408
0.722547 0.137540 0.014482
0.780390 0.136277 0.013561
0.827558 0.135407 0.012656
0.862955 0.134377 0.011754
0.000873 0.148891 0.058913
0.000873 0.150084 0.053618
0.008383 0.151298 0.040986
0.064364 0.152562 0.020933
0.111113 0.153839 0.020051
0.153359 0.155188 0.019163
0.219719 0.172202 0.018235
0.310732 0.191168 0.017321
0.420214 0.204510 0.016398
0.529086 0.207150 0.015448
0.611247 0.197320 0.014520
0.675445 0.186930 0.013588
0.736402 0.182150 0.012666
0.792256 0.180214 0.011759
0.836691 0.178438 0.010870
0.869805 0.176746 0.010001
0.000873 0.217703 0.066894
0.000873 0.219369 0.058553
0.015917 0.220907 0.037975
0.084834 0.222671 0.019183
0.133513 0.224439 0.018265
0.181166 0.226284 0.017336
0.237502 0.229367 0.016411
0.333499 0.252871 0.015487
0.445401 0.267530 0.014566
0.550374 0.266706 0.013618
0.626787 0.251864 0.012702
0.689561 0.239680 0.011796
0.750004 0.234520 0.010887
0.803773 0.232035 0.009995
0.845408 0.229526 0.009155
0.876366 0.226936 0.008305
0.000873 0.306527 0.072088
0.000873 0.308606 0.059995
0.023908 0.310810 0.025582
0.105803 0.313111 0.017372
0.156524 0.315459 0.016447
0.209229 0.317917 0.015500
0.271832 0.320382 0.014599
0.357842 0.330213 0.013683
0.471125 0.345324 0.012748
0.570278 0.338737 0.011821
0.641794 0.318582 0.010938
0.703914 0.305120 0.010027
0.763681 0.299699 0.009156
0.814687 0.296403 0.008305
0.853640 0.292962 0.007475
0.882467 0.289573 0.006697
0.000873 0.414128 0.073584
0.000873 0.416727 0.057055
0.059129 0.419409 0.016479
0.125279 0.422062 0.015553
0.177400 0.424757 0.014640
0.234231 0.427545 0.013704
0.303284 0.430348 0.012771
0.389663 0.433263 0.011856
0.496502 0.439501 0.010959
0.588877 0.424674 0.010079
0.656714 0.399251 0.009208
0.718085 0.384826 0.008342
0.776731 0.379005 0.007510
0.824962 0.374656 0.006722
0.861047 0.369943 0.006007
0.888218 0.365492 0.005462
0.000873 0.525339 0.070235
0.001671 0.527831 0.048290
0.082686 0.530340 0.014652
0.139623 0.532812 0.013727
0.191761 0.535275 0.012799
0.250629 0.537914 0.011876
0.323218 0.540375 0.010976
0.413626 0.542883 0.010094
0.519800 0.545353 0.009233
0.606205 0.521417 0.008389
0.671324 0.491532 0.007547
0.732418 0.476742 0.006765
0.789101 0.470174 0.006031
0.834401 0.464140 0.005466
0.868058 0.458001 0.005285
0.893362 0.452547 0.005285
0.000873 0.614835 0.061938
0.010493 0.616597 0.032665
0.095917 0.618497 0.012817
0.146166 0.620432 0.011919
0.196200 0.622135 0.011029
0.254442 0.624065 0.010123
0.327197 0.625914 0.009265
0.416808 0.627769 0.008393
0.520182 0.629506 0.007566
0.622431 0.623051 0.006782
0.685840 0.590475 0.006044
0.746439 0.575435 0.005478
0.800754 0.567714 0.005285
0.842883 0.559931 0.005285
0.874615 0.552162 0.005285
0.898396 0.545215 0.005285
0.000873 0.683216 0.052052
0.038871 0.684749 0.011962
0.104160 0.686371 0.011047
0.149637 0.687986 0.010156
0.197758 0.689538 0.009302
0.255380 0.691186 0.008417
0.327824 0.692818 0.007603
0.415955 0.694369 0.006795
0.516038 0.695983 0.006074
0.619905 0.697534 0.005481
0.700009 0.685101 0.005285
0.759856 0.670232 0.005285
0.811516 0.660610 0.005285
0.851051 0.650823 0.005285
0.880466 0.641138 0.005285
0.903001 0.632811 0.005285
0.000873 0.745873 0.042666
0.062937 0.747549 0.010192
0.112427 0.749104 0.009312
0.155660 0.750662 0.008441
0.203529 0.752390 0.007611
0.261889 0.753823 0.006807
0.335608 0.755464 0.006084
0.423990 0.756950 0.005484
0.522670 0.758573 0.005285
0.622288 0.759966 0.005285
0.709723 0.761634 0.005285
0.772694 0.751898 0.005285
0.821288 0.740516 0.005285
0.858221 0.728811 0.005285
0.885726 0.717642 0.005285
0.907184 0.708146 0.005285
0.000873 0.806808 0.031491
0.077788 0.808257 0.008487
0.121484 0.809713 0.007639
0.163908 0.811157 0.006853
0.212543 0.812646 0.006108
0.273029 0.814065 0.005488
0.348790 0.815328 0.005285
0.438361 0.816731 0.005285
0.536440 0.818146 0.005285
0.632137 0.819346 0.005285
0.714656 0.820714 0.005285
0.784321 0.821552 0.005285
0.830173 0.808669 0.005285
0.864748 0.795389 0.005285
0.890625 0.783230 0.005285
0.910928 0.772886 0.005285
0.021232 0.858736 0.007689
0.089510 0.859787 0.006882
0.130202 0.860967 0.006133
0.172483 0.862011 0.005494
0.222310 0.863281 0.005285
0.284941 0.864412 0.005285
0.362737 0.865478 0.005285
0.453028 0.866479 0.005285
0.550191 0.867550 0.005285
0.641688 0.868502 0.005285
0.719770 0.869622 0.005285
0.786108 0.870590 0.005285
0.838262 0.866979 0.005285
0.870613 0.852375 0.005285
0.894930 0.839326 0.005285
0.914449 0.828481 0.005285
0.052820 0.899178 0.006133
0.099271 0.900112 0.005500
0.138252 0.900752 0.005285
0.180765 0.901753 0.005285
0.231935 0.902524 0.005285
0.296676 0.903392 0.005285
0.375981 0.904263 0.005285
0.466705 0.905059 0.005285
0.561898 0.905779 0.005285
0.648922 0.906467 0.005285
0.722729 0.907212 0.005285
0.785560 0.907928 0.005285
0.838851 0.908594 0.005285
0.875812 0.900712 0.005285
0.898983 0.887097 0.005285
0.917564 0.875674 0.005285
0.067458 0.929255 0.005285
0.107764 0.929914 0.005285
0.145900 0.930544 0.005285
0.188808 0.931114 0.005285
0.241454 0.931615 0.005285
0.308225 0.932343 0.005285
0.388793 0.932825 0.005285
0.479331 0.933416 0.005285
0.572116 0.934039 0.005285
0.654475 0.934612 0.005285
0.724693 0.934797 0.005285
0.784091 0.935398 0.005285
0.834870 0.935940 0.005285
0.877233 0.936248 0.005285
0.902525 0.926262 0.005285
0.920340 0.915077 0.005285
0.000873 0.039373 0.055434
0.000873 0.033562 0.054679
0.000873 0.009611 0.053946
0.048626 0.000000 0.053137
0.070876 0.000000 0.052197
0.109606 0.000000 0.061345
0.167611 0.000000 0.074003
0.241508 0.000000 0.084440
0.335935 0.000000 0.092452
0.445336 0.000000 0.096415
0.548249 0.000000 0.094202
0.624104 0.000000 0.086771
0.686163 0.000000 0.080287
0.745877 0.000000 0.076467
0.799765 0.000000 0.073640
0.841803 0.000000 0.070851
0.000873 0.051366 0.054006
0.000873 0.048203 0.053156
0.000873 0.040896 0.052260
0.033535 0.018602 0.051293
0.071679 0.019160 0.050335
0.118291 0.019758 0.058183
0.179044 0.020347 0.066158
0.256860 0.020963 0.072636
0.355625 0.021652 0.077181
0.466513 0.022306 0.078207
0.565297 0.023029 0.074283
0.637245 0.023769 0.067377
0.698585 0.024494 0.062028
0.758136 0.025317 0.058512
0.809775 0.026119 0.055518
0.849612 0.026968 0.052470
0.000873 0.064305 0.052276
0.000873 0.063035 0.051321
0.000873 0.060915 0.050362
0.034459 0.057335 0.049361
0.077031 0.055088 0.048466
0.128102 0.055824 0.049493
0.192069 0.056629 0.049569
0.274107 0.057476 0.048288
0.377150 0.058360 0.045380
0.488632 0.061310 0.042432
0.582153 0.065895 0.041176
0.650634 0.068134 0.039940
0.711757 0.070054 0.038699
0.770417 0.072085 0.037449
0.819704 0.073970 0.036215
0.857060 0.075648 0.034942
0.000873 0.095443 0.060881
0.000873 0.096349 0.059764
0.002908 0.097189 0.057153
0.041628 0.098135 0.051860
0.087535 0.099071 0.045994
0.139261 0.104895 0.044879
0.206652 0.114916 0.043684
0.293605 0.125134 0.042465
0.400416 0.133802 0.041210
0.510939 0.137310 0.039993
0.598305 0.133437 0.038720
0.664211 0.127668 0.037459
0.725203 0.125109 0.036197
0.782582 0.124568 0.034957
0.829256 0.124259 0.033731
0.864393 0.123836 0.032481
0.000873 0.149362 0.075262
0.000873 0.150521 0.071983
0.009777 0.151762 0.065262
0.049514 0.153040 0.052616
0.103559 0.154348 0.043738
0.154178 0.155745 0.042502
0.222944 0.169292 0.041273
0.314849 0.184521 0.039999
0.424858 0.195434 0.038769
0.533077 0.196973 0.037505
0.614220 0.187654 0.036276
0.678055 0.178400 0.035010
0.738981 0.174402 0.033748
0.794487 0.172896 0.032502
0.838535 0.171482 0.031283
0.871060 0.169982 0.030033
0.000873 0.218256 0.086386
0.000873 0.219951 0.080706
0.017364 0.221523 0.069385
0.058196 0.223335 0.047683
0.123469 0.225089 0.041330
0.178936 0.226957 0.040055
0.240943 0.230444 0.038827
0.337916 0.250428 0.037561
0.450183 0.262651 0.036310
0.554113 0.260430 0.035039
0.629612 0.245675 0.033785
0.692154 0.234252 0.032518
0.752789 0.229590 0.031289
0.805992 0.227300 0.030076
0.847029 0.224930 0.028854
0.877481 0.222525 0.027653
0.000873 0.307150 0.094231
0.000873 0.309389 0.085862
0.025423 0.311571 0.069405
0.075604 0.314024 0.040130
0.145509 0.316324 0.038842
0.205364 0.318754 0.037568
0.272768 0.321291 0.036329
0.362596 0.330805 0.035063
0.475797 0.343182 0.033834
0.573838 0.334957 0.032583
0.644660 0.314674 0.031329
0.706501 0.301738 0.030109
0.766014 0.296597 0.028925
0.816622 0.293431 0.027720
0.855138 0.290049 0.026506
0.883473 0.286772 0.025367
0.000873 0.415075 0.097846
0.000873 0.417707 0.086399
0.034068 0.420310 0.064092
0.100607 0.423027 0.037624
0.166760 0.425824 0.036374
0.229803 0.428525 0.035151
0.303225 0.431360 0.033868
0.393012 0.434196 0.032613
0.501121 0.439135 0.031402
0.592204 0.422257 0.030138
0.659459 0.396796 0.028945
0.720674 0.382910 0.027764
0.779045 0.377211 0.026557
0.826684 0.372843 0.025394
0.862506 0.368172 0.024289
0.889240 0.363888 0.023140
0.000873 0.526256 0.095309
0.003272 0.528786 0.081025
0.043251 0.531240 0.052141
0.119999 0.533698 0.035162
0.182329 0.536244 0.033911
0.246488 0.538816 0.032629
0.322964 0.541330 0.031413
0.416204 0.543932 0.030207
0.524545 0.546331 0.028987
0.609224 0.519795 0.027789
0.673998 0.490189 0.026606
0.735080 0.475675 0.025418
0.791343 0.469246 0.024302
0.836030 0.463211 0.023174
0.869390 0.457102 0.022104
0.894365 0.451578 0.021068
0.000873 0.615434 0.086531
0.012183 0.617387 0.069816
0.054450 0.619102 0.033957
0.131304 0.621098 0.032706
0.188648 0.622832 0.031471
0.251157 0.624688 0.030244
0.327121 0.626555 0.029016
0.419002 0.628416 0.027817
0.523995 0.630298 0.026648
0.625377 0.622103 0.025487
0.688410 0.589751 0.024317
0.748846 0.575027 0.023219
0.802798 0.567242 0.022134
0.844520 0.559383 0.021077
0.875611 0.551626 0.020049
0.899202 0.544763 0.019023
0.000873 0.683763 0.076139
0.021212 0.685367 0.057169
0.079511 0.686879 0.031503
0.138468 0.688630 0.030274
0.192039 0.690176 0.029058
0.253081 0.691747 0.027852
0.328211 0.693298 0.026648
0.418291 0.695018 0.025499
0.519460 0.696517 0.024385
0.623920 0.698178 0.023257
0.702544 0.684769 0.022164
0.762309 0.670112 0.021102
0.813333 0.660364 0.020062
0.852432 0.650418 0.019098
0.881519 0.640862 0.018101
0.903845 0.632505 0.017166
0.000873 0.746412 0.067628
0.030533 0.748071 0.045252
0.094750 0.749648 0.029097
0.146776 0.751252 0.027906
0.198941 0.752865 0.026705
0.260481 0.754448 0.025541
0.336419 0.755929 0.024419
0.426440 0.757616 0.023287
0.526023 0.759140 0.022217
0.625848 0.760616 0.021139
0.712618 0.762277 0.020090
0.774819 0.751692 0.019109
0.822945 0.740317 0.018131
0.859484 0.728666 0.017177
0.886785 0.717272 0.016259
0.907870 0.707967 0.015403
0.001276 0.807319 0.060035
0.040246 0.808886 0.031123
0.107629 0.810251 0.026748
0.156653 0.811616 0.025584
0.208943 0.813082 0.024445
0.272142 0.814542 0.023347
0.349974 0.815934 0.022232
0.440869 0.817141 0.021187
0.539619 0.818574 0.020156
0.635482 0.819885 0.019109
0.717718 0.821332 0.018166
0.786413 0.821608 0.017217
0.831707 0.808446 0.016283
0.865906 0.795187 0.015408
0.891610 0.782960 0.014576
0.911821 0.772774 0.013781
0.009515 0.859018 0.051704
0.063686 0.860259 0.025614
0.118990 0.861502 0.024462
0.166487 0.862589 0.023346
0.219530 0.863768 0.022283
0.284553 0.864762 0.021218
0.364199 0.865979 0.020159
0.455647 0.866849 0.019172
0.553303 0.868031 0.018184
0.644591 0.869072 0.017254
0.722301 0.869933 0.016326
0.788270 0.870836 0.015447
0.839619 0.866771 0.014609
0.871585 0.852177 0.013828
0.895900 0.839181 0.013082
0.915013 0.828153 0.012340
0.018685 0.899442 0.042086
0.080474 0.900429 0.023422
0.128925 0.901320 0.022320
0.175767 0.902139 0.021217
0.229703 0.902870 0.020185
0.296761 0.903688 0.019201
0.377687 0.904518 0.018194
0.469173 0.905217 0.017259
0.564701 0.905988 0.016348
0.651359 0.906867 0.015491
0.725029 0.907372 0.014652
0.787510 0.908174 0.013869
0.840538 0.908771 0.013093
0.876693 0.900379 0.012368
0.899680 0.886815 0.011674
0.918144 0.875464 0.011004
0.027944 0.929436 0.029660
0.093082 0.930107 0.021264
0.138069 0.930761 0.020221
0.184642 0.931288 0.019234
0.239901 0.931886 0.018249
0.308562 0.932502 0.017319
0.390367 0.932983 0.016395
0.481794 0.933728 0.015538
0.574685 0.934145 0.014670
0.656752 0.934626 0.013884
0.726580 0.935205 0.013099
0.785888 0.935630 0.012388
0.836281 0.936042 0.011677
0.878343 0.936531 0.011023
0.903080 0.926196 0.010450
0.920725 0.914791 0.009874
0.000873 0.051410 0.090808
0.000873 0.043189 0.089828
0.000873 0.008869 0.088788
0.060928 0.000000 0.087663
0.088694 0.000000 0.086440
0.116488 0.000000 0.085196
0.169697 0.000000 0.097931
0.244173 0.000000 0.112167
0.339398 0.000000 0.123226
0.449197 0.000000 0.128749
0.551522 0.000000 0.125779
0.626443 0.000000 0.115970
0.688370 0.000000 0.107684
0.748120 0.000000 0.102882
0.801475 0.000000 0.099432
0.843176 0.000000 0.096098
0.000873 0.067334 0.088780
0.000873 0.062379 0.087716
0.000873 0.051028 0.086474
0.039304 0.018784 0.085234
0.084939 0.019390 0.083901
0.120003 0.019978 0.082482
0.181364 0.020519 0.095005
0.259900 0.021231 0.105513
0.359422 0.021849 0.113251
0.470537 0.022606 0.115768
0.568494 0.023324 0.110758
0.639678 0.024036 0.101192
0.700906 0.024806 0.094095
0.760373 0.025592 0.089891
0.811605 0.026430 0.086460
0.851041 0.027225 0.083069
0.000873 0.084884 0.086542
0.000873 0.082006 0.085287
0.000873 0.076382 0.083941
0.035780 0.065292 0.082491
0.082479 0.055372 0.081074
0.130123 0.056125 0.081646
0.194671 0.056916 0.088168
0.277594 0.057785 0.093536
0.381393 0.058639 0.096751
0.492798 0.059506 0.095913
0.585200 0.060475 0.089915
0.653109 0.061444 0.082466
0.714139 0.062379 0.077366
0.772745 0.063322 0.073946
0.821545 0.064362 0.070882
0.858472 0.065398 0.067901
0.000873 0.105098 0.083995
0.000873 0.104032 0.082537
0.004041 0.102699 0.081166
0.043056 0.101059 0.079652
0.087524 0.100019 0.078091
0.141469 0.100501 0.076863
0.209592 0.101557 0.075152
0.297366 0.104128 0.073337
0.404838 0.108187 0.071696
0.515090 0.111643 0.070053
0.601319 0.112717 0.068379
0.666898 0.112348 0.066684
0.727670 0.112549 0.065050
0.784929 0.113397 0.063361
0.830934 0.114091 0.061737
0.865568 0.114654 0.060056
0.000873 0.149847 0.094888
0.000873 0.150947 0.093115
0.011118 0.152230 0.089933
0.051060 0.153490 0.084618
0.097371 0.154828 0.076921
0.155142 0.156211 0.073393
0.226144 0.165011 0.071756
0.318940 0.175336 0.070102
0.429478 0.183072 0.068464
0.537054 0.183977 0.066755
0.617033 0.176656 0.065124
0.680737 0.169846 0.063459
0.741502 0.167058 0.061739
0.796682 0.166181 0.060086
0.840064 0.165268 0.058463
0.872304 0.164213 0.056853
0.000873 0.218858 0.109604
0.000873 0.220523 0.105715
0.018808 0.222173 0.098747
0.059945 0.223873 0.087737
0.109172 0.225751 0.071788
0.176072 0.227575 0.070179
0.244468 0.231197 0.068492
0.342411 0.246850 0.066835
0.455031 0.256197 0.065156
0.557907 0.252874 0.063486
0.632414 0.239064 0.061809
0.694763 0.228948 0.060172
0.755225 0.224988 0.058514
0.807953 0.222939 0.056891
0.848546 0.220902 0.055280
0.878737 0.218772 0.053740
0.000873 0.307996 0.120436
0.000873 0.310274 0.114247
0.027002 0.312525 0.103398
0.069505 0.314832 0.086460
0.129641 0.317266 0.068538
0.200155 0.319684 0.066873
0.273568 0.322201 0.065205
0.367352 0.330945 0.063566
0.480524 0.340159 0.061869
0.577387 0.330449 0.060205
0.647411 0.310622 0.058585
0.709154 0.298556 0.056975
0.768626 0.293795 0.055350
0.818551 0.290709 0.053764
0.856481 0.287476 0.052239
0.884618 0.284396 0.050699
0.000873 0.416047 0.125977
0.000873 0.418651 0.117344
0.035728 0.421363 0.102774
0.079821 0.424000 0.079516
0.151445 0.426704 0.065275
0.223767 0.429581 0.063588
0.302648 0.432451 0.061907
0.396559 0.435333 0.060252
0.505805 0.438311 0.058614
0.595425 0.419516 0.057041
0.662196 0.394396 0.055397
0.723475 0.381032 0.053848
0.781293 0.375574 0.052263
0.828473 0.371265 0.050710
0.863779 0.366614 0.049235
0.890138 0.362434 0.047760
0.000873 0.527249 0.123893
0.004939 0.529681 0.113135
0.045042 0.532112 0.095498
0.090948 0.534567 0.066715
0.169583 0.537146 0.061983
0.240990 0.539764 0.060330
0.322156 0.542337 0.058698
0.418659 0.544709 0.057068
0.529433 0.547259 0.055468
0.612405 0.518155 0.053850
0.676619 0.488655 0.052326
0.737632 0.474723 0.050798
0.793529 0.468242 0.049321
0.837695 0.462310 0.047798
0.870657 0.456198 0.046333
0.895409 0.450800 0.044942
0.000873 0.616135 0.113784
0.013810 0.618092 0.101599
0.054924 0.619912 0.082425
0.110691 0.621760 0.060385
0.179471 0.623571 0.058769
0.247283 0.625450 0.057125
0.326711 0.627206 0.055513
0.421142 0.629103 0.053919
0.527820 0.630960 0.052361
0.628342 0.620926 0.050793
0.691028 0.589088 0.049349
0.751552 0.574682 0.047875
0.804782 0.566681 0.046391
0.845956 0.558855 0.044991
0.876909 0.551026 0.043617
0.900228 0.544259 0.042336
0.000873 0.684403 0.101842
0.022936 0.686002 0.088648
0.065256 0.687549 0.069347
0.125302 0.689148 0.057184
0.185774 0.690675 0.055583
0.250680 0.692351 0.053982
0.328528 0.693915 0.052424
0.420446 0.695492 0.050889
0.522988 0.697090 0.049392
0.627778 0.698744 0.047884
0.705051 0.684300 0.046435
0.764749 0.669887 0.045063
0.815103 0.660118 0.043667
0.853813 0.650038 0.042363
0.882514 0.640388 0.041067
0.904583 0.632225 0.039826
0.000873 0.747017 0.092769
0.032337 0.748685 0.078467
0.076223 0.750299 0.058800
0.137319 0.751871 0.054003
0.194377 0.753515 0.052463
0.259040 0.754910 0.050925
0.337247 0.756617 0.049434
0.428928 0.758002 0.047976
0.529477 0.759679 0.046499
0.629365 0.761205 0.045078
0.715954 0.762792 0.043746
0.776809 0.751471 0.042344
0.824687 0.740053 0.041103
0.860654 0.728120 0.039834
0.887763 0.717186 0.038646
0.908669 0.707727 0.037491
0.002028 0.807921 0.085550
0.042055 0.809342 0.069831
0.091163 0.810808 0.052526
0.149103 0.812365 0.051010
0.205408 0.813636 0.049455
0.271312 0.815151 0.047979
0.351083 0.816288 0.046561
0.443344 0.817711 0.045141
0.542904 0.819146 0.043742
0.638548 0.820276 0.042444
0.720385 0.821762 0.041117
0.788435 0.821538 0.039865
0.833288 0.808333 0.038693
0.867005 0.794975 0.037529
0.892320 0.782641 0.036426
0.912203 0.772512 0.035342
0.011244 0.859527 0.078441
0.052093 0.860716 0.061321
0.106370 0.861781 0.049527
0.160326 0.862904 0.048016
0.216737 0.864063 0.046556
0.284284 0.865116 0.045211
0.365540 0.866228 0.043805
0.458246 0.867244 0.042497
0.556229 0.868269 0.041193
0.647356 0.869299 0.039921
0.724710 0.870343 0.038708
0.790429 0.871246 0.037543
0.840919 0.866448 0.036423
0.872717 0.851918 0.035366
0.896622 0.838905 0.034328
0.915557 0.827874 0.033348
0.020461 0.899757 0.071037
0.062377 0.900642 0.052501
0.119044 0.901522 0.046621
0.170710 0.902524 0.045237
0.227648 0.903169 0.043840
0.296743 0.903903 0.042523
0.379167 0.904783 0.041193
0.471678 0.905537 0.039999
0.567559 0.906236 0.038756
0.653836 0.906934 0.037596
0.727061 0.907717 0.036494
0.789243 0.908426 0.035416
0.842160 0.908921 0.034387
0.877501 0.900153 0.033371
0.900336 0.886575 0.032462
0.918519 0.875140 0.031614
0.029647 0.929666 0.063483
0.074682 0.930305 0.045312
0.129872 0.930991 0.043919
0.180492 0.931604 0.042568
0.238348 0.932197 0.041277
0.308916 0.932590 0.040031
0.392091 0.933252 0.038798
0.484137 0.933760 0.037629
0.577241 0.934373 0.036506
0.658985 0.934741 0.035448
0.728495 0.935255 0.034427
0.787407 0.935717 0.033455
0.837349 0.936187 0.032484
0.879545 0.936561 0.031608
0.903618 0.925815 0.030795
0.921160 0.914653 0.030006
0.000873 0.061485 0.138130
0.000873 0.051082 0.136775
0.006750 0.000000 0.135314
0.071449 0.000000 0.133736
0.103808 0.000000 0.132048
0.136355 0.000000 0.130231
0.173569 0.000000 0.128502
0.247017 0.000000 0.145650
0.342972 0.000000 0.160203
0.453122 0.000000 0.167354
0.554677 0.000000 0.163225
0.628949 0.000000 0.150324
0.690606 0.000000 0.139733
0.750449 0.000000 0.133807
0.803504 0.000000 0.129517
0.844528 0.000000 0.125262
0.000873 0.080782 0.135324
0.000873 0.074157 0.133811
0.000873 0.059334 0.132112
0.045389 0.019034 0.130385
0.097038 0.019570 0.128550
0.137065 0.020180 0.126623
0.183743 0.020817 0.127684
0.263156 0.021486 0.142425
0.363319 0.022129 0.153354
0.474599 0.022874 0.157045
0.571637 0.023590 0.150195
0.642155 0.024307 0.137418
0.703428 0.025118 0.128223
0.762748 0.025941 0.122940
0.813563 0.026740 0.118685
0.852473 0.027544 0.114519
0.000873 0.102096 0.132173
0.000873 0.097745 0.130435
0.000873 0.089200 0.128596
0.037037 0.072229 0.126685
0.088760 0.055607 0.124693
0.139572 0.056417 0.122702
0.197323 0.057240 0.126088
0.281102 0.058095 0.135881
0.385599 0.058924 0.142454
0.496907 0.059887 0.142470
0.588211 0.060807 0.133836
0.655680 0.061775 0.122556
0.716650 0.062738 0.115245
0.775108 0.063734 0.110817
0.823273 0.064754 0.106898
0.859736 0.065794 0.103063
0.000873 0.126876 0.128690
0.000873 0.124248 0.126707
0.005216 0.119834 0.124774
0.044518 0.112867 0.122784
0.089230 0.104023 0.120641
0.145617 0.100898 0.118520
0.212570 0.101956 0.121077
0.301246 0.103059 0.124767
0.409310 0.104239 0.126060
0.519313 0.105406 0.122932
0.604353 0.106628 0.115348
0.669414 0.107843 0.108254
0.730283 0.109095 0.103826
0.787164 0.110340 0.100769
0.832772 0.111697 0.097973
0.866911 0.113019 0.095446
0.000873 0.156500 0.124840
0.000873 0.155875 0.122795
0.012530 0.155248 0.120769
0.052680 0.154838 0.118623
0.099322 0.155349 0.116584
0.156576 0.156713 0.114350
0.229410 0.159257 0.112146
0.323209 0.162992 0.109908
0.434242 0.166963 0.107692
0.541079 0.168709 0.105484
0.619986 0.166930 0.103230
0.683384 0.164855 0.101039
0.744051 0.164179 0.098781
0.798789 0.164180 0.096608
0.841695 0.164035 0.094464
0.873635 0.163685 0.092262
0.000873 0.219457 0.138476
0.000873 0.221136 0.136008
0.020251 0.222836 0.132017
0.061638 0.224584 0.126165
0.110379 0.226435 0.118323
0.172731 0.228310 0.110007
0.248110 0.231533 0.107769
0.346912 0.241899 0.105547
0.459790 0.248160 0.103314
0.561551 0.244670 0.101084
0.635245 0.233650 0.098884
0.697503 0.225953 0.096691
0.757774 0.222969 0.094478
0.809994 0.221482 0.092336
0.850055 0.219785 0.090205
0.879796 0.218154 0.088118
0.000873 0.308836 0.152713
0.000873 0.310968 0.148022
0.028602 0.313303 0.140622
0.071374 0.315710 0.130142
0.122435 0.318049 0.115567
0.193499 0.320549 0.105601
0.274339 0.323040 0.103381
0.372137 0.330530 0.101169
0.485425 0.336536 0.098960
0.580766 0.325789 0.096731
0.650237 0.307416 0.094566
0.711888 0.296681 0.092409
0.771052 0.292571 0.090280
0.820396 0.289765 0.088173
0.858006 0.286770 0.086122
0.885718 0.283914 0.084120
0.000873 0.416999 0.160330
0.000873 0.419604 0.153514
0.037470 0.422294 0.143034
0.081822 0.425052 0.128301
0.135511 0.427847 0.107437
0.216026 0.430586 0.101218
0.301648 0.433492 0.099024
0.400170 0.436281 0.096864
