test-luts/CityLights.cube
LUT_3D_SIZE 6
0.000873 0.024599 0.028702
0.033152 0.000000 0.026980
0.165716 0.000000 0.052642
0.441419 0.000000 0.066746
0.683795 0.000000 0.054510
0.840207 0.000000 0.046274
0.000873 0.095205 0.048232
0.045540 0.097818 0.022625
0.203863 0.124284 0.019993
0.506830 0.154741 0.017288
0.722547 0.137540 0.014482
0.862955 0.134377 0.011754
0.000873 0.306527 0.072088
0.105803 0.313111 0.017372
0.271832 0.320382 0.014599
0.570278 0.338737 0.011821
0.763681 0.299699 0.009156
0.882467 0.289573 0.006697
0.000873 0.614835 0.061938
0.146166 0.620432 0.011919
0.327197 0.625914 0.009265
0.622431 0.623051 0.006782
0.800754 0.567714 0.005285
0.898396 0.545215 0.005285
0.000873 0.806808 0.031491
0.163908 0.811157 0.006853
0.348790 0.815328 0.005285
0.632137 0.819346 0.005285
0.830173 0.808669 0.005285
0.910928 0.772886 0.005285
0.067458 0.929255 0.005285
0.188808 0.931114 0.005285
0.388793 0.932825 0.005285
0.654475 0.934612 0.005285
0.834870 0.935940 0.005285
0.920340 0.915077 0.005285
0.000873 0.061485 0.138130
0.071449 0.000000 0.133736
0.173569 0.000000 0.128502
0.453122 0.000000 0.167354
0.690606 0.000000 0.139733
0.844528 0.000000 0.125262
0.000873 0.126876 0.128690
0.044518 0.112867 0.122784
0.212570 0.101956 0.121077
0.519313 0.105406 0.122932
0.730283 0.109095 0.103826
0.866911 0.113019 0.095446
0.000873 0.308836 0.152713
0.071374 0.315710 0.130142
0.274339 0.323040 0.103381
0.580766 0.325789 0.096731
0.771052 0.292571 0.090280
0.885718 0.283914 0.084120
0.000873 0.616830 0.146280
0.105098 0.622361 0.105922
0.326577 0.627941 0.090509
0.631194 0.619801 0.084293
0.806812 0.566705 0.078488
0.900993 0.544350 0.073112
0.003682 0.808457 0.113769
0.145281 0.812848 0.084510
0.353212 0.816997 0.078667
0.641763 0.820737 0.073247
0.834693 0.808166 0.068399
0.912871 0.772310 0.063957
0.031393 0.929870 0.092281
0.179045 0.931791 0.073460
0.394398 0.933452 0.068516
0.661397 0.934922 0.064133
0.838869 0.936237 0.060293
0.921629 0.914708 0.057066
0.000873 0.080468 0.387767
0.093667 0.000000 0.378578
0.226883 0.000000 0.367437
0.465056 0.000000 0.360013
0.697808 0.000000 0.297795
0.849011 0.000000 0.267630
0.000873 0.169781 0.367860
0.048953 0.137867 0.355276
0.240419 0.103199 0.341474
0.531600 0.106725 0.326842
0.738070 0.110519 0.262864
0.870682 0.114419 0.237586
0.000873 0.330727 0.341953
0.077124 0.328847 0.327391
0.280621 0.326671 0.312366
0.590958 0.333820 0.292751
0.778296 0.341824 0.281633
0.888742 0.339181 0.267989
0.000873 0.618930 0.308331
0.112157 0.624384 0.284307
0.351072 0.630002 0.282798
0.639639 0.618947 0.268416
0.812721 0.579244 0.254754
0.903436 0.560516 0.242181
0.008883 0.809927 0.246794
0.153956 0.814231 0.229110
0.388470 0.818370 0.255134
0.656070 0.822308 0.242584
0.839105 0.809683 0.231036
0.914825 0.776653 0.220945
0.036560 0.930545 0.212896
0.200896 0.932293 0.208797
0.423967 0.933951 0.231482
0.673636 0.935574 0.221220
0.843549 0.936813 0.212526
0.922869 0.915095 0.205288
0.000873 0.072044 0.632903
0.088086 0.000000 0.627049
0.212407 0.000000 0.619954
0.434750 0.000000 0.611922
0.704924 0.000000 0.568702
0.853313 0.000000 0.517296
0.000873 0.155279 0.620144
0.053716 0.125119 0.612184
0.230372 0.104467 0.603393
0.504292 0.108075 0.593937
0.745809 0.111929 0.526632
0.874372 0.115957 0.479569
0.000873 0.310457 0.603668
0.083115 0.306520 0.594252
0.293297 0.320063 0.584168
0.592592 0.336725 0.573539
0.785073 0.344805 0.503587
0.891741 0.352882 0.472024
0.000873 0.605489 0.584414
0.119483 0.619311 0.574048
0.368031 0.631918 0.560616
0.647874 0.636069 0.551942
0.818221 0.639602 0.540846
0.905800 0.638731 0.529770
0.014002 0.811554 0.494023
0.162379 0.815768 0.476204
0.446418 0.819777 0.501293
0.689636 0.823467 0.529979
0.843121 0.822500 0.519275
0.916603 0.806244 0.509251
0.041757 0.931455 0.437881
0.210109 0.933020 0.426925
0.514716 0.934698 0.499656
0.714147 0.936001 0.509535
0.852601 0.937219 0.500411
0.923933 0.922990 0.492424
0.000873 0.066902 0.809169
0.085519 0.000000 0.804284
0.202872 0.000000 0.798516
0.413498 0.000000 0.791935
0.692236 0.000000 0.784481
0.857440 0.000000 0.749808
0.000873 0.144426 0.798815
0.058646 0.115667 0.792175
0.222574 0.105794 0.784743
0.474330 0.109495 0.777024
0.746619 0.113430 0.768424
0.877919 0.117454 0.718144
0.000873 0.286946 0.785079
0.089364 0.281483 0.777108
0.306379 0.320633 0.768573
0.559481 0.339681 0.759849
0.791970 0.347789 0.745013
0.894640 0.355926 0.697717
0.000873 0.552179 0.768911
0.127002 0.558347 0.760278
0.382707 0.586712 0.751126
0.656814 0.639281 0.742020
0.823458 0.644161 0.733618
0.908146 0.648794 0.713372
0.019160 0.813218 0.749538
0.170996 0.817281 0.736940
0.460293 0.821252 0.730026
0.695991 0.825072 0.725384
0.847024 0.824978 0.716854
0.918196 0.819865 0.709610
0.046974 0.931947 0.686079
0.219206 0.933696 0.676373
0.525597 0.935122 0.699654
0.729609 0.936447 0.709429
0.857463 0.937610 0.703490
0.924863 0.927490 0.698567
0.000873 0.063462 0.909923
0.084916 0.000000 0.907240
0.199160 0.000000 0.904351
0.405958 0.000000 0.900976
0.671364 0.000000 0.897373
0.849868 0.000000 0.893270
0.000873 0.138041 0.904491
0.063817 0.110741 0.901226
0.222230 0.107116 0.897342
0.466009 0.110881 0.893501
0.722320 0.114851 0.889051
0.881351 0.118914 0.881721
0.000873 0.275173 0.897546
0.095878 0.270642 0.893526
0.320028 0.327085 0.889210
0.554505 0.342627 0.884835
0.775080 0.350813 0.880325
0.897456 0.358797 0.858439
0.000873 0.529275 0.889323
0.134721 0.535514 0.885093
0.397391 0.576961 0.880346
0.663280 0.641113 0.875879
0.822685 0.645907 0.871430
0.910176 0.650417 0.850716
0.024345 0.779047 0.880597
0.179734 0.785792 0.876011
0.473686 0.805757 0.871499
0.702814 0.820289 0.866995
0.849417 0.829475 0.862753
0.919806 0.832308 0.849291
0.052150 0.932588 0.861051
0.228503 0.934142 0.853630
0.535562 0.935599 0.853133
0.734971 0.936974 0.851469
0.864675 0.937997 0.855923
0.925931 0.936260 0.853089
