test-luts/DreamyDays.cube
LUT_3D_SIZE 16
-0.041696 -0.041720 -0.040766
-0.032938 -0.041716 -0.040750
0.050091 -0.041716 -0.040733
0.103592 -0.041708 -0.040626
0.140502 -0.041699 -0.040583
0.192642 -0.041692 -0.040625
0.272925 -0.041681 -0.040696
0.377028 -0.041665 -0.040754
0.484222 -0.041638 -0.040780
0.570126 -0.041618 -0.040756
0.645026 -0.041598 -0.040690
0.719112 -0.041572 -0.040584
0.795524 -0.041546 -0.040461
0.869461 -0.041530 -0.040340
0.935609 -0.041511 -0.040232
0.946633 -0.041488 -0.040171
-0.041687 -0.033527 -0.040647
-0.032682 -0.033424 -0.040627
0.050636 -0.033322 -0.040607
0.103967 -0.032435 -0.040582
0.140837 -0.032063 -0.040545
0.193087 -0.032495 -0.040500
0.273427 -0.033143 -0.040452
0.377558 -0.033767 -0.040391
0.484637 -0.034166 -0.040314
0.570411 -0.034148 -0.040244
0.645304 -0.033757 -0.040173
0.719524 -0.033105 -0.040111
0.795522 -0.032277 -0.040059
0.869473 -0.031385 -0.040007
0.935846 -0.030546 -0.039966
0.946633 -0.030266 -0.039922
-0.041666 0.048841 -0.040477
-0.032390 0.049059 -0.040457
0.051283 0.049244 -0.040434
0.104388 0.052347 -0.040404
0.141251 0.053170 -0.040371
0.193552 0.051251 -0.040316
0.274115 0.048191 -0.040255
0.378286 0.044941 -0.040189
0.485143 0.042679 -0.040106
0.570752 0.042266 -0.040024
0.645687 0.043650 -0.039947
0.719618 0.046061 -0.039875
0.796061 0.048888 -0.039812
0.869449 0.051548 -0.039756
0.935893 0.053836 -0.039701
0.946633 0.054516 -0.039639
-0.041641 0.102781 -0.040163
-0.031159 0.102910 -0.040252
0.054824 0.103075 -0.040226
0.104918 0.102385 -0.040188
0.141757 0.092729 -0.040147
0.194184 0.088883 -0.040085
0.274879 0.087482 -0.040011
0.378998 0.086203 -0.039932
0.485748 0.084596 -0.039838
0.571211 0.083871 -0.039737
0.646006 0.084977 -0.039647
0.720151 0.087669 -0.039558
0.796447 0.091368 -0.039492
0.869831 0.095332 -0.039422
0.936148 0.099006 -0.039372
0.946633 0.099852 -0.039305
-0.041605 0.139684 -0.039828
-0.030307 0.139784 -0.039978
0.056554 0.139929 -0.039939
0.095401 0.140138 -0.039898
0.142420 0.139688 -0.039844
0.195015 0.131894 -0.039766
0.275859 0.131600 -0.039677
0.380094 0.132674 -0.039573
0.486468 0.131936 -0.039462
0.571698 0.130654 -0.039344
0.646562 0.131835 -0.039244
0.720429 0.135759 -0.039154
0.796591 0.141721 -0.039064
0.870244 0.148268 -0.038983
0.935722 0.154186 -0.038921
0.946633 0.155405 -0.038850
-0.041534 0.191459 -0.039540
-0.030295 0.191635 -0.039565
0.055724 0.191816 -0.039519
0.091807 0.192062 -0.039469
0.135305 0.192343 -0.039400
0.196123 0.192444 -0.039305
0.277107 0.193053 -0.039207
0.381370 0.196005 -0.039080
0.487415 0.195628 -0.038937
0.572455 0.193609 -0.038804
0.647064 0.194903 -0.038684
0.720969 0.200601 -0.038571
0.797339 0.209503 -0.038474
0.870280 0.219163 -0.038380
0.935905 0.228037 -0.038302
0.946633 0.229711 -0.038224
-0.041425 0.271253 -0.039244
-0.030062 0.271432 -0.039008
0.053930 0.271720 -0.038945
0.091324 0.271959 -0.038881
0.135869 0.272387 -0.038798
0.197570 0.272837 -0.038687
0.278723 0.273619 -0.038549
0.382865 0.278399 -0.038399
0.488559 0.278109 -0.038239
0.573277 0.275004 -0.038075
0.647866 0.276682 -0.037918
0.721714 0.284644 -0.037791
0.797754 0.297238 -0.037671
0.870758 0.310917 -0.037566
0.936142 0.323386 -0.037470
0.946633 0.325547 -0.037389
-0.041261 0.374959 -0.038887
-0.028497 0.375230 -0.038293
0.052300 0.375327 -0.038215
0.091518 0.375646 -0.038134
0.138232 0.375987 -0.038020
0.201901 0.376484 -0.037885
0.284644 0.377069 -0.037729
0.384595 0.377872 -0.037533
0.489834 0.377308 -0.037342
0.574183 0.373004 -0.037140
0.648602 0.375117 -0.036967
0.722331 0.385834 -0.036811
0.798162 0.402650 -0.036669
0.871386 0.421285 -0.036551
0.936583 0.438079 -0.036441
0.946633 0.440813 -0.036333
-0.041037 0.481943 -0.038424
-0.026749 0.482140 -0.037422
0.051675 0.482375 -0.037336
0.091360 0.482621 -0.037223
0.138917 0.482830 -0.037093
0.202990 0.483184 -0.036921
0.285899 0.483551 -0.036720
0.385583 0.484022 -0.036506
0.491167 0.484002 -0.036267
0.575048 0.478263 -0.036042
0.649356 0.480843 -0.035843
0.722967 0.494347 -0.035643
0.798909 0.515891 -0.035479
0.871493 0.539379 -0.035334
0.936716 0.560712 -0.035214
0.946633 0.564080 -0.035098
-0.040766 0.567648 -0.037770
-0.024584 0.567903 -0.036434
0.052829 0.568054 -0.036333
0.091783 0.568155 -0.036197
0.138755 0.568340 -0.036038
0.202036 0.568584 -0.035844
0.283827 0.568836 -0.035607
0.382148 0.569179 -0.035355
0.486370 0.569470 -0.035083
0.575998 0.569456 -0.034807
0.650189 0.572515 -0.034558
0.723622 0.588574 -0.034368
0.799232 0.613992 -0.034181
0.871836 0.641806 -0.034030
0.937025 0.667024 -0.033866
0.946633 0.670779 -0.033737
-0.040462 0.642215 -0.036886
-0.021090 0.642288 -0.035408
0.055471 0.642257 -0.035283
0.093831 0.642386 -0.035136
0.140855 0.642683 -0.034966
0.204238 0.642831 -0.034726
0.286176 0.643075 -0.034458
0.384704 0.643322 -0.034167
0.488936 0.643648 -0.033843
0.578849 0.643879 -0.033547
0.650693 0.645004 -0.033278
0.724262 0.662937 -0.033058
0.799798 0.691615 -0.032867
0.872287 0.722916 -0.032674
0.937033 0.751018 -0.032523
0.946633 0.755081 -0.032373
-0.040150 0.714878 -0.035876
-0.015778 0.715041 -0.034406
0.058887 0.714974 -0.034276
0.097556 0.715142 -0.034114
0.145712 0.715320 -0.033904
0.210718 0.715638 -0.033657
0.294737 0.715707 -0.033348
0.395663 0.716092 -0.033015
0.502329 0.716293 -0.032674
0.594081 0.716340 -0.032360
0.666751 0.716683 -0.032077
0.724641 0.719558 -0.031806
0.800159 0.750671 -0.031606
0.872300 0.784154 -0.031411
0.936802 0.814582 -0.031240
0.946633 0.819057 -0.031059
-0.039859 0.789815 -0.034740
0.005691 0.790015 -0.033450
0.062555 0.790102 -0.033315
0.102368 0.790157 -0.033135
0.152782 0.790437 -0.032911
0.220533 0.790592 -0.032610
0.308056 0.790471 -0.032288
0.413179 0.790898 -0.031923
0.524006 0.791019 -0.031559
0.619423 0.791285 -0.031208
0.695053 0.791555 -0.030881
0.752399 0.791588 -0.030634
0.800590 0.795831 -0.030376
0.872629 0.831441 -0.030183
0.937051 0.863582 -0.029987
0.946633 0.868243 -0.029838
-0.039573 0.862758 -0.033500
0.016848 0.862748 -0.032554
0.066004 0.862925 -0.032382
0.107566 0.862979 -0.032175
0.160451 0.863242 -0.031954
0.231435 0.863257 -0.031622
0.322950 0.863464 -0.031251
0.432747 0.863662 -0.030878
0.548330 0.863679 -0.030494
0.647779 0.863870 -0.030115
0.726502 0.863751 -0.029771
0.786098 0.863713 -0.029470
0.831900 0.863735 -0.029218
0.872779 0.868494 -0.029010
0.937015 0.901977 -0.028852
0.946633 0.906967 -0.028690
-0.039291 0.929097 -0.032224
0.021976 0.928726 -0.031669
0.069064 0.928743 -0.031455
0.112437 0.928738 -0.031233
0.167575 0.928872 -0.030995
0.241477 0.928930 -0.030658
0.336641 0.928974 -0.030265
0.450749 0.929128 -0.029861
0.570768 0.929182 -0.029444
0.673830 0.929160 -0.029031
0.755500 0.929189 -0.028695
0.817585 0.929225 -0.028377
0.865017 0.929305 -0.028130
0.902528 0.929386 -0.027883
0.937238 0.933518 -0.027710
0.946633 0.938460 -0.027537
-0.039003 0.983485 -0.030973
0.025264 0.983485 -0.030723
0.071477 0.983486 -0.030522
0.116346 0.983488 -0.030309
0.173276 0.983488 -0.030023
0.249381 0.983491 -0.029663
0.347340 0.983491 -0.029247
0.464702 0.983493 -0.028819
0.587997 0.983493 -0.028387
0.693923 0.983493 -0.027943
0.777830 0.983493 -0.027560
0.841517 0.983496 -0.027241
0.890336 0.983496 -0.027013
0.928856 0.983496 -0.026786
0.960161 0.983498 -0.026595
0.964777 0.983498 -0.026358
-0.041697 -0.041720 -0.020826
-0.032884 -0.041716 -0.020674
0.050139 -0.041713 -0.020382
0.103666 -0.041708 -0.016213
0.140564 -0.041696 -0.014604
0.192715 -0.041689 -0.017901
0.273060 -0.041673 -0.021760
0.377169 -0.041659 -0.024715
0.484267 -0.041640 -0.026394
0.570142 -0.041613 -0.026700
0.645140 -0.041586 -0.025757
0.719180 -0.041561 -0.023943
0.795704 -0.041541 -0.021243
0.869598 -0.041519 -0.017781
0.935627 -0.041502 -0.013547
0.946633 -0.041477 -0.011965
-0.041685 -0.033477 -0.019143
-0.032629 -0.033400 -0.018869
0.050770 -0.033272 -0.018530
0.104031 -0.033150 -0.015720
0.140893 -0.032938 -0.014656
0.193191 -0.032691 -0.016324
0.273564 -0.032373 -0.018245
0.377695 -0.032010 -0.019748
0.484750 -0.031675 -0.020441
0.570496 -0.031329 -0.020087
0.645376 -0.031022 -0.018944
0.719503 -0.030723 -0.016938
0.795661 -0.030447 -0.014207
0.869445 -0.030197 -0.010435
0.935934 -0.029980 0.002925
0.946633 -0.029793 0.007013
-0.041666 0.048934 -0.016646
-0.032333 0.049149 -0.016248
0.051408 0.049328 -0.015876
0.104470 0.051706 -0.015389
0.141322 0.052283 -0.014727
0.193662 0.051080 -0.013722
0.274197 0.049218 -0.012277
0.378337 0.047413 -0.010309
0.485180 0.046313 -0.007051
0.570801 0.046361 0.004687
0.645775 0.047433 0.008848
0.719652 0.049082 0.011123
0.796172 0.051002 0.012478
0.869504 0.052825 0.013602
0.935893 0.054460 0.014433
0.946633 0.055007 0.015366
-0.041638 0.102830 0.007953
-0.031920 0.102975 -0.006228
0.054289 0.103128 -0.011489
0.104998 0.102386 -0.010531
0.141820 0.092542 -0.009117
0.194291 0.088857 -0.006453
0.274957 0.087831 0.004906
0.379173 0.087112 0.009332
0.485793 0.085988 0.011882
0.571272 0.085447 0.013903
0.646068 0.086453 0.015392
0.720190 0.088873 0.016539
0.796475 0.092259 0.017384
0.869872 0.095928 0.018135
0.936152 0.099349 0.018781
0.946633 0.100123 0.019321
-0.041596 0.139708 0.016784
-0.031348 0.139836 0.013831
0.055700 0.139996 0.008829
0.095272 0.140175 0.010114
0.142507 0.139714 0.011557
0.195127 0.131910 0.013196
0.276002 0.131836 0.014765
0.380245 0.133225 0.016391
0.486579 0.132750 0.017839
0.571877 0.131608 0.019070
0.646548 0.132688 0.020056
0.720561 0.136495 0.020890
0.796741 0.142298 0.021636
0.870338 0.148683 0.022207
0.935723 0.154414 0.022854
0.946633 0.155628 0.023327
-0.041530 0.191544 0.017865
-0.030540 0.191693 0.017412
0.055547 0.191897 0.016942
0.091810 0.192135 0.017706
0.135381 0.192442 0.018524
0.196228 0.192515 0.019501
0.277278 0.193207 0.020642
0.381443 0.196321 0.021692
0.487563 0.196114 0.022718
0.572540 0.194188 0.023690
0.647137 0.195466 0.024540
0.721073 0.201095 0.025309
0.797333 0.209877 0.025931
0.870309 0.219443 0.026453
0.936080 0.228258 0.026921
0.946633 0.229901 0.027308
-0.041415 0.271315 0.017230
-0.028954 0.271537 0.020034
0.055071 0.271797 0.022682
0.091749 0.272081 0.023249
0.136124 0.272465 0.023880
0.197790 0.272870 0.024638
0.278865 0.273711 0.025509
0.383004 0.278608 0.026395
0.488679 0.278414 0.027279
0.573367 0.275422 0.028151
0.647793 0.277091 0.028904
0.721748 0.285023 0.029512
0.797650 0.297470 0.030071
0.870724 0.311154 0.030517
0.936142 0.323531 0.030935
0.946633 0.325715 0.031327
-0.041246 0.374977 0.016639
-0.025256 0.375234 0.022960
0.055005 0.375520 0.027488
0.092608 0.375846 0.027947
0.138908 0.376189 0.028482
0.202279 0.376582 0.029129
0.284915 0.377161 0.029882
0.384766 0.377989 0.030680
0.489970 0.377541 0.031513
0.574191 0.373238 0.032273
0.648706 0.375456 0.032930
0.722427 0.386142 0.033534
0.798187 0.402952 0.034007
0.871420 0.421425 0.034436
0.936583 0.438173 0.034783
0.946633 0.440976 0.035191
-0.041017 0.482039 0.017698
-0.021166 0.482231 0.026163
0.055727 0.482432 0.031635
0.093085 0.482639 0.032013
0.139934 0.482883 0.032533
0.203622 0.483251 0.033118
0.286296 0.483649 0.033840
0.385807 0.484061 0.034618
0.491259 0.484074 0.035338
0.575147 0.478359 0.036074
0.649438 0.481024 0.036692
0.723037 0.494571 0.037205
0.799075 0.516132 0.037622
0.871455 0.539521 0.038021
0.936737 0.560887 0.038343
0.946633 0.564178 0.038647
-0.040738 0.567735 0.021379
-0.016437 0.567953 0.029685
0.057464 0.568033 0.035231
0.093825 0.568195 0.035602
0.139960 0.568449 0.036056
0.202742 0.568622 0.036658
0.284325 0.568883 0.037320
0.382379 0.569174 0.038009
0.486590 0.569607 0.038740
0.576029 0.569486 0.039391
0.650236 0.572585 0.039976
0.723814 0.588727 0.040399
0.799415 0.614168 0.040795
0.871936 0.641972 0.041147
0.936918 0.667027 0.041460
0.946633 0.670849 0.041687
-0.040429 0.642263 0.026479
-0.007631 0.642248 0.033308
0.059871 0.642341 0.038169
0.095829 0.642548 0.038590
0.142031 0.642742 0.039025
0.204996 0.642897 0.039581
0.286713 0.643139 0.040227
0.385065 0.643348 0.040881
0.489141 0.643675 0.041566
0.578969 0.643917 0.042136
0.650815 0.645052 0.042665
0.724416 0.663078 0.043100
0.799702 0.691705 0.043433
0.872292 0.722923 0.043733
0.937034 0.751072 0.044035
0.946633 0.755135 0.044307
-0.040114 0.714991 0.031515
0.013079 0.715083 0.036696
0.062555 0.715134 0.040632
0.099265 0.715257 0.040988
0.146773 0.715415 0.041461
0.211423 0.715692 0.041984
0.295212 0.715695 0.042587
0.396022 0.716037 0.043229
0.502564 0.716417 0.043817
0.594241 0.716443 0.044369
0.666888 0.716742 0.044853
0.724708 0.719489 0.045248
0.800189 0.750679 0.045583
0.872352 0.784213 0.045892
0.936813 0.814611 0.046123
0.946633 0.819106 0.046392
-0.039820 0.789933 0.036205
0.018074 0.790142 0.039766
0.065223 0.790067 0.042658
0.103715 0.790288 0.043009
0.153587 0.790424 0.043449
0.221106 0.790600 0.043954
0.308430 0.790537 0.044524
0.413474 0.790854 0.045091
0.524246 0.791044 0.045657
0.619615 0.791345 0.046213
0.695079 0.791610 0.046655
0.752418 0.791595 0.047050
0.800535 0.795722 0.047368
0.872637 0.831470 0.047600
0.937072 0.863612 0.047900
0.946633 0.868309 0.048109
-0.039519 0.862818 0.040311
0.021287 0.862778 0.042498
0.067756 0.862953 0.044392
0.108443 0.862988 0.044718
0.161068 0.863245 0.045150
0.231826 0.863279 0.045586
0.323267 0.863489 0.046131
0.433014 0.863780 0.046694
0.548480 0.863702 0.047265
0.647918 0.863888 0.047746
0.726597 0.863736 0.048199
0.786158 0.863720 0.048589
0.831919 0.863741 0.048909
0.872836 0.868550 0.049162
0.937015 0.901982 0.049367
0.946633 0.906969 0.049590
-0.039247 0.928726 0.043806
0.023825 0.928727 0.044856
0.069941 0.928745 0.045874
0.112922 0.928799 0.046198
0.167956 0.928873 0.046630
0.241749 0.928936 0.047066
0.336875 0.928975 0.047541
0.450985 0.929142 0.048079
0.570926 0.929182 0.048651
0.673985 0.929171 0.049124
0.755507 0.929190 0.049565
0.817607 0.929225 0.049938
0.865025 0.929305 0.050185
0.902575 0.929433 0.050435
0.937255 0.933531 0.050631
0.946633 0.938460 0.050862
-0.038955 0.983485 0.046567
0.025855 0.983485 0.046882
0.071766 0.983488 0.047265
0.116555 0.983488 0.047588
0.173452 0.983488 0.047917
0.249544 0.983491 0.048387
0.347510 0.983491 0.048906
0.464858 0.983493 0.049430
0.588073 0.983493 0.049921
0.693993 0.983493 0.050394
0.777715 0.983495 0.050808
0.841402 0.983496 0.051104
0.890391 0.983496 0.051408
0.928857 0.983496 0.051625
0.960161 0.983498 0.051823
0.964777 0.983498 0.051950
-0.041694 -0.041718 0.059282
-0.032846 -0.041716 0.059362
0.050264 -0.041710 0.059455
0.103728 -0.041709 0.062537
0.140648 -0.041696 0.063319
0.192811 -0.041687 0.061075
0.273167 -0.041670 0.057549
0.377282 -0.041656 0.053846
0.484336 -0.041629 0.051146
0.570237 -0.041608 0.050385
0.645266 -0.041583 0.051502
0.719227 -0.041555 0.053814
0.795565 -0.041536 0.056551
0.869602 -0.041513 0.059255
0.935660 -0.041495 0.061550
0.946633 -0.041468 0.062096
-0.041681 -0.033446 0.060187
-0.032571 -0.033348 0.060303
0.050878 -0.033240 0.060450
0.104117 -0.033096 0.063360
0.140969 -0.032888 0.063963
0.193256 -0.032619 0.061985
0.273710 -0.032300 0.058959
0.377851 -0.031957 0.055853
0.484832 -0.031613 0.053634
0.570524 -0.031269 0.053148
0.645562 -0.030956 0.054156
0.719554 -0.030653 0.056144
0.795721 -0.030374 0.058493
0.869498 -0.030123 0.060838
0.935953 -0.029909 0.062873
0.946633 -0.029684 0.063374
-0.041665 0.049025 0.061306
-0.032266 0.049191 0.061423
0.051512 0.049417 0.061576
0.104559 0.049721 0.063009
0.141389 0.050107 0.063146
0.193755 0.050558 0.062578
0.274344 0.051105 0.061826
0.378506 0.051739 0.061183
0.485311 0.052427 0.060936
0.570914 0.053106 0.061168
0.645920 0.053748 0.061790
0.719846 0.054251 0.062624
0.796146 0.054720 0.063486
0.869680 0.055120 0.064342
0.936118 0.055497 0.065077
0.946633 0.055854 0.065373
-0.041632 0.102889 0.065421
-0.031840 0.103018 0.065362
0.052392 0.103158 0.063976
0.105097 0.102301 0.063032
0.141920 0.091748 0.063271
0.194422 0.088664 0.063573
0.275117 0.088808 0.063955
0.379294 0.089649 0.064391
0.485894 0.089868 0.064854
0.571343 0.089790 0.065304
0.646214 0.090448 0.065698
0.720081 0.092149 0.066052
0.796628 0.094670 0.066365
0.869983 0.097424 0.066657
0.936177 0.100044 0.066876
0.946633 0.100706 0.067109
-0.041585 0.139754 0.067679
-0.031251 0.139893 0.067445
0.053543 0.140065 0.065532
0.094519 0.140231 0.064629
0.142596 0.139736 0.064888
0.195245 0.131870 0.065211
0.276100 0.132403 0.065619
0.380272 0.134648 0.066083
0.486683 0.134984 0.066536
0.571895 0.134122 0.067013
0.646677 0.135024 0.067428
0.720688 0.138427 0.067777
0.796832 0.143729 0.068087
0.870303 0.149575 0.068368
0.935651 0.154874 0.068619
0.946633 0.156020 0.068861
-0.041518 0.191634 0.067113
-0.030409 0.191802 0.067153
0.055059 0.191970 0.066679
0.091633 0.192210 0.066593
0.135393 0.192508 0.066874
0.196358 0.192607 0.067234
0.277406 0.193490 0.067666
0.381535 0.197142 0.068131
0.487628 0.197403 0.068627
0.572616 0.195654 0.069101
0.647280 0.196931 0.069530
0.721151 0.202748 0.072098
0.797481 0.211564 0.073802
0.870200 0.220921 0.075000
0.936161 0.229581 0.075758
0.946633 0.231295 0.076553
-0.041397 0.271414 0.065360
-0.028712 0.271629 0.065944
0.056897 0.271891 0.067844
0.092801 0.272223 0.068930
0.136718 0.272583 0.069215
0.198120 0.273017 0.069593
0.279007 0.273808 0.073043
0.383122 0.279432 0.075112
0.488787 0.279829 0.076666
0.573377 0.277207 0.077963
0.647892 0.278960 0.078867
0.721786 0.286806 0.079691
0.797857 0.299172 0.080333
0.870781 0.312595 0.080820
0.936241 0.324813 0.081224
0.946633 0.326990 0.081613
-0.041227 0.375158 0.063603
-0.024866 0.375312 0.064905
0.059032 0.375657 0.069220
0.099783 0.375856 0.077808
0.143156 0.376197 0.078542
0.204668 0.376669 0.079327
0.285942 0.377162 0.080230
0.384902 0.378052 0.081085
0.490058 0.378331 0.081964
0.574274 0.374442 0.082728
0.648817 0.376786 0.083353
0.722577 0.387402 0.083855
0.798255 0.404160 0.084307
0.871317 0.422492 0.084688
0.936538 0.439182 0.084993
0.946633 0.441806 0.085284
-0.040997 0.482097 0.062770
-0.020810 0.482280 0.064800
0.061307 0.482480 0.070780
0.103602 0.482675 0.082553
0.146137 0.482996 0.083031
0.207209 0.483329 0.083602
0.288230 0.483754 0.084267
0.386686 0.484211 0.084951
0.491340 0.484184 0.085578
0.575279 0.478943 0.086171
0.649537 0.481791 0.086680
0.723192 0.495381 0.087107
0.799088 0.516888 0.087432
0.871501 0.540201 0.087741
0.936738 0.561476 0.088008
0.946633 0.564777 0.088244
-0.040708 0.567775 0.063867
-0.015860 0.568000 0.066216
0.063520 0.568079 0.072636
0.105873 0.568268 0.085865
0.147228 0.568462 0.086284
0.207055 0.568727 0.086777
0.286865 0.569053 0.087323
0.383767 0.569289 0.087861
0.487159 0.569603 0.088405
0.576040 0.569604 0.088923
0.650311 0.572972 0.089347
0.723829 0.589096 0.089702
0.799457 0.614633 0.090015
0.872089 0.642474 0.090276
0.936952 0.667507 0.090503
0.946633 0.671299 0.090724
-0.040394 0.642353 0.066646
-0.005449 0.642301 0.068945
0.065502 0.642378 0.074659
0.108204 0.642572 0.088383
0.149568 0.642763 0.088736
0.209501 0.642879 0.089153
0.289384 0.643249 0.089634
0.386615 0.643405 0.090135
0.489982 0.643649 0.090619
0.579338 0.643986 0.091056
0.650864 0.645089 0.091492
0.724537 0.663348 0.091782
0.799764 0.691986 0.092050
0.872404 0.723261 0.092272
0.937077 0.751309 0.092453
0.946633 0.755434 0.092660
-0.040075 0.714999 0.070381
0.013923 0.714976 0.072083
0.067227 0.715054 0.076784
0.111020 0.715307 0.090284
0.153914 0.715501 0.090597
0.215727 0.715703 0.090987
0.297809 0.715830 0.091452
0.397621 0.716080 0.091886
0.503469 0.716286 0.092343
0.594768 0.716559 0.092767
0.667087 0.716756 0.093114
0.724682 0.719615 0.093390
0.800242 0.750627 0.093648
0.872388 0.784404 0.093869
0.936967 0.814887 0.094042
0.946633 0.819284 0.094183
-0.039777 0.790073 0.074157
0.018531 0.790055 0.075462
0.068641 0.790092 0.079023
0.114263 0.790288 0.091821
0.159949 0.790424 0.092136
0.225003 0.790742 0.092483
0.310864 0.790684 0.092871
0.414854 0.790835 0.093334
0.525149 0.791068 0.093744
0.620136 0.791378 0.094126
0.695360 0.791528 0.094443
0.752465 0.791478 0.094727
0.800572 0.795768 0.094947
0.872678 0.831535 0.095099
0.936948 0.863621 0.095270
0.946633 0.868417 0.095437
-0.039475 0.862747 0.078055
0.021807 0.862795 0.078986
0.072149 0.862848 0.083152
0.117534 0.863159 0.093081
0.166455 0.863180 0.093360
0.235141 0.863305 0.093686
0.325320 0.863565 0.094108
0.434320 0.863748 0.094517
0.549303 0.863738 0.094894
0.648403 0.863977 0.095256
0.726925 0.863775 0.095563
0.786358 0.863727 0.095802
0.832024 0.863786 0.095985
0.872840 0.868605 0.096146
0.937033 0.901996 0.096299
0.946633 0.906941 0.096470
-0.039183 0.928726 0.081805
0.024156 0.928743 0.082342
0.076783 0.928765 0.088231
0.120600 0.928799 0.094157
0.172512 0.928871 0.094450
0.244542 0.928936 0.094774
0.338686 0.929126 0.095164
0.452052 0.929173 0.095519
0.571598 0.929182 0.095883
0.674330 0.929171 0.096220
0.755861 0.929195 0.096486
0.817769 0.929291 0.096719
0.865195 0.929369 0.096922
0.902663 0.929434 0.097081
0.937161 0.933433 0.097232
0.946633 0.938472 0.097354
-0.038900 0.983485 0.084960
0.026161 0.983485 0.085178
0.079167 0.983488 0.091248
0.123106 0.983488 0.095160
0.177332 0.983489 0.095440
0.251916 0.983491 0.095735
0.348979 0.983491 0.096082
0.465808 0.983493 0.096457
0.588669 0.983493 0.096805
0.694414 0.983493 0.097104
0.777963 0.983495 0.097366
0.841555 0.983496 0.097571
0.890460 0.983496 0.097750
0.928891 0.983498 0.097890
0.960192 0.983498 0.098019
0.964708 0.983498 0.098147
-0.041689 -0.041716 0.107770
-0.031749 -0.041713 0.107851
0.053567 -0.041710 0.107950
0.101722 -0.041706 0.108050
0.140718 -0.041697 0.098295
0.192905 -0.041685 0.093667
0.273245 -0.041669 0.092166
0.377431 -0.041653 0.091053
0.484471 -0.041630 0.089323
0.570276 -0.041605 0.088306
0.645303 -0.041576 0.089227
0.719400 -0.041551 0.091911
0.795510 -0.041526 0.095699
0.869634 -0.041503 0.099855
0.935811 -0.041483 0.103662
0.946633 -0.041456 0.104422
-0.041676 -0.032440 0.108401
-0.032401 -0.033296 0.108475
0.053823 -0.033205 0.108549
0.102005 -0.033045 0.108662
0.141067 -0.032834 0.098913
0.193359 -0.032557 0.094311
0.273846 -0.032230 0.093068
0.377950 -0.031896 0.092222
0.484907 -0.031537 0.090771
0.570592 -0.031207 0.089866
0.645526 -0.030867 0.090734
0.719467 -0.030528 0.093339
0.795873 -0.030269 0.097007
0.869371 -0.030043 0.101051
0.935953 -0.029800 0.104777
0.946633 -0.029573 0.105543
-0.041659 0.052312 0.109080
-0.032203 0.052040 0.109166
0.051940 0.049529 0.109263
0.102155 0.049806 0.109368
0.141508 0.050207 0.099173
0.193897 0.050668 0.094915
0.274493 0.051245 0.094527
0.378593 0.051871 0.094876
0.485407 0.052568 0.094502
0.571027 0.053255 0.093955
0.645894 0.053898 0.094673
0.720012 0.054411 0.096753
0.796195 0.054869 0.099855
0.869826 0.055259 0.103261
0.936134 0.055650 0.106434
0.946633 0.056011 0.107099
-0.041630 0.099744 0.109898
-0.031765 0.099837 0.109976
0.052542 0.099758 0.110071
0.105121 0.103426 0.110195
0.142014 0.103663 0.109337
0.194547 0.103973 0.109232
0.275252 0.104343 0.109798
0.379428 0.104746 0.110442
0.486037 0.105181 0.110803
0.571412 0.105613 0.110950
0.646295 0.105989 0.111304
0.720051 0.106325 0.111879
0.796685 0.106626 0.112679
0.870011 0.106893 0.113527
0.936194 0.107106 0.114303
0.946633 0.107335 0.114524
-0.041580 0.139815 0.101772
-0.031170 0.139954 0.101755
0.053717 0.140125 0.101337
0.105908 0.140305 0.110501
0.142711 0.140394 0.111409
0.195363 0.139585 0.111600
0.276273 0.141616 0.111858
0.380542 0.143745 0.112133
0.486824 0.144327 0.112415
0.571947 0.144035 0.112707
0.646717 0.144721 0.112960
0.720717 0.146920 0.113183
0.796956 0.150298 0.113391
0.870369 0.154053 0.113556
0.935738 0.157532 0.113713
0.946633 0.158348 0.113866
-0.041503 0.191685 0.097902
-0.030302 0.191849 0.097984
0.055233 0.192058 0.097915
0.106857 0.192305 0.111497
0.142546 0.192597 0.112671
0.196457 0.193035 0.112903
0.277578 0.197492 0.113157
0.381817 0.201941 0.113452
0.487768 0.202697 0.113762
0.572671 0.201389 0.114056
0.647336 0.202581 0.114325
0.721195 0.207207 0.114536
0.797522 0.214508 0.114720
0.870349 0.222486 0.114905
0.936161 0.229947 0.115072
0.946633 0.231352 0.115198
-0.041386 0.271497 0.097973
-0.028341 0.271758 0.098270
0.057118 0.271952 0.099070
0.108030 0.272313 0.113285
