test-luts/DreamyDays.cube
LUT_3D_SIZE 6
-0.041696 -0.041720 -0.040766
0.103592 -0.041708 -0.040626
0.272925 -0.041681 -0.040696
0.570126 -0.041618 -0.040756
0.795524 -0.041546 -0.040461
0.946633 -0.041488 -0.040171
-0.041641 0.102781 -0.040163
0.104918 0.102385 -0.040188
0.274879 0.087482 -0.040011
0.571211 0.083871 -0.039737
0.796447 0.091368 -0.039492
0.946633 0.099852 -0.039305
-0.041425 0.271253 -0.039244
0.091324 0.271959 -0.038881
0.278723 0.273619 -0.038549
0.573277 0.275004 -0.038075
0.797754 0.297238 -0.037671
0.946633 0.325547 -0.037389
-0.040766 0.567648 -0.037770
0.091783 0.568155 -0.036197
0.283827 0.568836 -0.035607
0.575998 0.569456 -0.034807
0.799232 0.613992 -0.034181
0.946633 0.670779 -0.033737
-0.039859 0.789815 -0.034740
0.102368 0.790157 -0.033135
0.308056 0.790471 -0.032288
0.619423 0.791285 -0.031208
0.800590 0.795831 -0.030376
0.946633 0.868243 -0.029838
-0.039003 0.983485 -0.030973
0.116346 0.983488 -0.030309
0.347340 0.983491 -0.029247
0.693923 0.983493 -0.027943
0.890336 0.983496 -0.027013
0.964777 0.983498 -0.026358
-0.041689 -0.041716 0.107770
0.101722 -0.041706 0.108050
0.273245 -0.041669 0.092166
0.570276 -0.041605 0.088306
0.795510 -0.041526 0.095699
0.946633 -0.041456 0.104422
-0.041630 0.099744 0.109898
0.105121 0.103426 0.110195
0.275252 0.104343 0.109798
0.571412 0.105613 0.110950
0.796685 0.106626 0.112679
0.946633 0.107335 0.114524
-0.041386 0.271497 0.097973
0.108030 0.272313 0.113285
0.279173 0.274096 0.114675
0.573483 0.279490 0.115598
0.798031 0.300240 0.116306
0.946633 0.326573 0.116767
-0.040672 0.567931 0.099849
0.112109 0.568333 0.118618
0.288226 0.569067 0.119579
0.576182 0.569679 0.120510
0.799604 0.614778 0.121164
0.946633 0.670971 0.121594
-0.039719 0.790031 0.111911
0.115242 0.790350 0.123743
0.310882 0.790776 0.123186
0.620104 0.791465 0.124044
0.800710 0.795885 0.124625
0.946633 0.868341 0.124991
-0.038825 0.983485 0.128067
0.117336 0.983488 0.129091
0.346886 0.983493 0.125587
0.693852 0.983493 0.126345
0.890373 0.983496 0.126872
0.964757 0.983498 0.127162
-0.041677 -0.041710 0.267440
0.087627 -0.041692 0.267729
0.273868 -0.041656 0.268701
0.570606 -0.041573 0.269528
0.795871 -0.041489 0.290384
0.946633 -0.041417 0.318118
-0.041599 0.086586 0.270808
0.105275 0.103747 0.271268
0.275949 0.104707 0.272378
0.571860 0.105997 0.277267
0.796736 0.107037 0.297503
0.946633 0.107760 0.323883
-0.041314 0.272260 0.276915
0.108632 0.273172 0.277419
0.279989 0.274179 0.278368
0.573899 0.275962 0.279398
0.798250 0.277301 0.280972
0.946633 0.278264 0.282413
-0.040507 0.568144 0.284356
0.112751 0.568609 0.288860
0.285521 0.569331 0.286371
0.576573 0.569880 0.287619
0.799700 0.610466 0.288478
0.946633 0.660600 0.289080
-0.039475 0.790183 0.310495
0.115875 0.790514 0.313733
0.289588 0.790866 0.292699
0.616519 0.791594 0.293528
0.800658 0.795863 0.294291
0.946633 0.865818 0.294779
-0.038523 0.983488 0.351701
0.117924 0.983491 0.352444
0.292239 0.983493 0.298356
0.682117 0.983496 0.297400
0.887294 0.983498 0.298068
0.964071 0.983498 0.298416
-0.041665 -0.041697 0.552161
0.083048 -0.041676 0.552384
0.275159 -0.041630 0.552730
0.571057 -0.041536 0.552018
0.796255 -0.041438 0.593696
0.946633 -0.041351 0.649657
-0.041553 0.081781 0.555084
0.105962 0.104182 0.555280
0.281057 0.105167 0.555711
0.572270 0.106532 0.555449
0.797081 0.107552 0.598095
0.946633 0.108267 0.653790
-0.041209 0.273000 0.559880
0.109359 0.277856 0.560146
0.280725 0.274773 0.560604
0.574475 0.276608 0.560510
0.798372 0.277948 0.599724
0.946633 0.278898 0.649411
-0.040288 0.568465 0.565807
0.113537 0.568893 0.566090
0.286578 0.569628 0.566581
0.577129 0.570537 0.567337
0.799783 0.572719 0.567725
0.946633 0.574728 0.568029
-0.039139 0.790462 0.610779
0.116632 0.790519 0.611613
0.290597 0.791174 0.608112
0.582110 0.791585 0.571710
0.800928 0.795345 0.572113
0.946633 0.847195 0.572305
-0.038128 0.983488 0.686901
0.118626 0.983491 0.687232
0.293109 0.983493 0.675259
0.585331 0.983496 0.574620
0.864016 0.983498 0.574982
0.959769 0.983501 0.575050
-0.041641 -0.041687 0.755834
0.087861 -0.041664 0.755754
0.288922 -0.041608 0.756266
0.600145 -0.041501 0.756696
0.796549 -0.041396 0.774389
0.946633 -0.041296 0.847035
-0.041513 0.086544 0.759355
0.106701 0.104492 0.759698
0.295134 0.105532 0.760143
0.603249 0.106886 0.760328
0.797521 0.107953 0.777288
0.946633 0.108680 0.849621
-0.041114 0.288287 0.765940
0.109908 0.292455 0.766213
0.282410 0.275272 0.766454
0.604900 0.277102 0.767045
0.798723 0.278463 0.781135
0.946633 0.279345 0.850804
-0.040103 0.603073 0.773964
0.114122 0.604072 0.774080
0.287359 0.601414 0.774558
0.580202 0.570749 0.774781
0.800115 0.571348 0.784006
0.946633 0.571754 0.834191
-0.038887 0.790849 0.784960
0.117217 0.790923 0.785152
0.291311 0.791397 0.785239
0.579209 0.791615 0.784539
0.801235 0.792201 0.780927
0.946633 0.795022 0.781199
-0.037825 0.983491 0.880273
0.119146 0.983493 0.880333
0.293728 0.983493 0.876839
0.580203 0.983498 0.849606
0.805518 0.983500 0.785009
0.949344 0.983501 0.785097
-0.041620 -0.041681 0.946628
0.097510 -0.041653 0.946669
0.323645 -0.041588 0.946672
0.671835 -0.041477 0.946892
0.871208 -0.041360 0.946947
0.946862 -0.041263 0.946950
-0.041483 0.095861 0.950063
0.107767 0.104720 0.950064
0.328257 0.105780 0.950131
0.674838 0.107169 0.950143
0.873261 0.108227 0.950212
0.948533 0.108948 0.950202
-0.041050 0.322568 0.955685
0.110321 0.324665 0.955701
0.285297 0.275623 0.955791
0.669566 0.277446 0.955937
0.874472 0.278805 0.955945
0.951383 0.279732 0.955946
-0.039971 0.673977 0.962632
0.114524 0.674745 0.962660
0.287867 0.664191 0.962662
0.584114 0.570917 0.962805
0.858230 0.571436 0.962808
0.952919 0.571897 0.962866
-0.038692 0.877577 0.967998
0.117566 0.877652 0.967999
0.291811 0.875021 0.968002
0.579414 0.851620 0.968003
0.803451 0.792192 0.968004
0.948493 0.792446 0.968006
-0.037616 0.983491 0.977201
0.119473 0.983493 0.977202
0.294161 0.983494 0.977008
0.580418 0.983498 0.975427
0.801844 0.983501 0.971850
0.946633 0.983501 0.971153
