test-luts/IcyBlue.cube
LUT_3D_SIZE 16
0.072644 0.066305 0.067069
0.073253 0.066309 0.067199
0.075152 0.066766 0.067345
0.080264 0.067984 0.067527
0.094035 0.070399 0.067805
0.121884 0.074580 0.067690
0.153046 0.081091 0.067037
0.206507 0.088815 0.067037
0.272768 0.105055 0.067037
0.343883 0.114426 0.068590
0.413446 0.118027 0.067037
0.461978 0.124863 0.067037
0.492538 0.129215 0.067037
0.515531 0.132855 0.067273
0.533080 0.136048 0.067176
0.543302 0.138029 0.067037
0.073135 0.068283 0.068463
0.073879 0.068390 0.067935
0.076193 0.068874 0.068084
0.082394 0.070581 0.068470
0.099030 0.074066 0.068848
0.126909 0.079764 0.068521
0.162856 0.088365 0.067037
0.223816 0.097905 0.067037
0.297165 0.113225 0.068202
0.384174 0.122426 0.067037
0.447360 0.132900 0.068357
0.489458 0.140209 0.070858
0.528259 0.137439 0.067037
0.548701 0.141087 0.067037
0.563341 0.144216 0.067037
0.569901 0.157481 0.071307
0.073603 0.073935 0.069645
0.074523 0.074235 0.069604
0.077416 0.075147 0.069753
0.085194 0.077678 0.070191
0.108908 0.082724 0.070614
0.133212 0.092116 0.069899
0.176488 0.102720 0.067037
0.247372 0.109113 0.067037
0.329931 0.125456 0.067104
0.420065 0.138610 0.067037
0.484261 0.151603 0.069906
0.533363 0.153369 0.067037
0.562002 0.159380 0.067037
0.580932 0.163611 0.067037
0.594983 0.167283 0.067037
0.600632 0.179908 0.072648
0.073117 0.086418 0.073277
0.073514 0.087331 0.072757
0.077110 0.088907 0.072885
0.087794 0.093269 0.073242
0.114381 0.100266 0.073520
0.139278 0.108475 0.071954
0.191234 0.114879 0.067037
0.273050 0.127737 0.067037
0.367240 0.145905 0.067037
0.454700 0.164552 0.067691
0.525136 0.175701 0.067037
0.566350 0.185580 0.069968
0.591258 0.191904 0.072260
0.610055 0.197456 0.072211
0.625962 0.203105 0.069831
0.637952 0.208103 0.067037
0.073545 0.110466 0.080915
0.073752 0.111006 0.080325
0.072644 0.114451 0.076881
0.086459 0.118201 0.077407
0.113779 0.123623 0.077092
0.144391 0.126562 0.073454
0.205512 0.136112 0.067037
0.304883 0.156696 0.067037
0.403297 0.181474 0.067037
0.493999 0.202485 0.068226
0.559763 0.216409 0.070762
0.603639 0.222174 0.067424
0.626127 0.228354 0.071995
0.644601 0.235106 0.070923
0.662102 0.242979 0.067037
0.669589 0.255134 0.073457
0.073437 0.127504 0.093178
0.073475 0.128060 0.092436
0.073492 0.130698 0.090463
0.072815 0.137716 0.080889
0.109723 0.144457 0.078514
0.149729 0.153961 0.071063
0.221727 0.171312 0.067037
0.331728 0.203514 0.067037
0.443046 0.237275 0.069858
0.538072 0.258970 0.067814
0.602169 0.271102 0.068732
0.642770 0.278480 0.070665
0.670107 0.281798 0.067037
0.686300 0.288533 0.067037
0.696083 0.300959 0.070234
0.706466 0.314552 0.074666
0.072644 0.148980 0.106373
0.073784 0.149979 0.106428
0.072644 0.154572 0.104876
0.072644 0.163989 0.100075
0.099959 0.181201 0.073494
0.155712 0.199231 0.067037
0.239352 0.225108 0.067037
0.364509 0.272204 0.067037
0.486429 0.312213 0.070346
0.581525 0.335132 0.069712
0.644413 0.347515 0.072811
0.686713 0.354669 0.068060
0.712158 0.359785 0.067037
0.726349 0.366840 0.067037
0.736023 0.379138 0.070354
0.747656 0.394507 0.069346
0.072712 0.184190 0.118195
0.072644 0.187105 0.117635
0.073892 0.194881 0.117704
0.075512 0.211284 0.114711
0.072644 0.246715 0.071582
0.164601 0.280454 0.067037
0.271902 0.314804 0.067037
0.395158 0.360450 0.067037
0.528753 0.407933 0.067037
0.624848 0.432650 0.069269
0.690529 0.444457 0.067037
0.728961 0.450764 0.070520
0.752295 0.456605 0.071909
0.766557 0.464883 0.073296
0.779696 0.476541 0.067037
0.787169 0.493049 0.076171
0.075902 0.239600 0.136571
0.072644 0.245401 0.136133
0.074171 0.259422 0.137170
0.072644 0.286819 0.133022
0.072915 0.329205 0.111944
0.172575 0.386785 0.067037
0.311977 0.430363 0.067037
0.440757 0.472235 0.067037
0.567676 0.515582 0.068369
0.667307 0.542915 0.067037
0.731888 0.554252 0.067037
0.770411 0.557992 0.067037
0.792822 0.563434 0.073847
0.809028 0.571467 0.067037
0.818369 0.582853 0.070565
0.826556 0.596452 0.072320
0.078051 0.302781 0.158045
0.072644 0.313807 0.158452
0.072644 0.332766 0.159968
0.073937 0.365820 0.157357
0.072644 0.421075 0.128749
0.179675 0.485241 0.067037
0.341061 0.534382 0.067037
0.483069 0.581777 0.067037
0.604529 0.617521 0.067037
0.701571 0.643658 0.067037
0.767103 0.655840 0.067037
0.807058 0.661106 0.067037
0.830492 0.664919 0.067037
0.843283 0.670448 0.071054
0.852463 0.678756 0.068943
0.860649 0.689590 0.067037
0.072644 0.356049 0.175528
0.072644 0.370761 0.175734
0.072644 0.392275 0.176580
0.072644 0.430569 0.171211
0.073548 0.489674 0.142534
0.192713 0.555878 0.067037
0.361583 0.608428 0.067037
0.508996 0.658119 0.069922
0.634229 0.696439 0.067037
0.728661 0.720356 0.067079
0.794320 0.733383 0.067098
0.834611 0.738970 0.072212
0.857289 0.742007 0.072685
0.869988 0.745673 0.071653
0.877819 0.751049 0.076266
0.883638 0.757822 0.076492
0.077208 0.390569 0.189248
0.072644 0.407487 0.189630
0.072644 0.431885 0.190518
0.072644 0.471982 0.183877
0.087108 0.532436 0.150182
0.210755 0.599567 0.067037
0.379291 0.653307 0.071514
0.525586 0.704174 0.067037
0.651681 0.743391 0.067037
0.748836 0.770143 0.067037
0.813267 0.782873 0.077388
0.851988 0.787882 0.085958
0.874164 0.790731 0.086404
0.886548 0.793904 0.095802
0.894444 0.797344 0.091508
0.898671 0.800171 0.093679
0.072644 0.413793 0.193417
0.076538 0.433495 0.199321
0.083556 0.461904 0.200504
0.072644 0.505832 0.183335
0.072644 0.564461 0.135822
0.229765 0.624305 0.071964
0.392607 0.678342 0.072835
0.537315 0.728381 0.072133
0.662439 0.768513 0.067037
0.760364 0.796646 0.070532
0.824830 0.809973 0.081624
0.863756 0.815632 0.089863
0.885512 0.818386 0.098831
0.898064 0.820936 0.099855
0.905248 0.823385 0.107315
0.909622 0.824639 0.098912
0.072644 0.426060 0.198356
0.072644 0.454048 0.200503
0.072644 0.486785 0.200898
0.073960 0.528424 0.187520
0.095589 0.584760 0.133198
0.247304 0.642166 0.067037
0.406530 0.694659 0.068197
0.549182 0.743541 0.071613
0.671705 0.782382 0.067037
0.767866 0.809854 0.073158
0.831809 0.823424 0.084970
0.871678 0.829940 0.094799
0.894337 0.832697 0.099946
0.906485 0.834830 0.110593
0.913579 0.836469 0.108265
0.917654 0.837530 0.110562
0.082953 0.453760 0.215774
0.077137 0.491846 0.213054
0.080173 0.532306 0.203101
0.072644 0.578009 0.165388
0.080982 0.631612 0.067037
0.297376 0.670858 0.072101
0.439960 0.718870 0.067037
0.572911 0.762555 0.067037
0.688357 0.796984 0.067037
0.780304 0.822060 0.075257
0.842196 0.834312 0.087790
0.881741 0.840244 0.098051
0.904911 0.842943 0.106688
0.917111 0.844337 0.113390
0.924367 0.845569 0.111836
0.928516 0.846621 0.113546
0.081582 0.507170 0.239491
0.079430 0.557454 0.226405
0.072645 0.605845 0.193986
0.072644 0.655873 0.067056
0.197857 0.686921 0.067037
0.359535 0.720068 0.067037
0.492374 0.755557 0.067037
0.609515 0.787743 0.070375
0.713725 0.816274 0.068416
0.799129 0.837542 0.077912
0.858090 0.847314 0.092327
0.896341 0.852054 0.106075
0.918729 0.853783 0.112065
0.931655 0.855033 0.113012
0.938759 0.856349 0.115740
0.942779 0.857125 0.117247
0.072746 0.066305 0.067768
0.073367 0.066661 0.067924
0.075451 0.067120 0.068116
0.080868 0.068269 0.068420
0.095946 0.071029 0.068910
0.124464 0.075499 0.069130
0.157723 0.081831 0.067037
0.212892 0.088868 0.067037
0.289240 0.096280 0.067037
0.360531 0.110375 0.067037
0.426727 0.118830 0.067037
0.475547 0.125382 0.068333
0.505661 0.129992 0.069296
0.527129 0.133311 0.070235
0.544693 0.135990 0.071128
0.557951 0.138529 0.071007
0.073381 0.068630 0.068759
0.074041 0.068810 0.068943
0.076367 0.069438 0.069168
0.083063 0.071248 0.069593
0.101272 0.075160 0.070183
0.129240 0.081409 0.069846
0.168334 0.088970 0.067037
0.231721 0.098099 0.067037
0.313957 0.108291 0.067037
0.393206 0.122758 0.068445
0.466487 0.126391 0.067037
0.510647 0.133373 0.067037
0.540477 0.138345 0.067037
0.560055 0.141838 0.067037
0.574998 0.144838 0.067037
0.590567 0.148274 0.067037
0.073601 0.074708 0.071000
0.074679 0.075007 0.070860
0.077535 0.075962 0.071042
0.085717 0.078706 0.071656
0.110698 0.083979 0.072208
0.135350 0.094053 0.071484
0.181759 0.103418 0.067037
0.256958 0.109741 0.067037
0.340630 0.126880 0.069031
0.431532 0.139984 0.068316
0.504605 0.146836 0.067037
0.546528 0.155084 0.067037
0.572262 0.160049 0.067642
0.591262 0.164297 0.067786
0.607223 0.168632 0.067037
0.620882 0.172565 0.067037
0.072738 0.087867 0.075132
0.073467 0.088691 0.074218
0.077323 0.090606 0.074487
0.088103 0.095036 0.075263
0.115233 0.101500 0.075473
0.141614 0.109454 0.074024
0.196574 0.116082 0.067037
0.287967 0.127790 0.067037
0.382414 0.148839 0.067037
0.469710 0.167801 0.070303
0.539752 0.178691 0.068229
0.588197 0.181732 0.067037
0.611068 0.186885 0.067037
0.629683 0.191969 0.067037
0.647082 0.197771 0.067037
0.652075 0.210435 0.070321
0.073385 0.111964 0.082900
0.073839 0.112540 0.082302
0.072644 0.116050 0.079146
0.086746 0.119615 0.080004
0.114460 0.124622 0.079413
0.147208 0.127760 0.075879
0.212227 0.138198 0.067037
0.315705 0.159886 0.067037
0.420578 0.186384 0.067037
0.510040 0.207184 0.071416
0.581276 0.216227 0.067037
0.619529 0.226588 0.070607
0.649888 0.227510 0.067037
0.660042 0.239278 0.074416
0.676279 0.246515 0.069398
0.691229 0.254038 0.067037
0.073206 0.128947 0.095955
0.073048 0.129665 0.095504
0.072860 0.132313 0.093647
0.072644 0.139643 0.083863
0.110643 0.146984 0.080890
0.152982 0.156741 0.073963
0.230751 0.176202 0.067037
0.348287 0.209620 0.067037
0.464411 0.241538 0.067037
0.553478 0.264746 0.071486
0.618311 0.276801 0.072759
0.663831 0.280131 0.067037
0.685826 0.286972 0.067037
0.701772 0.293687 0.067037
0.710860 0.305927 0.074708
0.726704 0.315889 0.067038
0.072644 0.150792 0.108171
0.072644 0.152592 0.107880
0.072644 0.157206 0.107084
0.072644 0.167184 0.103765
0.101700 0.186229 0.076738
0.161415 0.206067 0.067037
0.250508 0.234313 0.067037
0.380111 0.282164 0.067037
0.503740 0.320170 0.067037
0.598761 0.344394 0.071173
0.662331 0.356683 0.074103
0.701913 0.361212 0.072122
0.727685 0.366547 0.067037
0.742665 0.374063 0.067037
0.751798 0.386338 0.073932
0.764045 0.402361 0.072259
0.072644 0.188583 0.120221
0.073987 0.192177 0.121003
0.072644 0.201494 0.120313
0.072644 0.218045 0.117059
0.072644 0.255170 0.072957
0.170356 0.291095 0.067037
0.283298 0.327087 0.067037
0.411526 0.373313 0.067037
0.544184 0.417933 0.067037
0.642289 0.444080 0.070648
0.709369 0.457029 0.067037
0.746731 0.461936 0.069889
0.770343 0.467347 0.072486
0.786059 0.472572 0.067037
0.794546 0.484062 0.067037
0.804543 0.503762 0.076708
0.072644 0.248826 0.140703
0.072644 0.256943 0.140819
0.072644 0.270415 0.141578
0.077394 0.293887 0.139419
0.072644 0.339481 0.114271
0.171675 0.398680 0.067037
0.320304 0.445312 0.067037
0.454015 0.485941 0.067037
0.581869 0.527135 0.067037
0.682932 0.554505 0.067037
0.750066 0.568230 0.067037
0.789688 0.573379 0.067037
0.811523 0.577565 0.071611
0.824011 0.580934 0.067037
0.831180 0.589819 0.076779
0.842477 0.607589 0.073538
0.072644 0.315803 0.164299
0.072644 0.327067 0.164455
0.072644 0.344706 0.165180
0.072644 0.376787 0.161758
0.072644 0.433860 0.132328
0.180415 0.500616 0.067037
0.351249 0.550250 0.067037
0.496631 0.598186 0.067037
0.620523 0.633069 0.067037
0.719414 0.658365 0.067037
0.784567 0.669418 0.067037
0.823884 0.673814 0.068517
0.848265 0.679138 0.067037
0.860264 0.684041 0.071101
0.867950 0.690262 0.070611
0.876000 0.701055 0.067037
0.072644 0.369119 0.181905
0.073066 0.381413 0.185845
0.075739 0.402936 0.187007
0.078773 0.439970 0.182678
0.072644 0.502414 0.146767
0.192658 0.571684 0.067037
0.374546 0.623643 0.072819
0.524017 0.674147 0.068059
0.650716 0.711724 0.067786
0.746547 0.734498 0.067037
0.810994 0.745534 0.072225
0.850571 0.750056 0.069012
0.873467 0.754028 0.081049
0.886399 0.758227 0.079949
0.893477 0.762944 0.084090
0.898966 0.769024 0.084690
0.072644 0.402361 0.195610
0.082513 0.418069 0.200364
0.072644 0.446987 0.197432
0.072644 0.486276 0.189856
0.072644 0.543709 0.155575
0.205726 0.612694 0.067037
0.388773 0.667350 0.070218
0.539767 0.717824 0.067037
0.666128 0.755509 0.067037
0.763958 0.780841 0.069862
0.829518 0.793577 0.079591
0.868739 0.798766 0.086554
0.889918 0.800514 0.095081
0.901910 0.802255 0.095354
0.908941 0.805601 0.099765
0.913691 0.809678 0.101782
0.072644 0.423698 0.205052
0.072644 0.445684 0.206501
0.072644 0.475545 0.207991
0.072644 0.516178 0.199066
0.083175 0.572078 0.160201
0.214423 0.639396 0.067037
0.395908 0.691968 0.067037
0.547676 0.740848 0.071174
0.676920 0.780349 0.069748
0.775172 0.806683 0.073955
0.839938 0.818899 0.086764
0.880086 0.824617 0.097479
0.902133 0.826670 0.100418
0.913866 0.828527 0.100380
0.920172 0.830740 0.107652
0.923673 0.832196 0.109925
0.077280 0.434005 0.215677
0.081782 0.460698 0.218959
0.072644 0.495387 0.215560
0.078805 0.537324 0.204981
0.072644 0.599750 0.142868
0.236376 0.657969 0.067037
0.410472 0.708233 0.072631
0.559545 0.756755 0.071162
0.685767 0.795031 0.067037
0.783190 0.821085 0.074901
0.847174 0.832517 0.088239
0.887303 0.838263 0.098099
0.909541 0.840841 0.110631
0.921949 0.843002 0.111320
0.928073 0.844572 0.113907
0.931784 0.845173 0.110109
0.072644 0.466508 0.239767
0.072644 0.504262 0.239860
0.072644 0.542411 0.234122
0.072644 0.586908 0.208618
0.072644 0.645923 0.127816
0.247212 0.701002 0.067037
0.434257 0.742268 0.067037
0.582178 0.780474 0.067037
0.700945 0.813068 0.067037
0.795481 0.836159 0.077726
0.858616 0.846022 0.091485
0.898180 0.850821 0.107826
0.920650 0.852658 0.113056
0.932793 0.854211 0.113689
0.939366 0.855452 0.116182
0.943885 0.856564 0.113223
0.072644 0.522216 0.282846
0.080281 0.570767 0.278732
0.081887 0.616716 0.263469
0.081198 0.658422 0.229250
0.072644 0.715519 0.067044
0.306125 0.752007 0.067037
0.471750 0.787432 0.067037
0.611174 0.818490 0.067037
0.727735 0.843315 0.067037
0.817644 0.858970 0.067038
0.876869 0.863997 0.067040
0.916804 0.867222 0.067042
0.936577 0.867254 0.111459
0.947256 0.867012 0.116873
0.954092 0.867970 0.119268
0.955782 0.868359 0.136715
0.072648 0.066561 0.070837
0.073359 0.066986 0.071080
0.075654 0.067677 0.071341
0.081580 0.068936 0.071865
0.097599 0.071540 0.072828
0.125878 0.076358 0.073332
0.160839 0.081898 0.071725
0.226018 0.079900 0.067037
0.312046 0.080185 0.067037
0.390503 0.093770 0.067037
0.452032 0.108659 0.067037
0.500257 0.113145 0.067769
0.531095 0.116751 0.068131
0.552761 0.119368 0.068439
0.569943 0.120939 0.069572
0.583952 0.121924 0.071032
0.073290 0.069342 0.072701
0.074115 0.069519 0.072790
0.076726 0.070438 0.073115
0.084168 0.072389 0.073829
0.105877 0.076000 0.074775
0.130662 0.082650 0.075062
0.172751 0.090039 0.072434
0.250470 0.089046 0.067037
0.342793 0.095448 0.067037
0.420505 0.113969 0.067267
0.495116 0.112446 0.067037
0.538057 0.120256 0.067037
0.567361 0.123926 0.067037
0.586718 0.126594 0.067037
0.601898 0.128689 0.067037
0.616602 0.130768 0.067037
0.073274 0.076071 0.075698
0.074465 0.076327 0.075864
0.077764 0.077504 0.076040
0.086677 0.080393 0.076663
0.112095 0.085631 0.077841
0.137095 0.095989 0.077999
0.186453 0.104044 0.073829
0.276397 0.105549 0.067037
0.380519 0.110450 0.067037
0.459594 0.131591 0.067037
0.531001 0.136288 0.067037
0.572710 0.144292 0.067037
0.598561 0.148545 0.067037
0.617524 0.152260 0.067037
0.633473 0.155831 0.067037
0.646897 0.158873 0.067037
0.072644 0.089883 0.080733
0.072644 0.090822 0.080359
0.076929 0.093043 0.080722
0.088315 0.097816 0.081672
0.116240 0.104682 0.082743
0.144165 0.110918 0.081971
0.201835 0.117377 0.075316
0.305540 0.125770 0.067037
0.420014 0.136405 0.067037
0.512127 0.150928 0.067037
0.566663 0.173108 0.068475
0.606210 0.181653 0.072923
0.637583 0.177762 0.067037
0.655840 0.182250 0.067037
0.664144 0.196919 0.074301
0.677111 0.201538 0.071460
0.073438 0.113930 0.089513
0.073548 0.114375 0.088635
0.072644 0.117786 0.086910
0.085882 0.121690 0.088443
0.115293 0.126577 0.088669
0.150438 0.129910 0.085230
0.218822 0.141104 0.075586
0.336443 0.160769 0.067037
0.459367 0.180657 0.067037
0.554408 0.197329 0.067037
0.615121 0.210708 0.067037
0.646689 0.222996 0.070684
0.669260 0.229005 0.074531
0.686249 0.234662 0.074336
0.701639 0.240990 0.070068
0.716065 0.247809 0.067037
0.072644 0.131119 0.103663
0.072751 0.131638 0.103262
0.073027 0.134412 0.102816
0.072644 0.142113 0.095327
0.111087 0.149584 0.092057
0.156047 0.160180 0.085646
0.237660 0.181096 0.071418
0.368396 0.214826 0.067037
0.497679 0.245019 0.067037
0.594521 0.261955 0.067037
0.654067 0.271812 0.067037
0.681835 0.282930 0.074601
0.710029 0.285307 0.067037
0.727296 0.292400 0.067037
0.736754 0.305493 0.073793
0.752265 0.314545 0.067038
0.073301 0.154093 0.113676
0.072644 0.156320 0.113822
0.072968 0.160757 0.113360
0.072644 0.170749 0.110007
0.097098 0.191138 0.090966
0.163149 0.211455 0.079266
0.259016 0.241447 0.067037
0.402193 0.291538 0.067037
0.534348 0.326712 0.067037
0.629923 0.346866 0.067037
0.688649 0.357737 0.067037
0.723682 0.362940 0.072887
0.750751 0.368483 0.067037
0.767270 0.377167 0.067037
0.776895 0.390023 0.070201
0.787795 0.405320 0.070749
0.073026 0.194394 0.127870
0.072644 0.199659 0.128523
0.074974 0.207973 0.129280
0.072644 0.225453 0.125844
0.072644 0.263306 0.101695
0.168765 0.302635 0.067037
0.293455 0.340181 0.067037
0.434078 0.389074 0.067037
0.567271 0.429050 0.067037
0.662457 0.452045 0.068818
0.727774 0.464044 0.074959
0.768656 0.467592 0.068078
0.792718 0.473455 0.068215
0.806279 0.481158 0.069561
0.814614 0.492884 0.077497
0.825123 0.509040 0.073750
0.074034 0.258332 0.151277
0.072644 0.266361 0.151802
0.074168 0.280270 0.153499
0.072644 0.307290 0.150895
0.080222 0.351725 0.135053
0.158625 0.419958 0.067037
0.329543 0.466119 0.067037
0.472673 0.506379 0.067037
0.601796 0.543837 0.067037
0.702498 0.568000 0.067037
0.769772 0.580067 0.069970
0.809880 0.584499 0.072525
0.832997 0.587406 0.067037
0.843662 0.592229 0.070766
0.852801 0.601085 0.067037
0.860998 0.614702 0.067037
0.080143 0.327382 0.178320
0.072644 0.338471 0.179295
0.077270 0.355963 0.180873
0.072644 0.390650 0.175845
0.072644 0.447965 0.151698
0.151466 0.524463 0.067037
0.356875 0.573478 0.067037
0.511751 0.618262 0.067067
0.639211 0.651448 0.067037
0.739127 0.674378 0.067037
0.804830 0.684529 0.069089
0.844226 0.688442 0.072642
0.867014 0.691520 0.067037
0.879023 0.694653 0.067037
0.886150 0.700631 0.067037
0.892663 0.711357 0.072447
0.072644 0.382136 0.199542
0.072644 0.396121 0.200379
0.072644 0.417859 0.202161
0.072644 0.455149 0.199477
0.072644 0.516330 0.169683
0.144038 0.595812 0.067037
0.375099 0.644645 0.067037
0.535049 0.692481 0.070764
0.665992 0.728649 0.067840
0.764767 0.750125 0.067037
0.829920 0.760212 0.072644
0.868520 0.763601 0.078482
0.890336 0.766267 0.089717
0.902351 0.768630 0.089327
0.908885 0.772633 0.093309
0.914531 0.779779 0.093148
0.072644 0.416562 0.215964
0.072644 0.433235 0.217210
0.072644 0.459352 0.220087
0.072644 0.499454 0.216887
0.072644 0.559313 0.181894
0.138075 0.637679 0.067037
0.383693 0.687393 0.067037
0.547355 0.734875 0.067037
0.678746 0.771342 0.067037
0.779482 0.795076 0.073301
0.845706 0.806128 0.085817
0.884573 0.809875 0.094208
0.905389 0.810869 0.103762
0.916999 0.812797 0.105004
0.924395 0.815790 0.097512
0.928753 0.819219 0.099288
0.079360 0.435792 0.230787
0.072644 0.456745 0.234465
0.072644 0.488125 0.233769
0.072644 0.527803 0.228632
0.072644 0.586659 0.190373
0.125443 0.666063 0.067037
0.387900 0.714898 0.067037
0.555027 0.759673 0.067037
0.687715 0.796352 0.067037
0.789724 0.820947 0.076882
0.856512 0.831747 0.089856
0.895889 0.835879 0.107211
0.916867 0.836870 0.110442
0.928311 0.838203 0.110489
0.934818 0.840784 0.113380
0.938492 0.842261 0.114654
0.076238 0.448699 0.244366
0.079935 0.474769 0.250052
0.072644 0.508022 0.250302
0.072644 0.551121 0.238917
0.091155 0.606984 0.210939
0.120117 0.689182 0.067037
0.390789 0.736696 0.067037
0.561379 0.777443 0.067037
0.693051 0.810864 0.069941
0.795843 0.835915 0.077681
0.862652 0.846057 0.092997
0.902756 0.849946 0.107528
0.924395 0.851208 0.114906
0.936338 0.852753 0.115558
0.943409 0.854597 0.113462
0.946512 0.855742 0.114712
0.082214 0.481538 0.279999
0.072644 0.519326 0.282624
0.072644 0.556710 0.282950
0.072644 0.599376 0.270755
0.072644 0.656356 0.228573
0.156424 0.726440 0.067037
0.404046 0.770791 0.067037
0.575135 0.808691 0.067037
0.709972 0.837309 0.067037
0.812971 0.857086 0.067037
0.877739 0.862558 0.067037
0.916489 0.863995 0.073624
0.937267 0.864749 0.115085
0.949840 0.865657 0.113194
0.956089 0.866125 0.089043
0.956089 0.866670 0.133136
0.072645 0.539635 0.332904
0.072644 0.586991 0.334522
0.072644 0.631208 0.330932
0.072644 0.671821 0.315325
0.072644 0.727664 0.246444
0.236867 0.768255 0.161531
0.442586 0.805150 0.146354
0.599832 0.838335 0.125292
0.728342 0.864462 0.067037
0.831159 0.882688 0.067037
0.898261 0.884951 0.067037
0.941062 0.884241 0.067038
0.956089 0.883913 0.067044
0.956089 0.883469 0.117086
0.955927 0.879340 0.207685
0.956160 0.879907 0.227403
0.073811 0.066341 0.084129
0.074522 0.066544 0.084304
0.076668 0.067650 0.083276
0.082058 0.069667 0.082653
0.098947 0.072295 0.084540
0.127138 0.077206 0.086363
0.163266 0.081541 0.087004
0.232686 0.077325 0.081940
0.335743 0.066305 0.071180
0.431880 0.066305 0.067037
0.501455 0.066305 0.067037
0.547653 0.066305 0.067037
0.576066 0.066305 0.067037
0.596196 0.066305 0.067037
0.612050 0.066305 0.067037
0.624400 0.066305 0.067037
0.073287 0.069911 0.088244
0.074559 0.069896 0.087696
0.077909 0.070765 0.088327
0.084906 0.073666 0.086764
0.108188 0.077279 0.088282
0.131926 0.083889 0.089677
0.176275 0.089719 0.088946
0.260386 0.085627 0.083113
0.373449 0.066305 0.070645
0.475234 0.066305 0.067037
0.543927 0.066305 0.067037
0.586136 0.066305 0.067037
0.614110 0.066305 0.067037
0.633832 0.066305 0.067037
0.649309 0.066305 0.067037
0.663170 0.066305 0.067037
0.070728 0.078210 0.092410
0.071974 0.078313 0.092894
0.076324 0.079672 0.093694
0.088231 0.082604 0.095018
0.113387 0.088903 0.094096
0.138435 0.097654 0.095009
0.190680 0.104020 0.092700
0.287465 0.104467 0.085715
0.408673 0.090364 0.070454
0.515349 0.066305 0.067037
0.585403 0.066305 0.067037
0.627581 0.066305 0.067037
0.653798 0.066305 0.067037
0.672300 0.066305 0.067037
0.688247 0.066305 0.067037
0.702475 0.066305 0.067037
0.074579 0.092858 0.094976
0.074578 0.093777 0.095847
0.074884 0.097029 0.098266
0.087746 0.102032 0.100057
0.117022 0.109492 0.101774
0.145912 0.112486 0.101991
0.206683 0.118550 0.097964
0.315622 0.126856 0.088529
0.445523 0.126621 0.070243
0.553602 0.117226 0.067037
0.629129 0.097961 0.067037
0.669638 0.095292 0.067037
0.693747 0.098164 0.067037
0.711585 0.100689 0.067037
0.727212 0.101267 0.067037
0.740895 0.101696 0.067037
0.075160 0.116588 0.105974
0.074727 0.117336 0.106029
0.072644 0.120144 0.106519
0.082120 0.124235 0.106810
0.117691 0.128882 0.112032
0.152419 0.134732 0.111250
0.224116 0.145884 0.105350
0.347499 0.164098 0.090203
0.487424 0.175401 0.067586
0.595286 0.177426 0.067037
0.664201 0.176173 0.067037
0.697235 0.182865 0.067037
0.729572 0.171479 0.067037
0.747288 0.174796 0.067037
0.753063 0.195568 0.067037
0.767543 0.199490 0.067037
0.072789 0.133787 0.114060
0.072669 0.134730 0.114290
0.072694 0.137584 0.114525
0.072644 0.144778 0.112195
0.115083 0.152916 0.116151
0.157134 0.163965 0.114759
0.242723 0.187698 0.109092
0.383509 0.221752 0.089189
0.531414 0.244968 0.067037
0.635175 0.251783 0.067037
0.701573 0.251758 0.067037
0.741068 0.250959 0.067037
0.761641 0.256872 0.067037
0.779178 0.262713 0.067037
0.786396 0.278743 0.067037
0.801903 0.285671 0.067037
0.073433 0.158893 0.124640
0.073278 0.161144 0.125067
0.072644 0.165660 0.125013
0.072644 0.175509 0.123940
0.082750 0.197591 0.114458
0.162385 0.217266 0.116265
0.261685 0.247263 0.105554
0.421874 0.302580 0.077921
0.569867 0.332981 0.067037
0.672913 0.344258 0.067037
0.738598 0.348090 0.067037
0.772939 0.351716 0.067037
0.798121 0.353703 0.067037
0.815078 0.361728 0.067037
0.824921 0.376582 0.067037
0.833539 0.391824 0.067037
0.072644 0.203385 0.142646
0.072644 0.208114 0.143566
0.072644 0.216452 0.144244
0.072644 0.234111 0.143918
0.072644 0.270365 0.134050
0.163061 0.314494 0.113119
0.299015 0.354994 0.084162
0.458240 0.408044 0.067037
