test-luts/IcyBlue.cube
LUT_3D_SIZE 6
0.072644 0.066305 0.067069
0.080264 0.067984 0.067527
0.153046 0.081091 0.067037
0.343883 0.114426 0.068590
0.492538 0.129215 0.067037
0.543302 0.138029 0.067037
0.073117 0.086418 0.073277
0.087794 0.093269 0.073242
0.191234 0.114879 0.067037
0.454700 0.164552 0.067691
0.591258 0.191904 0.072260
0.637952 0.208103 0.067037
0.072644 0.148980 0.106373
0.072644 0.163989 0.100075
0.239352 0.225108 0.067037
0.581525 0.335132 0.069712
0.712158 0.359785 0.067037
0.747656 0.394507 0.069346
0.078051 0.302781 0.158045
0.073937 0.365820 0.157357
0.341061 0.534382 0.067037
0.701571 0.643658 0.067037
0.830492 0.664919 0.067037
0.860649 0.689590 0.067037
0.072644 0.413793 0.193417
0.072644 0.505832 0.183335
0.392607 0.678342 0.072835
0.760364 0.796646 0.070532
0.885512 0.818386 0.098831
0.909622 0.824639 0.098912
0.081582 0.507170 0.239491
0.072644 0.655873 0.067056
0.492374 0.755557 0.067037
0.799129 0.837542 0.077912
0.918729 0.853783 0.112065
0.942779 0.857125 0.117247
0.073811 0.066341 0.084129
0.082058 0.069667 0.082653
0.163266 0.081541 0.087004
0.431880 0.066305 0.067037
0.576066 0.066305 0.067037
0.624400 0.066305 0.067037
0.074579 0.092858 0.094976
0.087746 0.102032 0.100057
0.206683 0.118550 0.097964
0.553602 0.117226 0.067037
0.693747 0.098164 0.067037
0.740895 0.101696 0.067037
0.073433 0.158893 0.124640
0.072644 0.175509 0.123940
0.261685 0.247263 0.105554
0.672913 0.344258 0.067037
0.798121 0.353703 0.067037
0.833539 0.391824 0.067037
0.072644 0.343947 0.201607
0.077414 0.406183 0.210005
0.348453 0.605576 0.067037
0.762860 0.692022 0.067037
0.887889 0.701430 0.067037
0.913202 0.722090 0.068493
0.072644 0.453839 0.265906
0.072644 0.541680 0.275536
0.349189 0.746063 0.067037
0.808941 0.842630 0.067037
0.933493 0.849864 0.115052
0.956089 0.854141 0.080767
0.072644 0.559419 0.388668
0.073267 0.685134 0.396121
0.390659 0.818619 0.249976
0.821061 0.896418 0.199381
0.956089 0.899170 0.170353
0.954713 0.895818 0.364674
0.065495 0.082429 0.160297
0.085535 0.057850 0.189297
0.172441 0.067893 0.187820
0.449871 0.066305 0.241539
0.591502 0.066305 0.262884
0.642008 0.066305 0.279225
0.054426 0.117810 0.177860
0.053935 0.108903 0.226934
0.220842 0.128232 0.239293
0.585737 0.112821 0.304937
0.731173 0.066305 0.305327
0.769737 0.066305 0.327351
0.072644 0.201043 0.226410
0.072644 0.220380 0.249262
0.238279 0.289723 0.323339
0.695801 0.322507 0.315094
0.833720 0.316980 0.311046
0.865901 0.369985 0.335193
0.074144 0.421023 0.364573
0.072644 0.485265 0.403929
0.202055 0.673352 0.405998
0.791114 0.756767 0.367312
0.932979 0.742984 0.351356
0.955141 0.765198 0.369979
0.072644 0.533317 0.453010
0.073260 0.612438 0.494579
0.146803 0.805620 0.481954
0.799378 0.907405 0.449962
0.956089 0.910315 0.426179
0.955960 0.912058 0.538681
0.072644 0.628750 0.575327
0.072644 0.738408 0.628879
0.273953 0.867271 0.618670
0.792499 0.938405 0.629628
0.953707 0.954724 0.623540
0.956089 0.951603 0.698401
0.049870 0.130771 0.240796
0.062018 0.042771 0.380696
0.219530 0.036802 0.432687
0.463535 0.066305 0.452993
0.610449 0.078514 0.484316
0.659092 0.078825 0.508588
0.041869 0.176451 0.317806
0.040525 0.183519 0.365702
0.283366 0.077015 0.593890
0.601762 0.066305 0.591824
0.745499 0.066305 0.600047
0.783157 0.066305 0.622779
0.053956 0.309399 0.445653
0.052146 0.334631 0.494038
0.149839 0.347167 0.725649
0.697287 0.365163 0.711401
0.838603 0.357256 0.693190
0.869409 0.419009 0.712828
0.072644 0.530015 0.591287
0.072644 0.584631 0.642901
0.072644 0.734740 0.775573
0.766938 0.818395 0.799471
0.921714 0.828597 0.801467
0.944646 0.850436 0.809442
0.072644 0.624529 0.661121
0.072644 0.694885 0.718872
0.072644 0.857211 0.820828
0.775790 0.954179 0.844871
0.944142 0.975179 0.848427
0.955924 0.976227 0.868777
0.072644 0.691814 0.738685
0.074634 0.785563 0.811700
0.133118 0.903076 0.882023
0.771036 0.973037 0.896921
0.937945 0.996786 0.905084
0.955972 0.996510 0.923466
0.042782 0.164424 0.322396
0.041596 0.166827 0.367755
0.236567 0.034196 0.567202
0.496798 0.076002 0.591289
0.629715 0.087662 0.609467
0.676251 0.083585 0.632521
0.037676 0.229673 0.423402
0.037022 0.240871 0.467664
0.284135 0.062799 0.742824
0.617221 0.066305 0.756783
0.756565 0.066305 0.759185
0.794971 0.066305 0.782112
0.050176 0.362627 0.549780
0.046607 0.385699 0.609459
0.116648 0.365124 0.866035
0.689337 0.357753 0.895450
0.838371 0.373079 0.872184
0.869550 0.434099 0.883443
0.076917 0.575678 0.693557
0.071857 0.620143 0.744226
0.070908 0.739198 0.903867
0.726996 0.832232 0.976417
0.917388 0.843402 0.962969
0.937900 0.869196 0.958785
0.077774 0.659243 0.745156
0.079882 0.722765 0.803826
0.072644 0.859309 0.925326
0.748753 0.967663 0.973932
0.933684 0.992957 0.981168
0.956089 0.997659 0.982897
0.072644 0.714041 0.797011
0.072644 0.798132 0.869992
0.072644 0.901362 0.959274
0.752646 0.982244 0.983531
0.929852 1.006706 0.990171
0.956089 1.010100 0.995370
0.039537 0.197175 0.378877
0.038574 0.199667 0.444592
0.269462 0.032957 0.678691
0.562107 0.066305 0.701150
0.689223 0.066308 0.700256
0.738605 0.066308 0.732971
0.036281 0.271891 0.483243
0.035905 0.286250 0.533921
0.252670 0.101963 0.827045
0.631209 0.144312 0.821443
0.784568 0.124675 0.831552
0.818970 0.157135 0.847727
0.051419 0.393863 0.593174
0.049555 0.419241 0.647403
0.095803 0.413259 0.889764
0.689875 0.409544 0.945779
0.840137 0.428686 0.912659
0.876592 0.490016 0.925601
0.078070 0.585105 0.712198
0.071232 0.633886 0.767948
0.070107 0.740262 0.916094
0.721881 0.834835 0.992219
0.912802 0.850936 0.995107
0.939259 0.872073 0.992631
0.082710 0.664605 0.758327
0.072645 0.731351 0.821928
0.072644 0.857726 0.938162
0.733501 0.965400 0.993390
0.929572 0.993674 1.002151
0.955570 0.999194 1.003816
0.083506 0.718935 0.806803
0.072644 0.800227 0.879690
0.072644 0.898272 0.970333
0.738370 0.980535 0.996904
0.925490 1.008005 1.005136
0.956089 1.012464 1.006335
