test-luts/MoodyGloss.cube
LUT_3D_SIZE 16
0.000000 0.000000 0.004041
0.015644 0.001649 0.008437
0.029319 0.012741 0.010720
0.048907 0.022907 0.013140
0.080849 0.034493 0.016006
0.133877 0.048275 0.014924
0.208927 0.060126 0.000000
0.286988 0.070395 0.000000
0.350500 0.092987 0.000000
0.405961 0.105690 0.021896
0.455511 0.106333 0.000000
0.489409 0.112389 0.000000
0.511008 0.115956 0.000000
0.527705 0.119031 0.009604
0.540728 0.121805 0.007586
0.548406 0.123517 0.000000
0.033486 0.026446 0.023915
0.057490 0.033106 0.030367
0.034340 0.027211 0.018392
0.054958 0.034574 0.021127
0.090082 0.045909 0.023473
0.147951 0.059805 0.021455
0.226747 0.072210 0.000000
0.305564 0.083046 0.000000
0.370439 0.107213 0.019285
0.434935 0.114424 0.000000
0.479220 0.123407 0.020388
0.508852 0.129498 0.032918
0.537090 0.123590 0.000000
0.552437 0.126653 0.000000
0.563554 0.129391 0.000000
0.568629 0.143966 0.035016
0.066392 0.045188 0.038430
0.072174 0.047557 0.041013
0.074592 0.051549 0.042301
0.062042 0.054346 0.030161
0.101357 0.066232 0.031958
0.164718 0.081473 0.028858
0.248366 0.092960 0.000000
0.328247 0.103402 0.000000
0.395646 0.123842 0.005508
0.460138 0.132571 0.000000
0.505175 0.142653 0.028882
0.540860 0.140851 0.000000
0.562492 0.145661 0.000000
0.577188 0.149142 0.000000
0.588331 0.152294 0.000000
0.592861 0.165758 0.039760
0.068081 0.064641 0.049026
0.072655 0.066405 0.051035
0.088417 0.072117 0.057316
0.094695 0.083939 0.057585
0.113204 0.097102 0.042084
0.179591 0.112105 0.036985
0.268599 0.122719 0.000000
0.350717 0.134862 0.000000
0.422876 0.147767 0.000000
0.484352 0.159798 0.014936
0.534823 0.165320 0.000000
0.565821 0.172908 0.029159
0.585357 0.178109 0.038052
0.600447 0.182705 0.037868
0.613529 0.187304 0.028529
0.623695 0.191540 0.000000
0.082320 0.095246 0.068983
0.086776 0.095216 0.070350
0.079934 0.100365 0.072360
0.122451 0.115277 0.087893
0.120755 0.138092 0.051839
0.191138 0.152459 0.041859
0.285847 0.162850 0.000000
0.376525 0.172794 0.000000
0.448408 0.186160 0.000000
0.512122 0.196754 0.019458
0.560805 0.204762 0.032556
0.595264 0.207113 0.011836
0.613724 0.212336 0.037112
0.629289 0.217987 0.033193
0.644491 0.224744 0.000000
0.651133 0.236817 0.042311
0.100785 0.134649 0.094958
0.104315 0.135069 0.096351
0.110957 0.140183 0.101283
0.117493 0.155373 0.111128
0.177462 0.177179 0.133099
0.203586 0.206413 0.033718
0.303389 0.217440 0.000000
0.396961 0.227988 0.000000
0.476168 0.241818 0.028689
0.544349 0.249610 0.016117
0.594066 0.255335 0.022784
0.627720 0.259992 0.032142
0.651660 0.261906 0.000000
0.666360 0.267935 0.000000
0.675423 0.279778 0.030342
0.685361 0.293029 0.045589
0.117150 0.182176 0.123617
0.135323 0.180624 0.129565
0.133739 0.188647 0.132968
0.147232 0.202758 0.144666
0.190669 0.230451 0.166793
0.211836 0.271357 0.071725
0.320804 0.290599 0.000000
0.420923 0.300870 0.000000
0.506742 0.312156 0.030836
0.577668 0.319834 0.027967
0.629138 0.326234 0.039860
0.666676 0.330969 0.018171
0.690573 0.335446 0.000000
0.704786 0.342284 0.000000
0.714595 0.354225 0.030886
0.726798 0.369321 0.026134
0.159122 0.233795 0.163225
0.161177 0.237063 0.165312
0.179334 0.244040 0.175852
0.193236 0.261789 0.187850
0.210212 0.293676 0.208343
0.270131 0.334579 0.211801
0.331987 0.375040 0.000000
0.442722 0.389942 0.000000
0.537469 0.399901 0.000000
0.612552 0.409064 0.025789
0.670273 0.415925 0.000000
0.707317 0.421814 0.031567
0.731660 0.428253 0.036830
0.747033 0.437000 0.041397
0.761744 0.449019 0.000000
0.770464 0.465759 0.050016
0.211622 0.288409 0.209301
0.205937 0.293889 0.209520
0.221119 0.304812 0.220063
0.232729 0.325703 0.233251
0.255161 0.356341 0.253315
0.325860 0.400719 0.289246
0.349307 0.453672 0.139947
0.466879 0.484374 0.000000
0.566886 0.497575 0.020477
0.649055 0.510117 0.000000
0.710417 0.519514 0.000000
0.751277 0.525390 0.000000
0.776981 0.533287 0.043050
0.796418 0.543150 0.000000
0.807984 0.555713 0.031768
0.818341 0.570521 0.038311
0.247164 0.338408 0.246029
0.246835 0.345643 0.250136
0.256124 0.358871 0.259088
0.274036 0.381609 0.274185
0.297141 0.417457 0.296731
0.362161 0.463791 0.332772
0.393053 0.518514 0.259198
0.481844 0.562169 0.000000
0.594551 0.587422 0.000000
0.680464 0.603458 0.000000
0.747662 0.617736 0.000000
0.794208 0.628535 0.000000
0.823542 0.637070 0.000000
0.840319 0.645519 0.033689
0.852603 0.655952 0.024039
0.863545 0.668672 0.000000
0.267429 0.374862 0.271940
0.274255 0.384611 0.278330
0.284277 0.398885 0.287867
0.301711 0.423762 0.303942
0.330201 0.462508 0.329044
0.394100 0.511417 0.366271
0.431607 0.568006 0.321718
0.496194 0.621468 0.028957
0.615185 0.653455 0.000000
0.707064 0.675757 0.004681
0.778845 0.695066 0.005237
0.828780 0.709290 0.037869
0.859244 0.718745 0.039457
0.876539 0.725960 0.035919
0.887306 0.733732 0.049745
0.895465 0.742276 0.050342
0.287869 0.398366 0.289840
0.291400 0.408945 0.296290
0.302495 0.424731 0.306826
0.320810 0.450809 0.323591
0.356042 0.491990 0.350719
0.418238 0.542855 0.388763
0.467079 0.599047 0.370307
0.511880 0.659179 0.124004
0.630105 0.695430 0.000000
0.727211 0.723076 0.000000
0.801647 0.746131 0.052581
0.851923 0.761670 0.070902
0.882334 0.771564 0.071751
0.899415 0.778615 0.088290
0.910381 0.784487 0.081007
0.916120 0.788527 0.084783
0.294284 0.412979 0.299493
0.306844 0.426218 0.309389
0.322723 0.445048 0.322394
0.336543 0.473207 0.338826
0.364739 0.513287 0.364412
0.435119 0.561619 0.402515
0.482978 0.618884 0.385608
0.529195 0.679265 0.199678
0.641019 0.719422 0.000000
0.739447 0.749219 0.031621
0.816238 0.774888 0.062188
0.867927 0.792264 0.078102
0.898073 0.802390 0.093205
0.915260 0.808865 0.094818
0.924952 0.813462 0.101640
0.930979 0.815972 0.093253
0.299930 0.421007 0.305435
0.312672 0.439146 0.317650
0.327808 0.460648 0.332033
0.348913 0.488644 0.349964
0.383767 0.528788 0.376416
0.448534 0.575669 0.412911
0.486177 0.634589 0.377169
0.539992 0.693373 0.198433
0.650755 0.733263 0.000000
0.747802 0.762692 0.040956
0.825291 0.789827 0.068993
0.878807 0.808884 0.086632
0.910169 0.819273 0.094970
0.926724 0.825145 0.106659
0.936115 0.828591 0.102851
0.941033 0.830581 0.106650
0.319024 0.439849 0.321140
0.333693 0.464463 0.336487
0.353767 0.491766 0.353871
0.371579 0.522915 0.372268
0.402388 0.562654 0.399138
0.478104 0.600003 0.431737
0.495269 0.659674 0.354317
0.555634 0.713205 0.105330
0.668132 0.748268 0.000000
0.761880 0.776135 0.047061
0.838740 0.803398 0.074337
0.892857 0.822594 0.091961
0.924667 0.832823 0.100941
0.940517 0.837224 0.112513
0.949606 0.839915 0.109116
0.954503 0.841587 0.112908
0.343108 0.475388 0.347795
0.365958 0.509571 0.368427
0.386330 0.543739 0.388382
0.412883 0.581477 0.412170
0.457080 0.609384 0.434836
0.508915 0.646607 0.443941
0.522467 0.698092 0.327498
0.590946 0.739006 0.031279
0.695261 0.769173 0.020992
0.784535 0.795003 0.053911
0.860431 0.821371 0.082516
0.913330 0.839160 0.100437
0.943001 0.847176 0.109659
0.958550 0.850460 0.111644
0.966101 0.852248 0.118255
0.970319 0.852682 0.122147
0.007265 0.000000 0.015643
0.016832 0.011213 0.017098
0.030871 0.016167 0.018746
0.050682 0.024160 0.020799
0.084477 0.036417 0.023837
0.141151 0.050006 0.025064
0.217653 0.061177 0.000000
0.294082 0.070198 0.000000
0.364086 0.078485 0.000000
0.418101 0.098052 0.000000
0.464763 0.106647 0.000000
0.499019 0.112451 0.020192
0.520599 0.116531 0.025901
0.536270 0.119473 0.030348
0.549391 0.121868 0.033966
0.559523 0.124108 0.033506
0.040584 0.029191 0.026678
0.067411 0.037245 0.035075
0.035096 0.029629 0.025262
0.056706 0.036760 0.027438
0.094018 0.048600 0.030121
0.154315 0.062738 0.028623
0.235832 0.072775 0.000000
0.313442 0.082958 0.000000
0.383508 0.097091 0.000000
0.441374 0.114332 0.020968
0.492613 0.114020 0.000000
0.524149 0.119865 0.000000
0.546230 0.124006 0.000000
0.561025 0.126954 0.000000
0.572541 0.129574 0.000000
0.584926 0.132679 0.000000
0.061581 0.046575 0.038280
0.073283 0.049079 0.042042
0.084643 0.054281 0.047413
0.063276 0.056627 0.035946
0.104671 0.068760 0.037858
0.170087 0.084231 0.035301
0.255948 0.094630 0.000000
0.336882 0.103896 0.000000
0.403547 0.124954 0.024489
0.468155 0.133340 0.020070
0.519722 0.135483 0.000000
0.550746 0.141943 0.000000
0.570456 0.145904 0.014414
0.585360 0.149445 0.015838
0.598108 0.153172 0.000000
0.609469 0.156691 0.000000
0.051849 0.069581 0.048623
0.073109 0.068335 0.052245
0.089794 0.074575 0.058958
0.106705 0.086309 0.066302
0.115407 0.098925 0.047656
0.184968 0.114482 0.043580
0.275270 0.124652 0.000000
0.363112 0.132745 0.000000
0.433710 0.149555 0.000000
0.494851 0.162101 0.030657
0.545640 0.167443 0.019504
0.582854 0.167427 0.000000
0.601265 0.171499 0.000000
0.616620 0.175845 0.000000
0.631400 0.180999 0.000000
0.635730 0.193706 0.031051
0.077522 0.099486 0.070251
0.085883 0.099069 0.071946
0.079401 0.105136 0.073854
0.123975 0.118504 0.090073
0.122868 0.140751 0.057647
0.197127 0.155191 0.048734
0.293325 0.165020 0.000000
0.384857 0.174983 0.000000
0.460507 0.189062 0.000000
0.523747 0.200129 0.035073
0.577496 0.202643 0.000000
0.608223 0.210831 0.031921
0.633821 0.210101 0.000000
0.642675 0.221840 0.044720
0.657133 0.227888 0.026474
0.670995 0.234782 0.000000
0.097411 0.139538 0.096692
0.098670 0.140806 0.097552
0.107113 0.144723 0.102299
0.117667 0.159167 0.113558
0.181019 0.182006 0.136538
0.209661 0.211258 0.043397
0.312448 0.221868 0.000000
0.409177 0.231177 0.000000
0.491140 0.242393 0.000000
0.556065 0.253833 0.035324
0.607219 0.259993 0.039694
0.645989 0.260481 0.000000
0.665881 0.266462 0.000000
0.680940 0.272678 0.000000
0.689476 0.284684 0.045547
0.705168 0.293911 0.000000
0.116141 0.186485 0.125776
0.121104 0.188797 0.128165
0.133211 0.194359 0.135002
0.150551 0.207589 0.148271
0.195445 0.236813 0.171350
0.218041 0.279347 0.064161
0.331121 0.298356 0.000000
0.432032 0.307328 0.000000
0.519100 0.316732 0.000000
0.591289 0.326971 0.034144
0.644711 0.334062 0.043825
0.680957 0.337100 0.037568
0.706276 0.342050 0.000000
0.721614 0.349583 0.000000
0.731180 0.361721 0.043301
0.744273 0.377591 0.037996
0.157873 0.240326 0.165606
0.177055 0.241125 0.174229
0.177211 0.252026 0.178870
0.192250 0.267795 0.191651
0.215164 0.300762 0.213371
0.275810 0.342997 0.215815
0.341305 0.384162 0.000000
0.454156 0.397883 0.000000
0.548980 0.406694 0.000000
0.627262 0.418316 0.032068
0.688082 0.427572 0.000000
0.725690 0.432941 0.028817
0.751171 0.439563 0.038794
0.769137 0.445877 0.000000
0.779050 0.457779 0.000000
0.791078 0.478207 0.051405
0.202752 0.298424 0.209963
0.212237 0.303740 0.216535
0.224047 0.313214 0.226019
0.242115 0.331760 0.238773
0.259081 0.363365 0.258192
0.329220 0.408258 0.294297
0.356112 0.463485 0.150688
0.476520 0.493780 0.000000
0.577905 0.505989 0.000000
0.663149 0.520146 0.000000
0.729283 0.533498 0.000000
0.773299 0.542166 0.000000
0.799541 0.549545 0.035779
0.815272 0.555037 0.000000
0.824434 0.565044 0.051041
0.839254 0.584750 0.042044
0.243650 0.348280 0.249789
0.253380 0.354952 0.257186
0.261911 0.367113 0.265264
0.276985 0.388647 0.279179
0.302998 0.425770 0.302710
0.368138 0.473858 0.339747
0.401098 0.529697 0.264267
0.492395 0.574464 0.000000
0.607761 0.599698 0.000000
0.697725 0.617213 0.000000
0.767310 0.632608 0.000000
0.815089 0.644122 0.021436
0.846918 0.655145 0.000000
0.863122 0.663133 0.033877
0.873564 0.671274 0.031936
0.884963 0.684338 0.000000
0.273609 0.383678 0.278654
0.280539 0.391932 0.284799
0.292551 0.406347 0.294587
0.310701 0.430452 0.310246
0.334801 0.470833 0.334908
0.400650 0.522342 0.373826
0.450308 0.578026 0.344689
0.509245 0.634632 0.018163
0.630111 0.666652 0.015870
0.725509 0.689989 0.000000
0.799034 0.710046 0.037919
0.849947 0.724338 0.024424
0.881248 0.735328 0.060963
0.899230 0.743407 0.058545
0.908929 0.750234 0.067265
0.916620 0.757935 0.068455
0.289111 0.405586 0.295020
0.302882 0.416622 0.303739
0.309459 0.434582 0.314223
0.327480 0.460246 0.330575
0.354575 0.498835 0.354942
0.422497 0.552094 0.395018
0.473406 0.610917 0.372381
0.523537 0.671845 0.096223
0.644290 0.706963 0.000000
0.743706 0.735116 0.028704
0.822297 0.760405 0.057752
0.874837 0.777563 0.072043
0.904058 0.786168 0.087092
0.920527 0.791564 0.087538
0.929957 0.796864 0.094669
0.936365 0.802121 0.097879
0.298949 0.419552 0.305541
0.308942 0.433767 0.314976
0.322639 0.453255 0.327993
0.341602 0.480244 0.345102
0.373650 0.519255 0.370060
0.437310 0.572339 0.409408
0.480245 0.631751 0.376262
0.538086 0.690964 0.194564
0.655622 0.731184 0.028160
0.756137 0.760812 0.043384
0.835794 0.787835 0.072418
0.890446 0.806681 0.091005
0.920819 0.815871 0.095711
0.936350 0.820745 0.095650
0.944604 0.824515 0.102037
0.948767 0.826402 0.105500
0.307646 0.426745 0.312375
0.321693 0.444345 0.324477
0.331942 0.466412 0.337717
0.355516 0.495055 0.356253
0.382598 0.538558 0.382388
0.452482 0.587299 0.420588
0.500569 0.644262 0.399041
0.549652 0.705945 0.197456
0.665357 0.746289 0.000000
0.765374 0.775799 0.046096
0.845447 0.803318 0.075181
0.900401 0.822448 0.092032
0.930837 0.832036 0.106730
0.946708 0.836982 0.108081
0.954041 0.839432 0.113699
0.958441 0.840460 0.105694
0.304770 0.451132 0.322082
0.336387 0.472547 0.345321
0.354476 0.498309 0.361373
0.376302 0.529453 0.379649
0.407014 0.573163 0.406560
0.477001 0.622117 0.445246
0.510926 0.677552 0.390783
0.566950 0.730472 0.137374
0.682133 0.765450 0.000000
0.779885 0.792665 0.053401
0.860986 0.820280 0.080981
0.915360 0.838401 0.102257
0.945020 0.846284 0.111759
0.959601 0.849594 0.113212
0.966674 0.851175 0.119251
0.971113 0.851991 0.112043
0.313447 0.492762 0.346828
0.373380 0.519317 0.382713
0.396852 0.552561 0.402190
0.418566 0.584212 0.419781
0.447278 0.630147 0.446644
0.522377 0.669057 0.480041
0.541729 0.723276 0.401832
0.598615 0.771044 0.140534
0.713581 0.799800 0.000000
0.807518 0.820381 0.000000
0.886296 0.844298 0.000000
0.940334 0.859956 0.000985
0.963792 0.862747 0.108314
0.974342 0.862103 0.121119
0.979325 0.861478 0.127364
0.979751 0.861421 0.173367
0.002449 0.010299 0.032862
0.016849 0.014914 0.033783
0.031904 0.020372 0.034770
0.052704 0.027310 0.036938
0.087510 0.037441 0.040030
0.145100 0.051341 0.041497
0.223241 0.061181 0.036168
0.307778 0.054488 0.000000
0.382093 0.053115 0.000000
0.439440 0.072684 0.000000
0.482477 0.091669 0.000000
0.516668 0.096107 0.015654
0.539159 0.099633 0.018718
0.555475 0.102145 0.020906
0.568621 0.103747 0.027321
0.579694 0.104874 0.033674
0.016032 0.029450 0.039499
0.023094 0.030042 0.039800
0.036629 0.033549 0.040832
0.059539 0.040169 0.043066
0.097472 0.050313 0.045736
0.158076 0.064748 0.046533
0.242747 0.074487 0.038628
0.331068 0.069164 0.000000
0.405111 0.075976 0.000000
0.460442 0.100349 0.009417
0.512922 0.095293 0.000000
0.544469 0.103433 0.000000
0.566611 0.106764 0.000000
0.581723 0.109229 0.000000
0.593825 0.111152 0.000000
0.605892 0.113134 0.000000
0.015797 0.050293 0.048349
0.025398 0.050912 0.048760
0.064784 0.054997 0.049117
0.065506 0.060202 0.050753
0.107688 0.071512 0.053669
0.174379 0.087099 0.054040
0.262301 0.096527 0.043001
0.353607 0.093866 0.000000
0.432366 0.097146 0.000000
0.487778 0.120815 0.000000
0.539092 0.122150 0.000000
0.570774 0.129090 0.000000
0.591184 0.132632 0.000000
0.606507 0.135905 0.000000
0.619855 0.139174 0.000000
0.631282 0.141973 0.000000
0.000000 0.078228 0.060942
0.021738 0.079077 0.059564
0.087156 0.078077 0.060792
0.115568 0.089574 0.072634
0.118080 0.103168 0.064529
0.190614 0.118282 0.062923
0.281588 0.127212 0.047232
0.377040 0.127166 0.000000
0.460082 0.129838 0.000000
0.525279 0.139548 0.000000
0.566088 0.159885 0.021175
0.597291 0.167139 0.040217
0.623333 0.161366 0.000000
0.639069 0.165367 0.000000
0.646327 0.180529 0.044369
0.657997 0.184462 0.035133
0.062634 0.108017 0.077378
0.068479 0.107888 0.076448
0.066146 0.114868 0.076739
0.124398 0.122958 0.093001
0.138615 0.145146 0.087344
0.203757 0.159947 0.069499
0.300379 0.168924 0.047975
0.400461 0.172158 0.000000
0.487566 0.177254 0.000000
0.556703 0.185526 0.000000
0.604572 0.195109 0.000000
0.631092 0.206108 0.032232
0.650812 0.211615 0.045049
0.666155 0.216718 0.044488
0.680687 0.222261 0.029627
0.694668 0.228674 0.000000
0.074490 0.150397 0.101837
0.083519 0.150108 0.101970
0.098929 0.153743 0.105191
0.121084 0.164238 0.117531
0.184131 0.186773 0.140109
0.215306 0.217292 0.070304
0.319197 0.226943 0.035077
0.423669 0.232428 0.000000
0.514780 0.240719 0.000000
0.587886 0.246898 0.000000
0.637422 0.252850 0.000000
0.662229 0.263153 0.045243
0.688684 0.264563 0.000000
0.705945 0.271524 0.000000
0.715269 0.284499 0.042892
0.731610 0.293285 0.000000
0.119374 0.193933 0.133010
0.112346 0.199070 0.133489
0.131842 0.202960 0.139532
0.151448 0.213795 0.151387
0.196984 0.242345 0.175138
0.235227 0.282433 0.130829
0.338725 0.304161 0.000000
0.447612 0.311083 0.000000
0.541631 0.317981 0.000000
0.616835 0.326417 0.000000
0.668491 0.333826 0.000000
0.702144 0.338756 0.040109
0.729870 0.344500 0.000000
0.747783 0.353545 0.000000
0.758558 0.366526 0.030194
0.771327 0.382198 0.032521
0.158569 0.249106 0.171782
0.157573 0.255644 0.173920
0.188075 0.259228 0.186979
0.197249 0.274894 0.197745
0.219813 0.307374 0.218318
0.284570 0.349143 0.231639
0.348518 0.393574 0.000000
0.469951 0.406785 0.000000
0.566565 0.413322 0.000000
0.644801 0.424423 0.023308
0.706138 0.434422 0.046242
0.749486 0.439618 0.018324
0.776783 0.447432 0.019355
0.793163 0.456518 0.027248
0.803419 0.469128 0.052844
0.816714 0.486291 0.042670
0.211599 0.306641 0.218563
0.206424 0.314597 0.219086
0.232549 0.321289 0.233747
0.243462 0.340893 0.245837
0.271472 0.372557 0.266452
0.330426 0.420883 0.302188
0.364939 0.476838 0.170942
0.489794 0.507975 0.000000
0.593681 0.518550 0.000000
0.681462 0.532228 0.000000
0.750516 0.546254 0.029164
0.797520 0.555899 0.038910
0.826627 0.562861 0.000000
0.840846 0.570019 0.032570
0.853121 0.580673 0.000000
0.864332 0.596012 0.000000
0.260509 0.356073 0.261261
0.248027 0.366088 0.259439
0.272102 0.375405 0.273716
0.283525 0.397843 0.287060
0.309530 0.434995 0.310117
0.368097 0.488382 0.348747
0.412728 0.544998 0.285885
0.504146 0.589847 0.003969
0.623637 0.614667 0.000000
0.717602 0.632862 0.000000
0.791333 0.650384 0.024828
0.841528 0.663114 0.039309
0.872371 0.672224 0.000000
0.888994 0.678723 0.000000
0.899022 0.686830 0.000000
0.907844 0.699305 0.039074
0.267687 0.395750 0.281161
0.280253 0.403205 0.289974
0.296240 0.415720 0.302597
0.313215 0.439903 0.318043
0.341483 0.480256 0.342697
0.397919 0.537761 0.383070
0.452166 0.594553 0.346785
0.518540 0.649967 0.032561
0.644379 0.681887 0.016358
0.745144 0.706629 0.000000
0.822721 0.728520 0.039320
0.874522 0.743211 0.055194
0.904654 0.752580 0.077854
0.920987 0.758407 0.077146
0.929879 0.764189 0.084121
0.937465 0.772683 0.083833
0.282638 0.418369 0.297805
0.297118 0.427447 0.308110
0.315331 0.442733 0.322872
0.333859 0.469133 0.339688
0.362309 0.509788 0.364003
0.417079 0.568569 0.404560
0.478828 0.626200 0.384823
0.532543 0.686589 0.135168
0.657102 0.722379 0.000000
0.761209 0.750790 0.041424
0.843432 0.777372 0.070636
0.896694 0.793669 0.085624
0.925222 0.801115 0.099048
0.940488 0.805884 0.099605
0.949643 0.810227 0.091083
0.954905 0.814316 0.093947
0.309681 0.428169 0.316230
0.301068 0.444521 0.317475
0.328771 0.461741 0.337355
0.347375 0.488246 0.353952
0.376049 0.529220 0.378091
0.429295 0.590237 0.419554
0.497750 0.647747 0.410901
0.544959 0.708932 0.189254
0.667436 0.747654 0.000000
0.773051 0.777047 0.051320
0.857969 0.805549 0.078090
0.912299 0.823014 0.101505
0.940278 0.829718 0.106385
0.954347 0.833139 0.106475
0.961729 0.836401 0.112486
0.965751 0.837985 0.115516
0.302654 0.439277 0.318655
0.327624 0.453651 0.335814
0.332980 0.476457 0.345725
0.358753 0.504348 0.366023
0.393811 0.544948 0.391556
0.441045 0.608750 0.432512
0.513593 0.665413 0.432010
0.554916 0.725676 0.216607
0.674164 0.763040 0.029057
0.780298 0.792512 0.053278
0.866405 0.821625 0.083574
0.921714 0.838960 0.101888
0.949741 0.845548 0.116090
0.963505 0.848363 0.117698
0.970522 0.850108 0.112665
0.973554 0.850949 0.115660
0.307624 0.464259 0.336355
0.310711 0.490699 0.344974
0.346813 0.512169 0.367836
0.383277 0.538828 0.393494
0.413105 0.581496 0.417357
0.469169 0.640868 0.455915
0.537740 0.696375 0.456979
0.575320 0.756953 0.251881
0.694668 0.792475 0.000000
0.801420 0.816937 0.000000
0.887237 0.842867 0.000000
0.939692 0.856454 0.042390
0.964537 0.860376 0.116522
0.976329 0.860265 0.112077
0.979751 0.857967 0.076636
0.979751 0.859352 0.164575
0.272463 0.514209 0.358266
0.323529 0.542457 0.379550
0.373055 0.569626 0.406446
0.422994 0.594806 0.437934
0.455190 0.641020 0.460212
0.526006 0.683169 0.494042
0.603742 0.726868 0.528974
0.621799 0.786331 0.366702
0.718353 0.824858 0.000000
0.825564 0.847828 0.000000
0.915869 0.872378 0.000000
0.968587 0.879619 0.000000
0.979751 0.875818 0.000985
0.979751 0.875344 0.121642
0.979751 0.874263 0.286120
0.979743 0.874801 0.306212
0.000000 0.017549 0.059864
0.015825 0.018431 0.060389
0.032678 0.023421 0.061701
0.054232 0.030546 0.064353
0.089930 0.039855 0.068443
0.148608 0.053022 0.071784
0.227440 0.062548 0.071629
0.314356 0.053313 0.060947
0.399936 0.000000 0.031078
0.468379 0.000000 0.000000
0.517487 0.000000 0.000000
0.551546 0.000000 0.000000
0.573426 0.000000 0.000000
0.589234 0.000000 0.000000
0.602084 0.000000 0.000000
0.612372 0.000000 0.000000
0.011391 0.034699 0.067737
0.021784 0.034417 0.066967
0.036880 0.037431 0.068556
0.061447 0.043928 0.072418
0.100219 0.053205 0.076016
0.161408 0.067226 0.077520
0.248062 0.077641 0.076474
0.339874 0.069194 0.065294
0.427303 0.000000 0.028935
0.498789 0.000000 0.000000
0.548769 0.000000 0.000000
0.581303 0.000000 0.000000
0.603713 0.000000 0.000000
0.620098 0.000000 0.000000
0.633310 0.000000 0.000000
0.645590 0.000000 0.000000
0.003925 0.055805 0.076211
0.019464 0.056014 0.077037
0.038884 0.058982 0.078902
0.066964 0.065731 0.082675
0.110733 0.076499 0.086096
0.177600 0.090784 0.086964
0.267882 0.099864 0.083086
0.362613 0.095695 0.070423
0.452128 0.068589 0.031285
0.527585 0.000000 0.000000
0.580740 0.000000 0.000000
0.614908 0.000000 0.000000
0.637177 0.000000 0.000000
0.653693 0.000000 0.000000
0.668054 0.000000 0.000000
0.681555 0.000000 0.000000
0.026095 0.083373 0.086920
0.026090 0.084895 0.088371
0.027877 0.090132 0.092284
0.067925 0.097880 0.095136
0.120201 0.109413 0.097825
0.194392 0.123529 0.098163
0.287198 0.132402 0.091810
0.384775 0.131314 0.075710
0.477915 0.116070 0.030394
0.556188 0.099378 0.000000
0.616148 0.074844 0.000000
0.651196 0.071312 0.000000
0.673310 0.074999 0.000000
0.690244 0.078183 0.000000
0.705702 0.078994 0.000000
0.719665 0.079647 0.000000
0.029371 0.119620 0.105888
0.026983 0.121518 0.106204
0.000000 0.128870 0.107790
0.094410 0.134346 0.103414
0.171224 0.147610 0.116953
0.207657 0.166456 0.107940
0.305808 0.176429 0.099800
0.408640 0.177161 0.078715
0.507427 0.168413 0.013841
0.588571 0.162672 0.000000
0.646350 0.159086 0.000000
0.676474 0.165316 0.000000
0.708002 0.154089 0.000000
0.726354 0.157670 0.000000
0.732320 0.178328 0.000000
0.748299 0.182634 0.000000
0.038311 0.162897 0.124848
0.037732 0.165131 0.125588
0.054448 0.170323 0.125648
0.087573 0.180914 0.122965
0.183971 0.191971 0.144719
0.216005 0.224027 0.115730
0.323916 0.235048 0.104092
0.434496 0.238517 0.076911
0.539426 0.236222 0.000000
0.621291 0.234376 0.000000
0.680466 0.232405 0.000000
0.719863 0.231987 0.000000
0.741618 0.238228 0.000000
0.761055 0.244618 0.000000
0.769435 0.260498 0.000000
0.787817 0.268326 0.000000
0.095011 0.208734 0.148613
0.098586 0.212087 0.149871
0.099357 0.219110 0.150949
0.125187 0.229614 0.154726
0.190731 0.248276 0.179373
0.265748 0.281001 0.200772
0.341045 0.311225 0.099948
0.461410 0.317870 0.053869
0.568530 0.319038 0.000000
0.653992 0.321435 0.000000
0.717157 0.324689 0.000000
0.754193 0.329672 0.000000
0.783304 0.333469 0.000000
0.803885 0.342878 0.000000
0.816284 0.358379 0.000000
0.827445 0.374315 0.000000
0.130794 0.266678 0.182451
0.137477 0.270953 0.184668
0.150570 0.277730 0.188419
0.178114 0.290134 0.198278
0.223903 0.313057 0.224795
0.299673 0.352939 0.257149
0.349491 0.404091 0.067390
0.486844 0.418640 0.000000
