test-luts/MoodyGloss.cube
LUT_3D_SIZE 6
0.000000 0.000000 0.004041
0.048907 0.022907 0.013140
0.208927 0.060126 0.000000
0.405961 0.105690 0.021896
0.511008 0.115956 0.000000
0.548406 0.123517 0.000000
0.068081 0.064641 0.049026
0.094695 0.083939 0.057585
0.268599 0.122719 0.000000
0.484352 0.159798 0.014936
0.585357 0.178109 0.038052
0.623695 0.191540 0.000000
0.117150 0.182176 0.123617
0.147232 0.202758 0.144666
0.320804 0.290599 0.000000
0.577668 0.319834 0.027967
0.690573 0.335446 0.000000
0.726798 0.369321 0.026134
0.247164 0.338408 0.246029
0.274036 0.381609 0.274185
0.393053 0.518514 0.259198
0.680464 0.603458 0.000000
0.823542 0.637070 0.000000
0.863545 0.668672 0.000000
0.294284 0.412979 0.299493
0.336543 0.473207 0.338826
0.482978 0.618884 0.385608
0.739447 0.749219 0.031621
0.898073 0.802390 0.093205
0.930979 0.815972 0.093253
0.343108 0.475388 0.347795
0.412883 0.581477 0.412170
0.522467 0.698092 0.327498
0.784535 0.795003 0.053911
0.943001 0.847176 0.109659
0.970319 0.852682 0.122147
0.000000 0.017549 0.059864
0.054232 0.030546 0.064353
0.227440 0.062548 0.071629
0.468379 0.000000 0.000000
0.573426 0.000000 0.000000
0.612372 0.000000 0.000000
0.026095 0.083373 0.086920
0.067925 0.097880 0.095136
0.287198 0.132402 0.091810
0.556188 0.099378 0.000000
0.673310 0.074999 0.000000
0.719665 0.079647 0.000000
0.095011 0.208734 0.148613
0.125187 0.229614 0.154726
0.341045 0.311225 0.099948
0.653992 0.321435 0.000000
0.783304 0.333469 0.000000
0.827445 0.374315 0.000000
0.224377 0.376477 0.259171
0.295235 0.408678 0.300004
0.431171 0.563735 0.334570
0.742958 0.651553 0.000000
0.901327 0.688015 0.000000
0.935793 0.714902 0.021005
0.261854 0.451339 0.312522
0.339768 0.501679 0.360048
0.532479 0.665061 0.478930
0.796294 0.802028 0.000000
0.960297 0.845334 0.116448
0.979751 0.845982 0.059718
0.209361 0.537560 0.388690
0.370369 0.618717 0.438541
0.607636 0.740685 0.551442
0.821746 0.865374 0.277303
0.979751 0.892283 0.238225
0.979637 0.891162 0.415941
0.000000 0.066780 0.192544
0.059796 0.000000 0.236061
0.239203 0.021763 0.260605
0.480949 0.000000 0.247310
0.585524 0.000000 0.250398
0.627193 0.000000 0.263081
0.000000 0.131929 0.231943
0.000000 0.110534 0.288097
0.295360 0.150192 0.316008
0.580992 0.110682 0.295853
0.709614 0.000000 0.286506
0.750631 0.000000 0.309270
0.000000 0.263022 0.303683
0.000000 0.281317 0.325060
0.329517 0.352924 0.378380
0.675217 0.379802 0.378566
0.827755 0.376065 0.375423
0.871189 0.415425 0.393492
0.023297 0.449558 0.391887
0.000000 0.493333 0.413614
0.481045 0.604092 0.480469
0.775032 0.721229 0.416378
0.959655 0.748196 0.405087
0.979751 0.767438 0.418353
0.000000 0.526948 0.451224
0.015702 0.585320 0.476593
0.530481 0.720340 0.563652
0.806439 0.879713 0.473324
0.979751 0.902965 0.457066
0.979751 0.901903 0.535857
0.000000 0.598384 0.552687
0.000000 0.691341 0.594252
0.570124 0.804082 0.658684
0.822140 0.913769 0.688702
0.979010 0.944097 0.600008
0.979751 0.937048 0.662171
0.014800 0.149752 0.305454
0.034275 0.000000 0.411343
0.231467 0.000000 0.453050
0.490495 0.000000 0.468066
0.600788 0.056049 0.464847
0.641924 0.056744 0.483039
0.000000 0.200439 0.373615
0.000000 0.199370 0.408481
0.281205 0.127966 0.553521
0.593683 0.000000 0.570137
0.724555 0.000000 0.568843
0.765892 0.000000 0.594131
0.000000 0.321033 0.468786
0.000000 0.336000 0.502162
0.294286 0.375842 0.646993
0.676994 0.411231 0.674414
0.834072 0.405702 0.685169
0.875804 0.448396 0.710516
0.000000 0.509665 0.574481
0.000000 0.553459 0.614813
0.000000 0.688450 0.733897
0.756184 0.772353 0.751345
0.946550 0.787031 0.761011
0.971758 0.812936 0.769691
0.000000 0.588983 0.629716
0.000000 0.650384 0.679504
0.000000 0.815803 0.788717
0.836661 0.928648 0.857839
0.971433 0.965207 0.814294
0.979751 0.961047 0.839655
0.000000 0.647439 0.698292
0.026714 0.740445 0.772548
0.166086 0.874188 0.862007
0.807217 0.957704 0.896790
0.962209 0.991838 0.895169
0.979751 0.986453 0.912032
0.000000 0.183937 0.375941
0.000000 0.179027 0.408644
0.231979 0.000000 0.548559
0.493624 0.050123 0.574483
0.616675 0.074282 0.582777
0.657238 0.066682 0.600132
0.000000 0.240423 0.450342
0.000000 0.244236 0.480699
0.273756 0.106095 0.679424
0.596917 0.000000 0.715245
0.736023 0.000000 0.721109
0.779738 0.000000 0.748812
0.000000 0.353315 0.541829
0.000000 0.367171 0.586327
0.266093 0.385982 0.792284
0.680547 0.420425 0.835935
0.836485 0.416769 0.847935
0.877217 0.458615 0.869301
0.042902 0.539749 0.657098
0.000000 0.579782 0.703066
0.000000 0.716453 0.884960
0.725174 0.791938 0.946331
0.935217 0.802092 0.953351
0.965275 0.830490 0.956508
0.040663 0.616720 0.704022
0.047731 0.679683 0.763411
0.000000 0.840751 0.914266
0.727682 0.960245 0.978316
0.960450 0.989315 0.986590
0.973934 0.991437 0.988511
0.000000 0.671181 0.756670
0.000000 0.764304 0.841456
0.000000 0.893457 0.959922
0.731965 0.976996 0.989228
0.956362 1.002243 0.995703
0.979751 1.003533 1.001613
0.000000 0.212995 0.418591
0.000000 0.204315 0.463458
0.257631 0.000000 0.637389
0.544677 0.000000 0.664251
0.668663 0.000000 0.663468
0.717792 0.000000 0.695587
0.000000 0.273869 0.492619
0.000000 0.280250 0.528322
0.285573 0.210267 0.739114
0.619254 0.194035 0.781881
0.767979 0.142328 0.794784
0.809616 0.213614 0.817963
0.000000 0.377330 0.574438
0.000000 0.395239 0.616888
0.239477 0.420001 0.834760
0.687024 0.457380 0.884620
0.849273 0.454886 0.897170
0.889413 0.497141 0.915193
0.049613 0.547660 0.673451
0.000000 0.593278 0.726136
0.000000 0.721196 0.901524
0.713067 0.799185 0.978671
0.928308 0.810818 0.988544
0.963494 0.835409 0.992712
0.056042 0.622056 0.716879
0.000000 0.690281 0.783640
0.000000 0.843628 0.931855
0.712053 0.956155 0.999300
0.955818 0.989672 1.007022
0.979751 0.996134 1.007308
0.058031 0.676857 0.767105
0.000000 0.769119 0.853749
0.000000 0.892926 0.973890
0.716986 0.972731 1.002319
0.950990 1.002026 1.008691
0.979751 1.005025 1.008691
