test-luts/NeonVibes.cube
LUT_3D_SIZE 6
-0.068644 -0.068644 -0.068439
0.129242 -0.068645 -0.068645
0.387366 -0.068648 -0.068648
0.703206 -0.068657 -0.068657
0.874932 -0.068669 -0.068669
0.943007 -0.068675 -0.068675
-0.068621 0.127055 0.089142
0.183269 0.101435 -0.068524
0.354092 0.129313 -0.068649
0.613370 0.174295 -0.068659
0.826135 0.199875 -0.068669
0.922162 0.211165 -0.068677
0.130054 0.352179 0.218140
0.280669 0.332408 0.207377
0.521405 0.346192 -0.067816
0.792746 0.399745 -0.068675
0.908020 0.408790 -0.068682
0.964574 0.410248 -0.068687
0.194631 0.735550 0.262763
0.370750 0.722558 0.241696
0.573071 0.677153 0.201512
0.795608 0.667433 -0.042961
0.924784 0.627565 -0.067409
0.978692 0.613944 -0.065338
0.203841 0.931674 0.189989
0.360427 0.925917 0.183619
0.557684 0.900407 0.164605
0.767531 0.886860 0.111580
0.921577 0.861224 0.042806
0.977849 0.800786 0.104482
0.222246 0.990163 0.157174
0.362757 0.987006 0.152861
0.550532 0.976856 0.148622
0.725951 0.964723 0.147439
0.889904 0.965360 0.143126
0.981996 0.941203 0.203373
-0.068644 -0.068643 -0.058147
0.075642 -0.064682 0.138921
0.430863 -0.068643 0.116866
0.767363 -0.068661 0.089446
0.912980 -0.068672 0.068005
0.969465 -0.068671 0.055817
-0.068644 0.126902 0.156081
0.089025 0.170633 0.206274
0.443523 0.131767 0.132574
0.796132 0.147418 0.064517
0.941492 0.146287 0.046474
0.991705 0.144146 0.036142
-0.062602 0.365669 0.289814
0.236335 0.400144 0.298126
0.528010 0.401832 0.193627
0.844957 0.428292 0.073844
0.948492 0.412996 0.052164
0.992284 0.410728 0.055545
0.164907 0.758852 0.398914
0.295317 0.782027 0.339696
0.569930 0.735213 0.312283
0.819315 0.731007 0.278707
0.941853 0.685496 0.195620
0.991626 0.659731 0.160738
0.183527 0.938431 0.341325
0.323280 0.942696 0.317067
0.550240 0.932110 0.311771
0.773438 0.912631 0.300161
0.936064 0.898681 0.308351
0.985134 0.833169 0.317302
0.214971 0.992265 0.321087
0.366593 0.993245 0.334986
0.555695 0.990377 0.336029
0.738599 0.981540 0.339019
0.893459 0.976638 0.342146
0.987203 0.958944 0.373274
-0.068644 -0.046698 0.105233
-0.068644 0.108593 0.190150
0.278139 0.122722 0.311618
0.645627 0.055591 0.388418
0.908703 -0.026662 0.352405
0.982489 -0.063038 0.304544
-0.068644 0.164372 0.211859
-0.068640 0.214776 0.279478
0.290581 0.249938 0.395553
0.788280 0.143958 0.420009
0.977846 0.112038 0.333324
0.999584 0.192768 0.308815
-0.068644 0.359237 0.370777
-0.046433 0.437877 0.459515
0.341184 0.507286 0.578585
0.891951 0.461720 0.451922
0.987067 0.477587 0.428046
0.999180 0.489515 0.432612
-0.068623 0.759808 0.540001
0.204218 0.796298 0.582113
0.522124 0.827309 0.591631
0.832256 0.805146 0.600737
0.972750 0.758732 0.478772
0.998164 0.736772 0.503970
0.093983 0.941508 0.521869
0.287506 0.948425 0.550587
0.585899 0.954352 0.607993
0.801880 0.943972 0.625754
0.947240 0.934301 0.642413
0.992140 0.888629 0.640158
0.183218 0.993682 0.506000
0.367923 0.995059 0.543139
0.663673 0.996397 0.660695
0.794657 0.993928 0.663317
0.913428 0.986497 0.672532
0.991553 0.979649 0.701791
-0.068644 0.110994 0.173113
-0.068644 0.161428 0.231854
-0.051105 0.267631 0.412624
0.510602 0.207724 0.551839
0.788834 0.176712 0.633707
0.941032 0.102467 0.603095
-0.068644 0.209449 0.264195
-0.068644 0.263343 0.342047
0.092498 0.367693 0.533894
0.579824 0.316360 0.662353
0.873068 0.283292 0.698653
0.992132 0.231359 0.634297
-0.068644 0.412680 0.481959
-0.068644 0.513232 0.632348
0.259059 0.582131 0.732912
0.710155 0.593542 0.818878
0.971168 0.553374 0.779574
0.999700 0.540292 0.684494
-0.068644 0.715666 0.712601
0.064235 0.800349 0.805881
0.385630 0.825150 0.848119
0.798928 0.856596 0.883489
0.980497 0.855949 0.845827
0.999626 0.858097 0.841765
-0.068640 0.934436 0.707983
0.205078 0.944716 0.738038
0.514026 0.955829 0.785746
0.858314 0.962665 0.876797
0.956359 0.956821 0.886789
0.997470 0.944110 0.874607
0.131888 0.991376 0.677544
0.306603 0.995075 0.703169
0.635554 0.997341 0.788058
0.876015 0.998326 0.885071
0.948703 0.996207 0.895423
0.995093 0.992904 0.898298
-0.068644 0.170120 0.229979
-0.068644 0.212546 0.284939
-0.068644 0.315010 0.455452
0.313865 0.342208 0.839987
0.767154 0.253939 0.802587
0.902676 0.214746 0.815870
-0.068644 0.261265 0.328184
-0.068644 0.322173 0.425451
-0.054485 0.432597 0.619531
0.383339 0.423132 0.913176
0.818403 0.366568 0.864011
0.937938 0.351707 0.850874
-0.068644 0.475924 0.600795
-0.068644 0.564373 0.762709
0.220917 0.627902 0.830447
0.571915 0.638732 0.955670
0.886798 0.661890 0.923237
0.971550 0.652819 0.899795
-0.068644 0.719654 0.842244
-0.060306 0.763269 0.919211
0.319282 0.792244 0.934201
0.750701 0.860452 0.946733
0.938845 0.885362 0.953371
0.997752 0.881386 0.943604
-0.068644 0.935998 0.910628
0.159386 0.944137 0.927719
0.437246 0.953511 0.943852
0.821308 0.961095 0.958549
0.961922 0.968007 0.968437
0.999737 0.968449 0.963653
0.144497 0.984194 0.830832
0.312520 0.989781 0.846658
0.593055 0.994680 0.880671
0.857029 0.998249 0.935454
0.967709 0.999611 0.969859
0.997466 0.998028 0.972175
-0.068644 0.230563 0.297844
-0.068644 0.274709 0.363879
-0.068644 0.385085 0.556916
0.205920 0.467011 0.852691
0.673028 0.371651 0.906583
0.901104 0.271879 0.924206
-0.068644 0.324953 0.416836
-0.068644 0.398728 0.545675
-0.061993 0.501604 0.728996
0.291536 0.515215 0.925296
0.741337 0.456864 0.948251
0.928302 0.398083 0.950532
-0.068644 0.538421 0.731154
-0.068644 0.605907 0.844315
0.180693 0.656282 0.901710
0.491791 0.652023 0.979253
0.849118 0.695401 0.984579
0.962562 0.696240 0.975440
-0.068644 0.707341 0.915921
-0.067617 0.753074 0.961093
0.219564 0.779284 0.977041
0.693399 0.845516 0.985302
0.922918 0.895985 0.998800
0.983290 0.903844 0.988156
-0.068644 0.880018 0.977431
0.130992 0.882845 0.983981
0.389521 0.894206 0.990303
0.767142 0.937582 0.992660
0.949343 0.970063 0.995308
0.994291 0.975570 0.995505
0.155713 0.984347 0.954622
0.325678 0.988648 0.963876
0.608079 0.992437 0.975141
0.863948 0.995934 0.987235
0.966151 0.998682 0.994760
0.999436 1.000023 0.999393
