test-luts/NeonVibes.cube
LUT_3D_SIZE 16
-0.068644 -0.068644 -0.068439
-0.068644 -0.068644 -0.068598
-0.056848 -0.068644 -0.068644
0.129242 -0.068645 -0.068645
0.209430 -0.068645 -0.068645
0.293811 -0.068646 -0.068646
0.387366 -0.068648 -0.068648
0.491119 -0.068652 -0.068652
0.600644 -0.068656 -0.068656
0.703206 -0.068657 -0.068657
0.781934 -0.068662 -0.068662
0.836772 -0.068666 -0.068666
0.874932 -0.068669 -0.068669
0.903493 -0.068672 -0.068672
0.925752 -0.068673 -0.068673
0.943007 -0.068675 -0.068675
-0.068644 -0.068479 -0.066163
-0.068643 -0.068637 -0.068479
-0.059306 -0.068637 -0.068644
0.092839 -0.068565 -0.068644
0.161519 -0.068338 -0.068645
0.220519 -0.068120 -0.068645
0.279956 -0.067998 -0.068646
0.356903 -0.068079 -0.068648
0.445263 -0.068332 -0.068650
0.562609 -0.068539 -0.068654
0.679800 -0.068621 -0.068660
0.765507 -0.068620 -0.068661
0.828609 -0.068599 -0.068665
0.874039 -0.068518 -0.068669
0.905014 -0.068354 -0.068672
0.926179 -0.067987 -0.068674
-0.068644 -0.040162 -0.047712
-0.068229 -0.050518 -0.055275
0.035158 -0.054875 -0.068263
0.135476 -0.048223 -0.068645
0.188400 -0.024844 -0.068645
0.245693 0.039906 -0.068646
0.306649 0.054042 -0.068647
0.378450 0.061291 -0.068649
0.460818 0.064394 -0.068651
0.549595 0.066569 -0.068654
0.641750 0.067821 -0.068659
0.722945 0.069296 -0.068659
0.784603 0.072477 -0.068663
0.832884 0.076092 -0.068666
0.871161 0.080840 -0.068669
0.899692 0.087529 -0.068672
-0.068621 0.127055 0.089142
-0.053332 0.121562 0.081382
0.104993 0.114836 0.031705
0.183269 0.101435 -0.068524
0.237117 0.106987 -0.068646
0.292670 0.117169 -0.068647
0.354092 0.129313 -0.068649
0.426044 0.143371 -0.068651
0.520722 0.159647 -0.068655
0.613370 0.174295 -0.068659
0.700811 0.186033 -0.068660
0.773915 0.194357 -0.068664
0.826135 0.199875 -0.068669
0.865382 0.204117 -0.068672
0.897034 0.207729 -0.068674
0.922162 0.211165 -0.068677
-0.059474 0.196503 0.141149
0.077616 0.198173 0.136484
0.150991 0.187415 0.136641
0.214449 0.180578 0.069320
0.281875 0.171647 -0.068561
0.347363 0.180815 -0.068649
0.420767 0.195919 -0.068652
0.505495 0.214924 -0.068656
0.604811 0.236928 -0.068656
0.691012 0.253879 -0.068662
0.759239 0.265470 -0.068666
0.814593 0.273696 -0.068671
0.857245 0.279324 -0.068674
0.888253 0.283011 -0.068677
0.913920 0.286044 -0.068673
0.934735 0.288586 -0.068675
0.055797 0.266941 0.177773
0.135227 0.271518 0.181259
0.192689 0.256742 0.180499
0.246035 0.254944 0.168614
0.312646 0.250744 0.086598
0.394239 0.248885 -0.068569
0.483898 0.267604 -0.068654
0.579801 0.290561 -0.068656
0.676451 0.311858 -0.068664
0.753716 0.326098 -0.068670
0.809057 0.333659 -0.068674
0.853177 0.338861 -0.068671
0.888224 0.342599 -0.068674
0.914156 0.345025 -0.068676
0.934389 0.347141 -0.068678
0.950949 0.349306 -0.068680
0.130054 0.352179 0.218140
0.174416 0.358526 0.216028
0.230511 0.344595 0.215699
0.280669 0.332408 0.207377
0.337255 0.333941 0.189094
0.419356 0.338455 0.108803
0.521405 0.346192 -0.067816
0.629706 0.369511 -0.068656
0.722351 0.389069 -0.068666
0.792746 0.399745 -0.068675
0.839831 0.404452 -0.068675
0.877747 0.407081 -0.068679
0.908020 0.408790 -0.068682
0.931014 0.410131 -0.068684
0.947994 0.411431 -0.068685
0.964574 0.410248 -0.068687
0.162006 0.459778 0.245754
0.203716 0.467954 0.240718
0.259751 0.456723 0.237059
0.315977 0.433299 0.235220
0.371784 0.426982 0.218616
0.436388 0.431160 0.194560
0.525951 0.444944 0.129906
0.634580 0.450382 -0.065147
0.739254 0.467303 -0.068531
0.810791 0.474458 -0.068670
0.855460 0.476412 -0.068671
0.890862 0.477313 -0.068677
0.918969 0.477500 -0.068682
0.940368 0.477258 -0.068686
0.956187 0.477123 -0.068689
0.972845 0.473321 -0.068688
0.184618 0.599966 0.265103
0.223926 0.607798 0.252705
0.283983 0.602112 0.246647
0.350122 0.577274 0.246178
0.409896 0.551058 0.238132
0.475699 0.549020 0.215605
0.541889 0.551729 0.187657
0.630595 0.564545 0.132512
0.723466 0.560320 -0.058987
0.806935 0.558763 -0.066892
0.859311 0.555839 -0.068322
0.896794 0.551994 -0.068650
0.924637 0.548480 -0.068674
0.945855 0.546215 -0.068678
0.961371 0.544181 -0.068682
0.978402 0.539254 -0.068684
0.194631 0.735550 0.262763
0.234086 0.741585 0.245661
0.299876 0.741995 0.242379
0.370750 0.722558 0.241696
0.439908 0.700536 0.236806
0.502657 0.678343 0.225195
0.573071 0.677153 0.201512
0.645366 0.679029 0.162491
0.725282 0.681032 0.120490
0.795608 0.667433 -0.042961
0.847766 0.651861 -0.063364
0.892064 0.638368 -0.065471
0.924784 0.627565 -0.067409
0.948280 0.619786 -0.068387
0.964882 0.613149 -0.068657
0.978692 0.613944 -0.065338
0.198929 0.826891 0.243776
0.244174 0.830645 0.230109
0.308072 0.832024 0.229437
0.375474 0.818696 0.227481
0.444139 0.803868 0.222563
0.510124 0.786908 0.214098
0.576510 0.771020 0.198927
0.652840 0.772032 0.173009
0.729776 0.773504 0.132803
0.795748 0.768602 0.094039
0.845510 0.749210 -0.036014
0.886348 0.727488 -0.061076
0.919372 0.708803 -0.062967
0.946142 0.691804 -0.063853
0.964732 0.679391 -0.066304
0.978486 0.679671 -0.047651
0.200194 0.889296 0.217231
0.252058 0.891882 0.211560
0.309167 0.892332 0.209776
0.369688 0.883081 0.207124
0.433501 0.872514 0.203109
0.500407 0.860718 0.195539
0.569428 0.847005 0.183780
0.641601 0.837053 0.164666
0.719246 0.838645 0.136319
0.786837 0.838899 0.097714
0.846547 0.834768 0.043621
0.886346 0.811028 -0.044176
0.918481 0.786434 -0.059744
0.943828 0.764951 -0.061384
0.962208 0.746380 -0.060703
0.978307 0.737589 0.042415
0.203841 0.931674 0.189989
0.254220 0.933067 0.188143
0.304564 0.932565 0.185999
0.360427 0.925917 0.183619
0.421178 0.918458 0.179449
0.487338 0.910057 0.173314
0.557684 0.900407 0.164605
0.628003 0.889368 0.151090
0.700585 0.885825 0.133177
0.767531 0.886860 0.111580
0.830660 0.887547 0.077066
0.890359 0.886867 0.044852
0.921577 0.861224 0.042806
0.946072 0.836032 0.017290
0.963870 0.814817 -0.005118
0.977849 0.800786 0.104482
0.206535 0.959583 0.169969
0.253066 0.960341 0.167887
0.301180 0.959516 0.165632
0.354957 0.954388 0.163328
0.414163 0.948916 0.159532
0.479025 0.942835 0.154326
0.548658 0.935899 0.147195
0.618592 0.928332 0.138728
0.683390 0.920777 0.129135
0.748179 0.920754 0.117244
0.810276 0.921910 0.103977
0.869999 0.923240 0.088715
0.925534 0.923901 0.087940
0.948942 0.898416 0.107827
0.966143 0.874977 0.108023
0.979372 0.857369 0.141243
0.212069 0.977445 0.158624
0.257098 0.978025 0.156766
0.304113 0.977007 0.155000
0.356806 0.973124 0.153501
0.414218 0.969046 0.150179
0.478629 0.964381 0.146541
0.547065 0.959561 0.142020
0.613722 0.954187 0.137488
0.674333 0.948387 0.133564
0.733964 0.944331 0.129611
0.794982 0.945411 0.123741
0.852682 0.946729 0.119251
0.906464 0.948109 0.115633
0.951803 0.945893 0.124004
0.968262 0.922134 0.143567
0.980618 0.902438 0.170049
0.222246 0.990163 0.157174
0.265626 0.990532 0.155807
0.311432 0.989669 0.154406
0.362757 0.987006 0.152861
0.420534 0.983895 0.151671
0.484198 0.980555 0.150124
0.550532 0.976856 0.148622
0.610847 0.972964 0.147412
0.669549 0.968962 0.147505
0.725951 0.964723 0.147439
0.783072 0.963269 0.144865
0.838592 0.964262 0.143482
0.889904 0.965360 0.143126
0.935868 0.966335 0.143202
0.969963 0.962285 0.152905
0.981996 0.941203 0.203373
-0.068644 -0.068644 -0.067839
-0.068644 -0.068644 -0.062417
-0.038507 -0.068644 -0.065460
0.169943 -0.068645 -0.067069
0.260976 -0.068646 -0.068310
0.350044 -0.068647 -0.068601
0.443833 -0.068650 -0.068625
0.559753 -0.068654 -0.068627
0.669142 -0.068660 -0.068630
0.756796 -0.068660 -0.068636
0.822149 -0.068665 -0.068640
0.868746 -0.068669 -0.068649
0.900807 -0.068671 -0.068657
0.925317 -0.068673 -0.068662
0.944237 -0.068675 -0.068669
0.959215 -0.068677 -0.068675
-0.068644 -0.068353 -0.057434
-0.068644 -0.067564 -0.045899
-0.065118 -0.067198 -0.055203
0.110610 -0.067458 -0.060383
0.200318 -0.068185 -0.065449
0.274189 -0.068575 -0.068118
0.344122 -0.068636 -0.068621
0.422734 -0.068641 -0.068644
0.527804 -0.068643 -0.068653
0.655134 -0.068654 -0.068659
0.756579 -0.068658 -0.068660
0.823307 -0.068663 -0.068665
0.872492 -0.068667 -0.068669
0.907863 -0.068670 -0.068672
0.931820 -0.068670 -0.068674
0.948786 -0.068668 -0.068676
-0.068644 -0.041535 0.028118
-0.068622 -0.026917 0.041852
-0.036203 -0.035042 -0.037881
0.149976 -0.034365 -0.064237
0.219797 -0.037231 -0.068523
0.273566 -0.030669 -0.068639
0.331279 -0.020280 -0.068647
0.398620 0.015042 -0.068649
0.475764 0.023231 -0.068651
0.563924 0.025001 -0.068655
0.659147 0.026764 -0.068659
0.740529 0.030415 -0.068660
0.800845 0.034904 -0.068664
0.847765 0.040948 -0.068667
0.883905 0.048271 -0.068670
0.909786 0.057599 -0.068672
-0.068644 0.127055 0.111245
-0.064113 0.134384 0.113901
0.094954 0.125587 0.100787
0.182481 0.114208 -0.047615
0.251417 0.106816 -0.068573
0.305963 0.114126 -0.068648
0.364002 0.124801 -0.068649
0.438754 0.137852 -0.068651
0.532812 0.153899 -0.068655
0.625208 0.167259 -0.068659
0.711580 0.178186 -0.068660
0.781802 0.185947 -0.068665
0.831590 0.191463 -0.068669
0.869977 0.195766 -0.068672
0.900816 0.199744 -0.068674
0.925256 0.203398 -0.068677
-0.066686 0.198280 0.158287
0.032587 0.204816 0.154960
0.144437 0.194333 0.152697
0.210346 0.191774 0.125132
0.287671 0.179391 -0.061489
0.358274 0.181432 -0.068648
0.430081 0.195461 -0.068653
0.516155 0.214485 -0.068656
0.615134 0.236141 -0.068657
0.698380 0.252106 -0.068662
0.765178 0.263217 -0.068667
0.819284 0.271057 -0.068671
0.860679 0.276521 -0.068675
0.891468 0.279981 -0.068670
0.916561 0.282859 -0.068673
0.937066 0.285569 -0.068675
0.035591 0.269805 0.200248
0.118054 0.277648 0.196128
0.185570 0.268382 0.194590
0.242640 0.261495 0.184617
0.311830 0.261109 0.131344
0.401536 0.257382 -0.062735
0.493773 0.270172 -0.068655
0.589736 0.292405 -0.068657
0.685347 0.312976 -0.068665
0.760408 0.326000 -0.068670
0.814017 0.333046 -0.068675
0.857211 0.338024 -0.068671
0.891475 0.341532 -0.068674
0.916521 0.343880 -0.068677
0.936246 0.346020 -0.068678
0.954478 0.346524 -0.068680
0.126167 0.356418 0.243371
0.159553 0.366391 0.231729
0.219408 0.361714 0.228198
0.277209 0.342094 0.221350
0.335913 0.341462 0.205271
0.421187 0.348662 0.145335
0.528256 0.356060 -0.058877
0.638582 0.373806 -0.068651
0.729286 0.391269 -0.068667
0.797311 0.400897 -0.068675
0.843621 0.405159 -0.068675
0.880924 0.407484 -0.068679
0.910566 0.409066 -0.068682
0.932962 0.410294 -0.068684
0.949545 0.411253 -0.068686
0.967980 0.408149 -0.068687
0.163147 0.466447 0.277136
0.190196 0.479205 0.260633
0.243713 0.481157 0.250583
0.311233 0.453572 0.248821
0.370843 0.438018 0.233820
0.437359 0.441234 0.211468
0.529105 0.456942 0.164036
0.644273 0.464606 -0.032007
0.744028 0.473054 -0.067943
0.814261 0.477742 -0.068669
0.858529 0.478959 -0.068671
0.893408 0.479177 -0.068677
0.921324 0.478920 -0.068682
0.942269 0.478659 -0.068686
0.957630 0.478122 -0.068689
0.976623 0.472532 -0.068688
0.183134 0.608309 0.297871
0.210603 0.620337 0.276994
0.261301 0.624536 0.259219
0.340397 0.602434 0.260227
0.409168 0.572262 0.253651
0.476600 0.562554 0.232771
0.546135 0.565851 0.207652
0.635613 0.578482 0.166153
0.733390 0.578445 0.086106
0.810546 0.567584 -0.060007
0.861089 0.561100 -0.067379
0.898734 0.555954 -0.068535
0.926865 0.551186 -0.068674
0.947926 0.547976 -0.068678
0.963212 0.545651 -0.068682
0.979784 0.543759 -0.068024
0.188871 0.743352 0.295233
0.221082 0.751033 0.274240
0.276221 0.755768 0.258280
0.356194 0.744023 0.258234
0.433710 0.721699 0.254378
0.501570 0.696914 0.244119
0.574054 0.690481 0.222692
0.649915 0.692936 0.188363
0.731137 0.695707 0.158749
0.802804 0.685131 0.116034
0.853144 0.665655 0.039680
0.894761 0.647277 -0.052620
0.926630 0.634399 -0.062764
0.949615 0.626206 -0.066072
0.966117 0.618955 -0.067533
0.979683 0.620485 -0.055467
0.190497 0.832987 0.276765
0.228038 0.837247 0.258311
0.287391 0.840838 0.249010
0.360340 0.834295 0.248114
0.434199 0.819972 0.244797
0.505178 0.803993 0.237470
0.575253 0.785845 0.225276
0.653942 0.784240 0.204210
0.733948 0.786499 0.172900
0.802314 0.784977 0.153530
0.853148 0.767290 0.134453
0.892880 0.745185 0.111043
0.924040 0.723413 0.086614
0.949498 0.704418 0.050193
0.967006 0.692079 0.022107
0.980513 0.692093 0.087769
0.190576 0.893244 0.252040
0.233251 0.895750 0.237094
0.292878 0.898103 0.234939
0.356392 0.893892 0.233312
0.423779 0.884152 0.230515
0.494723 0.873097 0.224958
0.568348 0.860543 0.216402
0.641802 0.848232 0.203390
0.721254 0.849525 0.184242
0.790771 0.850965 0.163692
0.854751 0.851449 0.154829
0.894414 0.828966 0.151659
0.925451 0.804772 0.142248
0.949055 0.782280 0.137083
0.967022 0.763290 0.131996
0.981446 0.752441 0.145247
0.192848 0.934162 0.227779
0.239684 0.935509 0.220699
0.292101 0.936791 0.219095
0.349312 0.934159 0.216858
0.413334 0.927184 0.214594
0.482764 0.919409 0.210304
0.556343 0.910549 0.204462
0.630483 0.900857 0.195741
0.701798 0.894240 0.186008
0.770007 0.895696 0.174549
0.833777 0.897092 0.162935
0.895238 0.898986 0.159210
0.927379 0.875348 0.168544
0.950789 0.850486 0.166189
0.967721 0.829002 0.166363
0.980691 0.811546 0.182817
0.196262 0.961107 0.212575
0.243576 0.961860 0.209854
0.292475 0.962698 0.208176
0.346594 0.960954 0.205847
0.408107 0.955832 0.203582
0.475961 0.950245 0.200875
0.548499 0.944156 0.196577
0.621169 0.937386 0.191941
0.686945 0.930334 0.187005
0.750662 0.927568 0.182261
0.813213 0.929004 0.176201
0.872515 0.930465 0.171225
0.928080 0.932121 0.171699
0.952860 0.908624 0.188190
0.969203 0.885109 0.189247
0.981690 0.865388 0.202362
0.206274 0.978519 0.207459
0.252145 0.979101 0.206268
0.298832 0.979736 0.204997
0.351283 0.978366 0.203386
0.411152 0.974475 0.202097
0.477676 0.970286 0.200361
0.548789 0.965694 0.198219
0.617083 0.960923 0.196280
0.678889 0.956017 0.194879
0.737276 0.951088 0.193374
0.797858 0.950687 0.190561
0.854772 0.952022 0.188639
0.907955 0.953210 0.187201
0.955035 0.953997 0.191516
0.970730 0.930247 0.210609
0.982655 0.909265 0.224637
0.221171 0.990922 0.211431
0.264346 0.991228 0.210475
0.309271 0.991521 0.209648
0.360224 0.990661 0.208467
0.419166 0.987956 0.208204
0.484728 0.984977 0.207833
0.551074 0.981687 0.206102
0.612967 0.978387 0.206203
0.672883 0.974646 0.206670
0.730089 0.970690 0.207661
0.785341 0.967526 0.208069
0.840614 0.968381 0.207390
0.891164 0.969416 0.207285
0.936091 0.970300 0.207787
0.972192 0.968801 0.212890
0.983878 0.947121 0.254369
-0.068644 -0.068644 -0.065884
-0.068644 -0.068643 -0.048652
-0.065823 -0.068625 0.046781
0.146377 -0.068640 0.052784
0.246365 -0.068646 0.029491
0.342860 -0.068647 -0.044909
0.443461 -0.068650 -0.054272
0.566169 -0.068655 -0.057381
0.680355 -0.068660 -0.059110
0.767552 -0.068661 -0.060428
0.831757 -0.068666 -0.061639
0.878675 -0.068670 -0.062589
0.910644 -0.068672 -0.063370
0.934437 -0.068674 -0.063947
0.953170 -0.068676 -0.064614
0.968184 -0.068670 -0.065014
-0.068644 -0.067739 -0.045235
-0.068644 -0.065431 0.033812
-0.068386 -0.062053 0.086661
0.096817 -0.062283 0.058984
0.203593 -0.063790 0.064650
0.296899 -0.065810 0.049513
0.404036 -0.067886 -0.025022
0.516517 -0.068545 -0.046760
0.637887 -0.068641 -0.058441
0.750063 -0.068657 -0.063646
0.823790 -0.068665 -0.065389
0.874583 -0.068669 -0.066230
0.912722 -0.068672 -0.066971
0.940797 -0.068675 -0.067507
0.960239 -0.068677 -0.067831
0.974295 -0.068671 -0.068037
-0.068644 -0.038733 0.081684
-0.068644 0.040875 0.109202
-0.067003 0.066816 0.122493
0.118254 0.065603 0.109746
0.218825 0.039218 0.080414
0.300003 0.024553 0.038493
0.390913 0.049773 -0.025769
0.517692 0.039207 -0.054196
0.647922 -0.024698 -0.063643
0.750738 -0.045771 -0.066759
0.818956 -0.052323 -0.067651
0.866867 -0.056910 -0.068186
0.902029 -0.058717 -0.068397
0.929838 -0.059463 -0.068518
0.952000 -0.059594 -0.068587
0.968269 -0.057928 -0.068612
-0.068644 0.127787 0.133632
-0.068637 0.139483 0.148738
0.017599 0.147378 0.152695
0.167050 0.144275 0.121977
0.261929 0.131316 0.070473
0.338278 0.128845 0.017498
0.441754 0.131384 -0.058615
0.554238 0.134373 -0.067170
0.647371 0.142672 -0.068119
0.727975 0.147571 -0.068452
0.794823 0.150464 -0.068614
0.846318 0.153042 -0.068657
0.882998 0.155708 -0.068666
0.912105 0.158533 -0.068670
0.935924 0.161217 -0.068672
0.955300 0.163821 -0.068674
-0.068644 0.200186 0.177461
-0.062428 0.209801 0.188110
0.116335 0.215417 0.187311
0.197177 0.207539 0.174004
0.286991 0.204046 0.101442
0.375509 0.200416 0.024686
0.481332 0.208635 -0.061713
0.580674 0.220579 -0.067803
0.675911 0.234718 -0.068531
0.750009 0.243939 -0.068661
0.804793 0.251478 -0.068669
0.850309 0.256970 -0.068673
0.886816 0.259901 -0.068676
0.915020 0.261169 -0.068671
0.938403 0.261764 -0.068673
0.958161 0.261546 -0.068675
-0.062878 0.273038 0.221146
0.079292 0.283061 0.227695
0.161646 0.289238 0.224309
0.232007 0.275166 0.213198
0.300530 0.276098 0.193114
0.406887 0.280301 0.099188
0.519044 0.289774 -0.035379
0.636221 0.303466 -0.066450
0.726254 0.315358 -0.068402
0.791574 0.322285 -0.068658
0.838664 0.326215 -0.068676
0.875609 0.330243 -0.068672
0.906274 0.332835 -0.068675
0.930287 0.333515 -0.068677
0.950078 0.333450 -0.068679
0.970700 0.329565 -0.068678
0.084341 0.362557 0.264762
0.145097 0.373241 0.269587
0.196012 0.381809 0.257631
0.265676 0.365089 0.248050
0.331067 0.355947 0.235529
0.415173 0.364135 0.204152
0.537706 0.382126 0.116607
0.655685 0.394976 0.016798
0.756194 0.401907 -0.063918
0.820811 0.402723 -0.068047
0.862382 0.403390 -0.068458
0.896785 0.402912 -0.068619
0.924163 0.402531 -0.068663
0.945232 0.401933 -0.068667
0.961435 0.401411 -0.068649
0.981215 0.396829 -0.068252
0.144489 0.477104 0.309134
0.181744 0.489097 0.304512
0.222647 0.500441 0.285089
0.293538 0.488840 0.272217
0.366691 0.459698 0.263520
0.438109 0.460089 0.245396
0.529743 0.475343 0.218122
0.657291 0.495051 0.149594
0.758640 0.501010 0.081121
0.826747 0.495643 -0.036396
0.872443 0.490052 -0.059133
0.907440 0.484022 -0.065455
0.934535 0.479364 -0.067371
0.953899 0.476968 -0.067633
0.969281 0.474348 -0.067680
0.983447 0.477946 -0.057392
0.173545 0.619194 0.340994
0.204234 0.630323 0.327058
0.241220 0.641293 0.301109
0.314582 0.638306 0.283782
0.402795 0.606808 0.281220
0.474919 0.583926 0.266308
0.550793 0.587590 0.240953
0.641275 0.599832 0.221268
0.746350 0.605926 0.184924
0.825016 0.598307 0.129307
0.871942 0.589460 0.095401
0.907287 0.580235 0.068717
0.934563 0.571194 0.039902
0.955548 0.564883 0.025267
0.970756 0.559826 0.013333
0.983940 0.561633 0.054882
0.185457 0.750629 0.345420
0.214824 0.758550 0.326334
0.253228 0.765923 0.298617
0.328812 0.768096 0.284985
0.419134 0.748231 0.283553
0.498229 0.724676 0.276101
0.573230 0.709012 0.260471
0.655617 0.713020 0.234564
0.740001 0.717587 0.218258
0.812424 0.708491 0.203224
0.864619 0.690887 0.177815
0.905775 0.674517 0.147567
0.934745 0.662979 0.126437
0.956372 0.653007 0.109892
0.972192 0.644291 0.099136
0.984911 0.642606 0.109215
0.189578 0.837651 0.329806
0.220086 0.842679 0.308705
0.262849 0.847137 0.285843
0.336515 0.849410 0.279171
0.417884 0.838271 0.277509
0.496980 0.823217 0.272990
0.574379 0.806447 0.263605
0.654346 0.798546 0.248169
0.737918 0.802225 0.226135
0.810693 0.804134 0.218795
0.860731 0.786506 0.213346
0.900106 0.764447 0.204041
0.931497 0.743191 0.189484
0.955908 0.726764 0.168757
0.972014 0.715748 0.154919
0.984809 0.709769 0.157637
0.190570 0.896202 0.306395
0.224030 0.899391 0.286780
0.270616 0.901687 0.271272
0.337948 0.903419 0.269853
0.409848 0.896986 0.268138
0.486148 0.886605 0.264669
0.565272 0.875178 0.258540
0.642568 0.862468 0.249710
0.722773 0.860330 0.236840
0.793901 0.862579 0.223336
0.859735 0.864972 0.219050
0.900387 0.843778 0.223957
0.930511 0.819236 0.219657
0.953235 0.796751 0.218254
0.970881 0.777981 0.207620
0.984359 0.766618 0.204399
0.192023 0.936065 0.283003
0.228472 0.937690 0.268710
0.277351 0.938833 0.261755
0.336554 0.940116 0.260264
0.403146 0.936205 0.258511
0.476584 0.929012 0.255972
0.553992 0.921106 0.251663
0.632167 0.912479 0.246321
0.703626 0.903904 0.240762
0.772065 0.904076 0.233130
0.836347 0.905747 0.226149
0.897543 0.907823 0.224237
0.931938 0.886919 0.236553
0.954278 0.861623 0.235990
0.970485 0.839851 0.236981
0.982892 0.821868 0.247071
0.193639 0.962356 0.266797
0.234797 0.963315 0.259020
0.283750 0.964103 0.256515
0.338555 0.965148 0.254847
0.401442 0.962540 0.253387
0.472053 0.957432 0.251400
0.548334 0.951690 0.249563
0.623081 0.945702 0.246703
0.690955 0.939437 0.244006
0.752436 0.934198 0.241559
0.815336 0.935281 0.237701
0.874354 0.936794 0.234998
0.929171 0.938359 0.235672
0.956033 0.917530 0.252448
0.971707 0.894081 0.254305
0.983644 0.873356 0.260749
0.202998 0.979519 0.260827
0.247827 0.980050 0.258671
0.295332 0.980678 0.258364
0.347083 0.981333 0.257110
0.407066 0.979708 0.255743
0.475962 0.975819 0.255207
0.549149 0.971680 0.253755
0.619042 0.967359 0.252826
0.681889 0.962881 0.252372
0.741350 0.958208 0.252262
0.799982 0.955748 0.251744
0.856630 0.956763 0.250686
0.908945 0.958148 0.250197
0.955871 0.959260 0.252168
0.972967 0.937823 0.272930
0.984600 0.915518 0.279423
0.218720 0.991441 0.263163
0.266068 0.991780 0.266721
0.309981 0.992235 0.266246
0.359313 0.992635 0.265298
0.417169 0.991648 0.264607
0.484168 0.988989 0.264667
0.553125 0.986037 0.265306
0.615696 0.982996 0.265442
0.676534 0.979742 0.266381
0.734155 0.976224 0.267263
0.788580 0.972594 0.268619
0.842651 0.971996 0.268350
0.892320 0.973084 0.268791
0.936344 0.973889 0.269689
0.974034 0.974523 0.271324
0.985550 0.952649 0.305938
-0.068644 -0.068643 -0.058147
-0.068644 -0.068247 -0.036038
-0.068600 -0.061596 0.111100
0.075642 -0.064682 0.138921
0.208200 -0.067023 0.138604
0.321783 -0.068469 0.127831
0.430863 -0.068643 0.116866
0.551126 -0.068654 0.108159
0.676303 -0.068660 0.097893
0.767363 -0.068661 0.089446
0.832944 -0.068666 0.081483
0.880765 -0.068670 0.073853
0.912980 -0.068672 0.068005
0.936192 -0.068674 0.063678
0.954776 -0.068676 0.059575
0.969465 -0.068671 0.055817
-0.068644 -0.065554 0.023751
-0.068644 -0.060933 0.077124
-0.068644 -0.040492 0.121997
-0.045014 -0.033828 0.151589
0.170707 -0.041294 0.142777
0.279069 -0.050965 0.131618
0.394153 -0.058925 0.122996
0.540734 -0.065141 0.115226
0.672363 -0.067801 0.106172
0.764534 -0.068558 0.095969
0.832917 -0.068654 0.083245
0.881603 -0.068667 0.071861
0.917541 -0.068673 0.061717
0.943895 -0.068675 0.053672
0.962553 -0.068677 0.047137
0.976232 -0.068671 0.042115
-0.068644 0.026171 0.109140
-0.068644 0.068350 0.130747
-0.068644 0.093095 0.155140
-0.020525 0.104791 0.179301
0.189901 0.106993 0.168580
0.309540 0.072356 0.151047
0.409861 0.059045 0.134047
0.543695 0.048472 0.124013
0.682459 0.040704 0.115917
0.788008 0.030274 0.104415
0.863586 0.025976 0.092592
0.912511 0.005996 0.081532
0.945459 -0.036300 0.068033
0.969163 -0.046267 0.054274
0.985830 -0.052191 0.039134
0.995740 -0.053736 0.021539
-0.068644 0.126902 0.156081
-0.068644 0.145761 0.173799
-0.068199 0.159118 0.195471
0.089025 0.170633 0.206274
0.219134 0.170852 0.198025
0.334283 0.154214 0.176387
0.443523 0.131767 0.132574
0.569161 0.129505 0.096372
0.701805 0.140678 0.075356
0.796132 0.147418 0.064517
0.863468 0.148741 0.056882
0.910625 0.147819 0.050787
0.941492 0.146287 0.046474
0.963623 0.145144 0.042817
0.980123 0.144590 0.039363
0.991705 0.144146 0.036142
-0.068644 0.200304 0.197726
-0.068643 0.213251 0.212015
-0.050552 0.223881 0.228597
0.158769 0.231717 0.229186
0.252149 0.230324 0.200811
0.373497 0.222479 0.157400
0.487762 0.222580 0.118947
0.621201 0.234025 0.086791
0.746786 0.244204 0.066362
0.826156 0.245023 0.054960
0.880060 0.242283 0.047051
0.919415 0.238477 0.039552
0.946702 0.234082 0.030878
0.966415 0.231238 0.029121
0.981129 0.229365 0.027987
0.992046 0.228094 0.027572
-0.068644 0.275107 0.240649
-0.065044 0.286137 0.253235
0.106502 0.297688 0.266114
0.202627 0.304007 0.262560
0.282822 0.294730 0.245585
0.391068 0.300225 0.182321
0.521974 0.308939 0.122489
0.651809 0.326470 0.091671
0.763140 0.337100 0.070290
0.834591 0.337319 0.057242
0.883036 0.333160 0.047977
0.919636 0.327365 0.038825
0.945910 0.323107 0.031528
0.964844 0.319930 0.029904
0.979377 0.317548 0.029391
0.991118 0.316913 0.032947
-0.062602 0.365669 0.289814
0.075805 0.378698 0.299732
0.163907 0.391578 0.308347
0.236335 0.400144 0.298126
