test-luts/RedHaze.cube
LUT_3D_SIZE 6
-0.075047 -0.075047 -0.075047
0.090761 -0.075047 -0.075047
0.307739 -0.075047 -0.075047
0.539096 -0.075047 -0.075047
0.723505 -0.075047 -0.075047
0.887793 -0.075047 -0.075047
-0.075048 0.086009 -0.075048
0.124030 0.092770 -0.075047
0.333516 0.110831 -0.075047
0.547064 0.129833 -0.075047
0.721733 0.147959 -0.075047
0.887996 0.162414 -0.075047
-0.074557 0.301262 -0.075053
0.148141 0.311805 -0.075053
0.327705 0.325697 -0.075047
0.532873 0.353783 -0.075047
0.714029 0.375262 -0.075047
0.888360 0.382069 -0.075034
-0.074800 0.540773 -0.075071
0.130825 0.550740 -0.075072
0.312461 0.561376 -0.075069
0.523269 0.571744 -0.075047
0.713276 0.583217 -0.074541
0.888630 0.572384 -0.071948
-0.075092 0.730768 -0.075092
0.109905 0.735873 -0.075091
0.310550 0.740473 -0.074601
0.533882 0.743622 -0.072492
0.723204 0.747227 -0.066636
0.889148 0.729038 -0.050624
-0.075120 0.888704 -0.074500
0.123106 0.889330 -0.072276
0.339321 0.889676 -0.066215
0.549845 0.889537 -0.051579
0.719712 0.889423 0.029897
0.889747 0.889766 0.067054
-0.075047 -0.075047 0.078849
0.096775 -0.075047 0.079408
0.313582 -0.075047 0.089284
0.542196 -0.075047 0.097039
0.724434 -0.075047 0.100269
0.888259 -0.075037 0.102031
-0.075047 0.088453 0.079744
0.131903 0.097930 0.082576
0.339016 0.112655 0.085506
0.548679 0.130370 0.092252
0.722957 0.149884 0.102150
0.890126 0.168157 0.113702
-0.074297 0.305952 0.089902
0.131838 0.321469 0.044220
0.326322 0.334577 0.096809
0.532208 0.361588 0.108160
0.715556 0.382653 0.121485
0.890476 0.389004 0.136682
-0.075024 0.544918 0.108561
0.070517 0.558842 0.051639
0.301184 0.569585 0.056899
0.525914 0.578066 0.131727
0.716654 0.587591 0.147381
0.890761 0.576179 0.165215
-0.075092 0.732348 0.130193
0.050114 0.740373 0.113233
0.296820 0.745953 0.070383
0.537827 0.748239 0.133135
0.728273 0.750983 0.180657
0.891335 0.731784 0.202599
-0.075120 0.888555 0.152276
0.063046 0.892152 0.129894
0.326869 0.894177 0.087061
0.548612 0.894129 0.115756
0.724169 0.891787 0.213455
0.891719 0.891733 0.239994
-0.075047 -0.075047 0.283779
0.111439 -0.075047 0.283827
0.319221 -0.075047 0.286536
0.544701 -0.075047 0.298824
0.724612 -0.075047 0.302787
0.888352 -0.074897 0.300004
-0.075047 0.099275 0.284523
0.140758 0.103247 0.287138
0.340345 0.115072 0.290756
0.547141 0.131758 0.304272
0.722125 0.151834 0.313237
0.890945 0.174177 0.314733
-0.074158 0.309764 0.287133
0.138977 0.325437 0.294744
0.317233 0.347330 0.285648
0.531660 0.365678 0.313866
0.717740 0.386430 0.327226
0.892582 0.400909 0.342705
-0.075062 0.548313 0.310706
0.051857 0.562639 0.314114
0.198387 0.586906 0.245074
0.527239 0.584383 0.333446
0.720627 0.591113 0.351748
0.892794 0.583217 0.369944
-0.075093 0.734107 0.330767
0.050223 0.742026 0.338481
0.181822 0.758485 0.258191
0.511281 0.761600 0.226073
0.733708 0.754444 0.383788
0.893134 0.736492 0.403733
-0.075121 0.888662 0.344572
0.067312 0.892538 0.348715
0.212893 0.906430 0.244140
0.515101 0.905965 0.239286
0.723660 0.897328 0.363078
0.893577 0.893587 0.433750
-0.075047 -0.075047 0.515186
0.126117 -0.075047 0.515139
0.336148 -0.075047 0.515344
0.546549 -0.075047 0.517289
0.724496 -0.075047 0.521956
0.888500 -0.074512 0.510364
-0.074984 0.109928 0.516022
0.149067 0.109646 0.518457
0.348810 0.121933 0.519840
0.544564 0.137866 0.524689
0.720576 0.158913 0.531608
0.890947 0.181791 0.521121
-0.074033 0.326216 0.517259
0.136188 0.340149 0.523553
0.320124 0.354058 0.530585
0.529483 0.372191 0.536866
0.718391 0.393411 0.543985
0.893226 0.412885 0.541589
-0.075047 0.551605 0.526199
0.102672 0.564674 0.534333
0.301799 0.577705 0.543075
0.507413 0.596760 0.542284
0.725065 0.598054 0.562960
0.894918 0.603997 0.574667
-0.075054 0.735443 0.539856
0.091580 0.742453 0.548566
0.230353 0.756403 0.541205
0.468180 0.775083 0.492028
0.739823 0.757989 0.581945
0.895118 0.747008 0.593687
-0.075090 0.888585 0.538320
0.095459 0.892388 0.544353
0.222999 0.906538 0.513453
0.465804 0.920597 0.458110
0.700588 0.912277 0.461446
0.895311 0.895317 0.609160
-0.075047 -0.075047 0.710263
0.136001 -0.075047 0.710486
0.345315 -0.075047 0.710458
0.551250 -0.075047 0.710732
0.723813 -0.075040 0.711619
0.888604 -0.073746 0.691579
-0.074637 0.116349 0.711007
0.153686 0.116560 0.713198
0.350093 0.129911 0.714301
0.544002 0.146795 0.716221
0.719233 0.166228 0.718702
0.891074 0.189402 0.698103
-0.074095 0.335250 0.712157
0.132838 0.349649 0.715962
0.317333 0.363454 0.720290
0.528201 0.382010 0.723547
0.718132 0.399961 0.726892
0.893256 0.417579 0.708870
-0.075047 0.558389 0.715199
0.100937 0.570240 0.720111
0.304303 0.580693 0.725749
0.535427 0.592631 0.731548
0.727513 0.602413 0.736100
0.895289 0.612160 0.728399
-0.075047 0.736942 0.719861
0.106226 0.743442 0.725664
0.330632 0.749515 0.731767
0.564919 0.755662 0.738965
0.741547 0.764016 0.742303
0.896872 0.764822 0.753222
-0.075043 0.888243 0.705661
0.158101 0.890963 0.711757
0.340910 0.898658 0.713825
0.470645 0.918406 0.692731
0.710522 0.913935 0.699400
0.897089 0.897091 0.759851
-0.075047 -0.075047 0.887850
0.138720 -0.075047 0.887951
0.339645 -0.075047 0.888020
0.534810 -0.075047 0.888236
0.700586 -0.074822 0.888358
0.888740 -0.072493 0.888693
-0.074007 0.116864 0.888529
0.153905 0.123771 0.890214
0.337901 0.138356 0.890525
0.524377 0.156293 0.890637
0.694474 0.176254 0.890947
0.891161 0.196908 0.891177
-0.074332 0.331129 0.888500
0.128964 0.346901 0.890388
0.314833 0.368166 0.892361
0.518764 0.391767 0.893005
0.697118 0.409003 0.893176
0.893317 0.422180 0.893346
-0.075047 0.545128 0.888027
0.102679 0.556282 0.890153
0.307350 0.567908 0.892311
0.541910 0.591594 0.894499
0.718693 0.607506 0.895234
0.895378 0.614867 0.895389
-0.075047 0.716718 0.887974
0.115620 0.722053 0.890176
0.343281 0.728540 0.892630
0.574149 0.741658 0.894922
0.751644 0.762911 0.896838
0.897260 0.767807 0.897249
-0.074673 0.888491 0.888447
0.176042 0.890905 0.890861
0.408652 0.893245 0.893204
0.611483 0.895371 0.895337
0.767468 0.897234 0.897204
0.898814 0.898813 0.898782
