test-luts/RedHaze.cube
LUT_3D_SIZE 16
-0.075047 -0.075047 -0.075047
-0.074887 -0.075047 -0.075047
-0.053462 -0.075047 -0.075047
0.090761 -0.075047 -0.075047
0.159707 -0.075047 -0.075047
0.230532 -0.075047 -0.075047
0.307739 -0.075047 -0.075047
0.388086 -0.075047 -0.075047
0.466728 -0.075047 -0.075047
0.539096 -0.075047 -0.075047
0.604464 -0.075047 -0.075047
0.665255 -0.075047 -0.075047
0.723505 -0.075047 -0.075047
0.780539 -0.075047 -0.075047
0.836193 -0.075047 -0.075047
0.887793 -0.075047 -0.075047
-0.075047 -0.074912 -0.075047
-0.074372 -0.074872 -0.075047
-0.042424 -0.074786 -0.075047
0.101683 -0.074671 -0.075047
0.169862 -0.074505 -0.075047
0.240966 -0.074270 -0.075047
0.317882 -0.073933 -0.075047
0.396848 -0.073485 -0.075047
0.473502 -0.072882 -0.075047
0.543885 -0.072071 -0.075047
0.607533 -0.071001 -0.075047
0.667004 -0.069571 -0.075047
0.724268 -0.067693 -0.075047
0.780521 -0.065409 -0.075047
0.836064 -0.062678 -0.075047
0.887888 -0.059177 -0.075047
-0.075048 -0.055632 -0.075048
-0.072885 -0.054636 -0.075048
0.011973 -0.053230 -0.075047
0.113163 -0.050807 -0.075047
0.180354 -0.046551 -0.075047
0.251061 -0.040374 -0.075047
0.326833 -0.030696 -0.075047
0.404098 0.009982 -0.075047
0.478526 0.033705 -0.075047
0.546805 0.045716 -0.075047
0.608872 0.055243 -0.075047
0.667172 0.063431 -0.075047
0.723577 0.071148 -0.075047
0.779940 0.078110 -0.075047
0.835386 0.084643 -0.075047
0.887994 0.090007 -0.075047
-0.075048 0.086009 -0.075048
-0.069943 0.087604 -0.075048
0.048190 0.089561 -0.075048
0.124030 0.092770 -0.075047
0.189788 0.098250 -0.075047
0.259465 0.104446 -0.075047
0.333516 0.110831 -0.075047
0.408476 0.117329 -0.075047
0.480736 0.123786 -0.075047
0.547064 0.129833 -0.075047
0.607877 0.135946 -0.075047
0.665539 0.141951 -0.075047
0.721733 0.147959 -0.075047
0.778288 0.153660 -0.075047
0.834660 0.158475 -0.075047
0.887996 0.162414 -0.075047
-0.075049 0.153996 -0.075049
-0.064980 0.155864 -0.075049
0.067079 0.158033 -0.075049
0.134198 0.160404 -0.075047
0.196887 0.165227 -0.075047
0.264774 0.172189 -0.075047
0.336517 0.179530 -0.075047
0.409044 0.186749 -0.075047
0.479103 0.193741 -0.075047
0.544289 0.200650 -0.075047
0.604670 0.207407 -0.075047
0.662449 0.213977 -0.075047
0.719310 0.220320 -0.075047
0.776638 0.226034 -0.075047
0.833892 0.230460 -0.075047
0.887998 0.233410 -0.075047
-0.074991 0.223882 -0.075050
-0.058055 0.226349 -0.075050
0.080413 0.229180 -0.075050
0.143375 0.232419 -0.075049
0.202396 0.236002 -0.075047
0.265479 0.241745 -0.075047
0.334433 0.250295 -0.075047
0.404857 0.258855 -0.075047
0.474029 0.267271 -0.075047
0.539148 0.275339 -0.075047
0.600217 0.282985 -0.075047
0.658713 0.290171 -0.075047
0.716549 0.296806 -0.075047
0.774862 0.302309 -0.075047
0.833282 0.306002 -0.075047
0.888214 0.307677 -0.075047
-0.074557 0.301262 -0.075053
-0.050671 0.304486 -0.075053
0.088231 0.308020 -0.075053
0.148141 0.311805 -0.075053
0.205159 0.315876 -0.075050
0.264747 0.320408 -0.075047
0.327705 0.325697 -0.075047
0.397173 0.335437 -0.075047
0.466588 0.344972 -0.075047
0.532873 0.353783 -0.075047
0.595216 0.361740 -0.075047
0.655055 0.369023 -0.075047
0.714029 0.375262 -0.075047
0.773487 0.379955 -0.075047
0.832928 0.382380 -0.075047
0.888360 0.382069 -0.075034
-0.074071 0.383636 -0.075057
-0.047237 0.387059 -0.075057
0.088926 0.390891 -0.075057
0.146712 0.395016 -0.075058
0.202565 0.399392 -0.075057
0.261432 0.404189 -0.075053
0.324278 0.409052 -0.075047
0.389742 0.414388 -0.075047
0.458481 0.422324 -0.075047
0.526639 0.431366 -0.075047
0.590703 0.439386 -0.075047
0.652192 0.446052 -0.075047
0.712784 0.451353 -0.075047
0.773292 0.454768 -0.075043
0.832979 0.455344 -0.074962
0.888421 0.452536 -0.074714
-0.074211 0.465087 -0.075062
-0.051549 0.468614 -0.075062
0.082403 0.472509 -0.075062
0.140346 0.476457 -0.075063
0.195895 0.480686 -0.075064
0.254890 0.484969 -0.075062
0.318689 0.489286 -0.075055
0.385793 0.493669 -0.075048
0.453997 0.498294 -0.075047
0.521585 0.503995 -0.075047
0.588359 0.511293 -0.075047
0.651672 0.517125 -0.075047
0.712918 0.521157 -0.075002
0.773520 0.522876 -0.074800
0.833191 0.521273 -0.074402
0.888582 0.515745 -0.073793
-0.074800 0.540773 -0.075071
-0.059250 0.543935 -0.075071
0.070424 0.547259 -0.075072
0.130825 0.550740 -0.075072
0.187199 0.554207 -0.075073
0.247135 0.557893 -0.075074
0.312461 0.561376 -0.075069
0.382003 0.564825 -0.075056
0.453716 0.568164 -0.075047
0.523269 0.571744 -0.075047
0.588463 0.575769 -0.075024
0.651903 0.580543 -0.074880
0.713276 0.583217 -0.074541
0.774319 0.583231 -0.073997
0.834097 0.579601 -0.073165
0.888630 0.572384 -0.071948
-0.075075 0.608889 -0.075078
-0.066001 0.611577 -0.075078
0.053682 0.614415 -0.075078
0.120399 0.617206 -0.075078
0.178675 0.620049 -0.075079
0.240282 0.622916 -0.075080
0.309295 0.625668 -0.075080
0.382662 0.628321 -0.075065
0.455885 0.630801 -0.075028
0.525368 0.633308 -0.074895
0.590280 0.635798 -0.074624
0.653339 0.638145 -0.074179
0.715487 0.639658 -0.073443
0.776540 0.638573 -0.072317
0.835262 0.634138 -0.070649
0.888858 0.625674 -0.068357
-0.075084 0.671687 -0.075084
-0.070495 0.673916 -0.075085
0.030830 0.676098 -0.075085
0.111294 0.678311 -0.075085
0.173899 0.680468 -0.075086
0.239486 0.682657 -0.075086
0.310169 0.684812 -0.075055
0.383643 0.686697 -0.074906
0.457250 0.688423 -0.074604
0.528253 0.689874 -0.074160
0.594489 0.691449 -0.073519
0.657663 0.693069 -0.072565
0.719464 0.694114 -0.071131
0.779388 0.692169 -0.068984
0.837030 0.686716 -0.065995
0.889074 0.677383 -0.061972
-0.075092 0.730768 -0.075092
-0.072872 0.732580 -0.075092
-0.021192 0.734336 -0.075093
0.109905 0.735873 -0.075091
0.174022 0.737428 -0.075054
0.239796 0.738966 -0.074903
0.310550 0.740473 -0.074601
0.386416 0.741618 -0.074148
0.462468 0.742621 -0.073476
0.533882 0.743622 -0.072492
0.599458 0.744637 -0.071100
0.661815 0.745960 -0.069193
0.723204 0.747227 -0.066636
0.783169 0.745879 -0.062969
0.839050 0.739355 -0.057811
0.889148 0.729038 -0.050624
-0.075100 0.787357 -0.075100
-0.073149 0.788941 -0.075099
-0.020326 0.789927 -0.075052
0.109796 0.790923 -0.074891
0.173803 0.791971 -0.074568
0.242053 0.792808 -0.074109
0.316760 0.793529 -0.073427
0.394466 0.794506 -0.072439
0.470161 0.795028 -0.071017
0.540262 0.795689 -0.069081
0.604258 0.796438 -0.066454
0.664905 0.797305 -0.062971
0.724624 0.798164 -0.058392
0.785716 0.798974 -0.052153
0.840945 0.793074 -0.042595
0.889469 0.781932 -0.024191
-0.075112 0.840703 -0.075054
-0.073103 0.841691 -0.074876
-0.021095 0.842238 -0.074538
0.112179 0.842706 -0.074057
0.180423 0.843169 -0.073365
0.251295 0.843608 -0.072359
0.327109 0.844039 -0.070937
0.404387 0.844327 -0.068987
0.478408 0.844627 -0.066319
0.545947 0.845035 -0.062805
0.607515 0.845204 -0.058124
0.665974 0.845649 -0.051824
0.723482 0.846052 -0.042777
0.782356 0.846481 -0.027399
0.842197 0.847019 0.028646
0.889625 0.835803 0.046816
-0.075120 0.888704 -0.074500
-0.072546 0.889193 -0.074014
0.035979 0.889320 -0.073316
0.123106 0.889330 -0.072276
0.191738 0.889417 -0.070839
0.263615 0.889548 -0.068859
0.339321 0.889676 -0.066215
0.414661 0.889761 -0.062658
0.485759 0.889637 -0.057917
0.549845 0.889537 -0.051579
0.608568 0.889621 -0.042342
0.664520 0.889569 -0.026329
0.719712 0.889423 0.029897
0.775917 0.889648 0.046244
0.832892 0.889664 0.057602
0.889747 0.889766 0.067054
-0.075047 -0.075047 -0.074974
-0.074831 -0.075047 -0.074971
-0.051996 -0.075047 -0.074945
0.092762 -0.075047 -0.074922
0.161590 -0.075047 -0.074886
0.232584 -0.075047 -0.074844
0.309779 -0.075047 -0.074795
0.389984 -0.075047 -0.074739
0.468261 -0.075047 -0.074678
0.540379 -0.075047 -0.074613
0.605516 -0.075047 -0.074549
0.666025 -0.075047 -0.074483
0.724056 -0.075047 -0.074412
0.781123 -0.075047 -0.074342
0.836698 -0.075047 -0.074223
0.888266 -0.075047 -0.073946
-0.075047 -0.074896 -0.074970
-0.074109 -0.074821 -0.074944
-0.037675 -0.074720 -0.074920
0.104663 -0.074590 -0.074890
0.172704 -0.074396 -0.074857
0.243852 -0.074131 -0.074820
0.320717 -0.073766 -0.074779
0.399419 -0.073259 -0.074739
0.475796 -0.072587 -0.074691
0.545486 -0.071674 -0.074644
0.608857 -0.070469 -0.074594
0.668066 -0.068848 -0.074535
0.725039 -0.066816 -0.074427
0.781290 -0.064299 -0.074189
0.836677 -0.061158 -0.073868
0.888626 -0.057206 -0.073459
-0.075048 -0.055052 -0.074941
-0.072323 -0.053513 -0.074925
0.027585 -0.051896 -0.074912
0.116208 -0.049153 -0.074885
0.183127 -0.044369 -0.074851
0.253835 -0.037223 -0.074815
0.329381 -0.024822 -0.074775
0.406272 0.023443 -0.074735
0.480283 0.039261 -0.074688
0.548035 0.049991 -0.074638
0.609782 0.059081 -0.074545
0.667826 0.067053 -0.074337
0.724270 0.074469 -0.074053
0.780550 0.081512 -0.073680
0.836158 0.087893 -0.073211
0.888744 0.093384 -0.072600
-0.075048 0.087132 -0.074908
-0.068969 0.089265 -0.074895
0.053116 0.091236 -0.074894
0.126746 0.094655 -0.074880
0.192274 0.100313 -0.074847
0.261756 0.106602 -0.074811
0.335493 0.113085 -0.074773
0.410078 0.119701 -0.074727
0.481904 0.126245 -0.074647
0.547779 0.132358 -0.074467
0.608311 0.138499 -0.074220
0.665828 0.144829 -0.073884
0.722285 0.150821 -0.073454
0.778937 0.156618 -0.072889
0.835234 0.161513 -0.072181
0.888747 0.165469 -0.071274
-0.075049 0.155373 -0.074867
-0.063517 0.157527 -0.074865
0.070466 0.159789 -0.074863
0.136447 0.162344 -0.074861
0.198721 0.167225 -0.074844
0.266317 0.174474 -0.074807
0.337682 0.181890 -0.074739
0.409722 0.189178 -0.074585
0.479457 0.196335 -0.074361
0.544421 0.203397 -0.074072
0.604881 0.210249 -0.073673
0.662609 0.216996 -0.073166
0.719636 0.223423 -0.072507
0.777146 0.229009 -0.071670
0.834530 0.233700 -0.070628
0.888810 0.236415 -0.069312
-0.074926 0.225701 -0.074827
-0.056227 0.228309 -0.074830
0.082677 0.231347 -0.074829
0.144948 0.234707 -0.074824
0.203510 0.238414 -0.074792
0.265958 0.244175 -0.074683
0.334583 0.252887 -0.074493
0.404723 0.261639 -0.074231
0.473796 0.270147 -0.073876
0.539046 0.278346 -0.073412
0.600199 0.286068 -0.072813
0.658823 0.293292 -0.072046
0.716875 0.299996 -0.071067
0.775422 0.305478 -0.069831
0.833865 0.309140 -0.068279
0.888981 0.310682 -0.066341
-0.074420 0.303400 -0.074795
-0.049045 0.306768 -0.074792
0.089291 0.310466 -0.074760
0.148625 0.314389 -0.074666
0.205274 0.318623 -0.074516
0.264503 0.323271 -0.074313
0.327230 0.328521 -0.074051
0.396566 0.338284 -0.073649
0.466194 0.347899 -0.073101
0.532680 0.356787 -0.072391
0.595259 0.364961 -0.071490
0.655267 0.372093 -0.070342
0.714436 0.378251 -0.068903
0.774303 0.382966 -0.067055
0.833630 0.385189 -0.064736
0.889050 0.384657 -0.061824
-0.074009 0.385866 -0.074724
-0.046879 0.389476 -0.074624
0.088695 0.393405 -0.074466
0.146231 0.397720 -0.074268
0.201842 0.402401 -0.073997
0.260610 0.407049 -0.073650
0.323536 0.412041 -0.073211
0.389280 0.417330 -0.072650
0.458050 0.425251 -0.071875
0.526516 0.434295 -0.070808
0.590850 0.442214 -0.069461
0.652761 0.448800 -0.067749
0.713686 0.454038 -0.065589
0.774310 0.457335 -0.062835
0.833784 0.457786 -0.059315
0.889084 0.454770 -0.054760
-0.074367 0.467401 -0.074416
-0.052532 0.471074 -0.074197
0.081055 0.474950 -0.073925
0.139125 0.479047 -0.073572
0.194755 0.483362 -0.073118
0.253915 0.487614 -0.072551
0.317977 0.492038 -0.071829
0.385381 0.496289 -0.070933
0.453990 0.500949 -0.069830
0.522102 0.506498 -0.068385
0.589181 0.513809 -0.066361
0.652571 0.519418 -0.063807
0.713757 0.523368 -0.060521
0.774295 0.524895 -0.056213
0.834019 0.523013 -0.050925
0.889231 0.517213 -0.044161
-0.074900 0.542617 -0.073670
-0.060655 0.546111 -0.073480
0.068075 0.549471 -0.073015
0.129312 0.552970 -0.072429
0.185932 0.556541 -0.071708
0.246155 0.560054 -0.070796
0.311877 0.563597 -0.069665
0.382282 0.567027 -0.068279
0.454688 0.570416 -0.066529
0.524249 0.573853 -0.064402
0.589318 0.577699 -0.061600
0.652686 0.582361 -0.057630
0.714273 0.584856 -0.052767
0.775527 0.584685 -0.046468
0.834995 0.581062 -0.037111
0.889443 0.573817 -0.016947
-0.075077 0.610303 -0.072544
-0.067425 0.613511 -0.072321
0.050053 0.616312 -0.071562
0.118802 0.619102 -0.070649
0.177513 0.621938 -0.069504
0.240128 0.624862 -0.068081
0.309990 0.627591 -0.066322
0.383586 0.630177 -0.064139
0.456877 0.632611 -0.061404
0.526379 0.635096 -0.057950
0.591439 0.637435 -0.053846
0.654745 0.639632 -0.048607
0.716953 0.641050 -0.040383
0.777736 0.639924 -0.025298
0.836462 0.635312 0.029427
0.889471 0.626926 0.045979
-0.075085 0.672537 -0.070857
-0.071655 0.675378 -0.070261
0.021700 0.677707 -0.069312
0.110311 0.679960 -0.067874
0.174027 0.682104 -0.066107
0.240145 0.684296 -0.063866
0.310872 0.686353 -0.061121
0.384455 0.688299 -0.057590
0.458444 0.689845 -0.053401
0.529936 0.691275 -0.048286
0.596175 0.692745 -0.041167
0.659223 0.694365 -0.029475
0.721001 0.695428 0.022683
0.780925 0.693475 0.042483
0.838101 0.687910 0.055657
0.889690 0.678406 0.066495
-0.075092 0.731406 -0.068270
-0.073382 0.733683 -0.066563
-0.026878 0.735624 -0.065847
0.109562 0.737287 -0.063595
0.174222 0.738770 -0.060807
0.240143 0.740413 -0.057244
0.311734 0.741592 -0.052859
0.388405 0.742784 -0.047762
0.464723 0.743792 -0.040467
0.536065 0.744733 -0.028040
0.601584 0.746042 0.023243
0.663730 0.747207 0.041179
0.724970 0.748512 0.053278
0.784537 0.746734 0.064161
0.840010 0.740461 0.074336
0.889760 0.729843 0.083725
-0.075100 0.787651 -0.064299
-0.073403 0.789533 -0.061521
-0.028335 0.791134 -0.060450
0.109093 0.792219 -0.056839
0.174315 0.793137 -0.052356
0.243980 0.793977 -0.047167
0.319331 0.794595 -0.039664
0.397208 0.795427 -0.026631
0.472909 0.796181 0.024982
0.542637 0.796851 0.040074
0.606347 0.797488 0.052329
0.666898 0.798377 0.064154
0.726415 0.799160 0.073321
0.787199 0.800147 0.081901
0.842129 0.794045 0.090689
0.890125 0.782745 0.099269
-0.075112 0.840835 -0.058354
-0.073297 0.842127 -0.053815
-0.028868 0.843166 -0.051814
0.113229 0.843645 -0.046508
0.182433 0.844053 -0.038839
0.254047 0.844360 -0.025070
0.330432 0.844814 0.026708
0.407422 0.845291 0.037903
0.481148 0.845620 0.043528
0.548225 0.845976 0.054283
0.609573 0.846279 0.067150
0.667777 0.846491 0.081046
0.725267 0.847013 0.090538
0.783766 0.847390 0.098334
0.843318 0.847883 0.105707
0.890153 0.836481 0.113528
-0.075120 0.888706 -0.049409
-0.072256 0.889266 -0.042712
0.037470 0.890085 -0.038065
0.125384 0.890157 -0.023385
0.194777 0.890066 0.028187
0.266834 0.890187 0.039234
0.342212 0.890423 0.041344
0.417297 0.890562 0.043629
0.487969 0.890560 0.049402
0.551865 0.890468 0.062876
0.610435 0.890433 0.076958
0.666284 0.890330 0.091416
0.721286 0.890178 0.106081
0.777143 0.890180 0.113255
0.833838 0.890297 0.119994
0.890386 0.890406 0.126357
-0.075047 -0.075047 -0.058643
-0.074724 -0.075047 -0.058641
-0.050181 -0.075047 -0.058505
0.094711 -0.075047 -0.057961
0.163470 -0.075047 -0.056622
0.234521 -0.075047 -0.054957
0.311706 -0.075047 -0.052989
0.391706 -0.075047 -0.051112
0.469592 -0.075047 -0.049229
0.541304 -0.075047 -0.047475
0.606095 -0.075047 -0.046089
0.666387 -0.075047 -0.044751
0.724265 -0.075047 -0.043746
0.781137 -0.075047 -0.043226
0.836701 -0.075047 -0.041248
0.888314 -0.075046 -0.038609
-0.075047 -0.074852 -0.058531
-0.073816 -0.074770 -0.058026
-0.033261 -0.074685 -0.057771
0.106970 -0.074543 -0.057124
0.174844 -0.074348 -0.055693
0.245975 -0.074086 -0.053989
0.322630 -0.073752 -0.052123
0.401209 -0.073283 -0.050341
0.477039 -0.072675 -0.048781
0.546483 -0.071855 -0.047421
0.609556 -0.070748 -0.046409
0.668571 -0.069244 -0.045684
0.725515 -0.067362 -0.043468
0.781833 -0.064883 -0.040254
0.837065 -0.061537 -0.036544
0.889068 -0.056989 -0.031830
-0.075048 -0.054619 -0.058351
-0.071769 -0.052652 -0.057692
0.036106 -0.050474 -0.057122
0.119104 -0.047528 -0.056459
0.185836 -0.043299 -0.055750
0.256470 -0.037133 -0.055052
0.331823 -0.026681 -0.054327
0.408296 0.018697 -0.053597
0.481884 0.036596 -0.052853
0.549181 0.048207 -0.051989
0.610641 0.057478 -0.050027
0.668441 0.065842 -0.046975
0.724706 0.073714 -0.043133
0.781102 0.081337 -0.038131
0.836795 0.088526 -0.031005
0.889453 0.094935 -0.018309
-0.075048 0.087788 -0.057721
-0.067957 0.090610 -0.057003
0.057684 0.093000 -0.056666
0.129412 0.096561 -0.056326
0.194659 0.102025 -0.055635
0.263923 0.108048 -0.054945
0.337368 0.114394 -0.054239
0.411536 0.120859 -0.053417
0.482727 0.127196 -0.051687
0.548259 0.133336 -0.048898
0.608613 0.139561 -0.045404
0.666119 0.145915 -0.040959
0.722557 0.152108 -0.034944
0.779473 0.158037 -0.025682
0.836060 0.163247 0.014142
0.889375 0.167526 0.031225
-0.075048 0.156059 -0.056336
-0.062379 0.159062 -0.055970
0.073347 0.161635 -0.055960
0.138528 0.164344 -0.055952
0.200491 0.169374 -0.055564
0.267717 0.176444 -0.054785
0.338609 0.183708 -0.053247
0.410170 0.190960 -0.050637
0.479679 0.198215 -0.047458
0.544533 0.205280 -0.043454
0.604907 0.212201 -0.038180
0.662811 0.218940 -0.030719
0.719957 0.225436 -0.016283
0.777643 0.231186 0.025682
0.835156 0.235806 0.037539
0.889466 0.238907 0.046551
-0.074861 0.226640 -0.054487
-0.055922 0.230283 -0.055282
0.084038 0.233547 -0.055258
0.145994 0.237057 -0.055104
0.204252 0.240877 -0.054236
0.266306 0.246585 -0.052224
0.334518 0.255269 -0.049338
0.404415 0.264063 -0.045715
0.473503 0.272618 -0.041053
0.538843 0.280816 -0.034717
0.600160 0.288541 -0.024565
0.659020 0.295842 0.017576
0.717209 0.302422 0.033230
0.776013 0.307907 0.043182
0.834502 0.311738 0.051537
0.889645 0.313160 0.059080
-0.074366 0.304711 -0.052564
-0.050706 0.309136 -0.054471
0.088800 0.312928 -0.053611
0.148225 0.316991 -0.051788
0.204819 0.321375 -0.049591
0.264024 0.326196 -0.046859
0.326814 0.331513 -0.043375
0.395857 0.341072 -0.038028
0.465714 0.350668 -0.029955
0.532468 0.359517 -0.012565
0.595254 0.367574 0.028025
0.655596 0.374753 0.039537
0.714933 0.380965 0.048507
0.774915 0.385401 0.056383
0.834391 0.387595 0.063783
0.889749 0.386998 0.070809
-0.074102 0.387398 -0.049486
-0.051675 0.391862 -0.050998
0.085953 0.396071 -0.048784
0.144444 0.400401 -0.045995
0.200378 0.405078 -0.042512
0.259384 0.409972 -0.037940
0.322632 0.415014 -0.031665
0.388708 0.420330 -0.021157
0.457629 0.427961 0.021172
0.526402 0.436885 0.035385
0.591059 0.444695 0.045164
0.653400 0.451307 0.053569
0.714446 0.456309 0.061226
0.775037 0.459471 0.068551
0.834600 0.459645 0.075536
0.889787 0.456643 0.082417
-0.074485 0.468718 -0.041933
-0.057420 0.473323 -0.042576
0.075917 0.477459 -0.041449
0.136228 0.481637 -0.036658
0.192582 0.485879 -0.029898
0.252146 0.490232 -0.017959
0.316749 0.494686 0.022334
0.384751 0.499062 0.033411
0.453958 0.503615 0.042843
0.522660 0.508876 0.050721
0.590038 0.516085 0.058590
0.653421 0.521575 0.066093
0.714673 0.525348 0.073264
0.775279 0.526585 0.080294
0.834908 0.524495 0.086700
0.889930 0.518705 0.092914
-0.074974 0.543775 -0.028844
-0.063993 0.547811 -0.024793
0.059237 0.551708 -0.027985
0.125299 0.555143 -0.013249
0.183275 0.558722 0.024324
0.243861 0.562365 0.026369
0.310386 0.565959 0.030498
0.382202 0.569324 0.043180
0.455436 0.572606 0.057461
0.525139 0.575987 0.064492
0.590254 0.579781 0.071049
0.653590 0.584170 0.078083
0.715432 0.586327 0.084567
0.776659 0.585908 0.090947
0.836011 0.582260 0.097506
0.890152 0.575051 0.104336
-0.075078 0.611237 0.025318
-0.069053 0.614738 0.034119
0.031353 0.618143 0.026643
0.112468 0.621101 0.028386
0.173042 0.623987 0.030187
0.237624 0.626856 0.032103
0.308707 0.629650 0.034155
0.383152 0.632184 0.046591
0.457167 0.634537 0.063447
0.526990 0.636839 0.077652
0.592745 0.638986 0.083195
0.656331 0.641161 0.088876
0.718359 0.642374 0.095491
0.779100 0.641118 0.102451
0.837449 0.636288 0.109566
0.890154 0.627998 0.116837
-0.075085 0.673344 0.044559
-0.072118 0.676190 0.051789
-0.031803 0.679107 0.051527
0.100085 0.681754 0.033790
0.168361 0.683973 0.035580
0.236204 0.686197 0.037521
0.308292 0.688241 0.039565
0.383039 0.690171 0.045327
0.459119 0.691578 0.066290
0.531333 0.692784 0.084087
0.597959 0.694229 0.094954
0.660963 0.695717 0.100955
0.722609 0.696703 0.107663
0.782305 0.694488 0.114933
0.839124 0.688820 0.122470
0.890404 0.679382 0.129992
-0.075092 0.731840 0.058067
-0.073433 0.734337 0.064912
-0.036925 0.736596 0.066737
0.093223 0.738850 0.039007
0.165239 0.740478 0.040842
0.234120 0.742109 0.042833
0.308832 0.743405 0.044767
0.387372 0.744611 0.046767
0.465391 0.745361 0.067734
0.537600 0.746307 0.088378
0.603490 0.747190 0.106900
0.665538 0.748354 0.114276
0.726700 0.749613 0.120895
0.786128 0.747913 0.128168
0.841147 0.741323 0.135836
0.890508 0.730967 0.143432
-0.075100 0.788111 0.069788
-0.073403 0.789867 0.076461
-0.035438 0.791699 0.079652
0.084113 0.793589 0.044165
0.163036 0.794632 0.045955
0.237846 0.795506 0.047762
0.316161 0.796383 0.049818
0.395728 0.797211 0.052089
0.472987 0.797891 0.068039
0.543835 0.798229 0.091855
0.608027 0.798817 0.112152
0.668573 0.799438 0.128163
0.727969 0.800151 0.134981
0.788831 0.801076 0.141862
0.843090 0.794877 0.149342
0.890761 0.783718 0.156849
-0.075112 0.841046 0.080758
-0.073296 0.842294 0.087476
-0.028637 0.843509 0.090974
0.084715 0.844988 0.048981
0.169643 0.845426 0.050888
0.246985 0.846001 0.052989
0.326295 0.846443 0.055320
0.405390 0.846945 0.057821
0.480365 0.847304 0.066411
0.548741 0.847389 0.093813
0.610888 0.847489 0.116044
0.669551 0.847547 0.136522
0.726999 0.847789 0.149191
0.785098 0.848151 0.155917
0.844308 0.848662 0.162572
0.890941 0.837207 0.169684
-0.075120 0.888716 0.090439
-0.071769 0.889425 0.096305
0.038608 0.890176 0.099676
0.095056 0.891447 0.054009
0.180434 0.891569 0.056174
0.258772 0.891650 0.058541
0.337981 0.891896 0.061103
0.415007 0.892082 0.063788
0.486569 0.892235 0.066597
0.551736 0.891856 0.093817
0.611169 0.891566 0.118079
0.667518 0.891278 0.139767
0.722843 0.890848 0.160478
0.778391 0.890923 0.169471
0.834856 0.890892 0.175673
0.891009 0.891028 0.181564
-0.075047 -0.075047 0.078849
-0.074578 -0.075047 0.078872
-0.047762 -0.075047 0.078874
0.096775 -0.075047 0.079408
0.165348 -0.075047 0.082292
0.236448 -0.075047 0.085834
0.313582 -0.075047 0.089284
0.393362 -0.075047 0.092484
0.471011 -0.075047 0.095078
0.542196 -0.075047 0.097039
0.606710 -0.075047 0.098602
0.666685 -0.075047 0.099684
0.724434 -0.075047 0.100269
0.781234 -0.075047 0.100595
0.836699 -0.075047 0.101691
0.888259 -0.075037 0.102031
-0.075047 -0.074798 0.079066
-0.073442 -0.074703 0.079911
-0.026754 -0.074625 0.079980
0.109126 -0.074499 0.080822
0.176771 -0.074288 0.083890
0.247931 -0.074007 0.087329
0.324387 -0.073634 0.090717
0.402667 -0.073131 0.093678
0.477973 -0.072460 0.095975
0.547054 -0.071553 0.097779
0.609840 -0.070329 0.099024
0.668667 -0.068694 0.100272
0.725364 -0.066659 0.102398
0.781641 -0.063937 0.104332
0.837000 -0.060202 0.105783
0.889140 -0.055152 0.106669
-0.075047 -0.053757 0.079262
-0.071060 -0.051574 0.080341
0.042003 -0.049165 0.081001
0.121336 -0.046431 0.082280
0.187851 -0.042335 0.084871
0.258327 -0.036729 0.087425
0.333474 -0.027840 0.089702
0.409650 0.011034 0.091555
0.482700 0.032018 0.092905
0.549727 0.043574 0.094122
0.610882 0.052689 0.096369
0.668646 0.061268 0.098695
0.724834 0.069507 0.101134
0.781321 0.077704 0.103503
0.837224 0.085764 0.105976
0.889913 0.093913 0.108485
-0.075047 0.088453 0.079744
-0.067075 0.091354 0.080880
0.054008 0.095733 0.080709
0.131903 0.097930 0.082576
0.196922 0.102278 0.083599
0.265962 0.107164 0.084568
0.339016 0.112655 0.085506
0.412678 0.118486 0.086795
0.483501 0.124331 0.089305
0.548679 0.130370 0.092252
0.608995 0.136696 0.095366
0.666449 0.143244 0.098679
0.722957 0.149884 0.102150
0.779988 0.156468 0.105807
0.836552 0.162647 0.109622
0.890126 0.168157 0.113702
-0.075046 0.156791 0.082692
-0.061286 0.159925 0.083657
0.044818 0.166150 0.062723
0.139016 0.166906 0.074872
0.202061 0.171116 0.083725
0.268947 0.177621 0.085014
0.339299 0.184320 0.087441
0.410440 0.191206 0.090431
0.479704 0.198175 0.093516
0.544538 0.205162 0.096823
0.604969 0.212075 0.100338
0.662940 0.218983 0.103989
0.720288 0.225524 0.107815
0.777992 0.231643 0.111853
0.835787 0.236808 0.116109
0.890177 0.240650 0.120566
-0.074788 0.227596 0.086331
-0.054910 0.231547 0.086749
0.043759 0.238099 0.048922
0.136595 0.241483 0.044841
0.204380 0.243481 0.083361
0.266433 0.248907 0.088624
0.334338 0.257230 0.091652
0.404106 0.265745 0.094969
