test-luts/TailorMade.cube
LUT_3D_SIZE 6
0.049181 0.049181 0.049181
0.139838 0.049181 0.049185
0.466952 0.049181 0.050425
0.921469 0.049181 0.081645
1.000019 0.049181 0.113118
1.000019 0.049181 0.117311
0.049181 0.130260 0.049181
0.117140 0.128547 0.049181
0.462472 0.090153 0.049181
0.919456 0.049181 0.071929
1.000019 0.049181 0.105146
1.000019 0.049181 0.109580
0.049181 0.436509 0.049181
0.049181 0.436145 0.049181
0.403266 0.431111 0.049181
0.895877 0.435471 0.049181
1.000019 0.420775 0.049181
1.000019 0.417875 0.049181
0.049181 0.863084 0.049181
0.049181 0.863032 0.049181
0.054499 0.860913 0.049181
0.803977 0.852930 0.049181
1.000019 0.857545 0.049181
1.000019 0.856581 0.049181
0.049181 1.000019 0.049181
0.049181 1.000019 0.049181
0.049181 1.000019 0.049181
0.721461 1.000019 0.049181
0.998952 1.000019 0.049181
1.000019 1.000019 0.049181
0.049181 1.000019 0.049181
0.049181 1.000019 0.049181
0.049181 1.000019 0.049181
0.705440 1.000019 0.049181
0.997132 1.000019 0.049181
1.000019 1.000019 0.049181
0.049181 0.049181 0.121408
0.135885 0.049181 0.118972
0.465959 0.049181 0.116876
0.920872 0.049181 0.149102
1.000019 0.049181 0.170110
1.000019 0.049181 0.172974
0.049181 0.116763 0.113821
0.114373 0.114786 0.115047
0.461617 0.085200 0.117460
0.919120 0.049181 0.142979
1.000019 0.049181 0.164777
1.000019 0.049181 0.167723
0.049181 0.433557 0.049190
0.049181 0.433207 0.049188
0.402093 0.428138 0.049181
0.895445 0.432369 0.055171
1.000019 0.418145 0.082319
1.000019 0.415209 0.087332
0.049181 0.861818 0.049181
0.049181 0.861656 0.049181
0.054280 0.859500 0.049181
0.803416 0.851511 0.049181
1.000019 0.856469 0.049181
1.000019 0.855431 0.049181
0.049181 1.000019 0.049181
0.049181 1.000019 0.049181
0.049181 1.000019 0.049181
0.720911 1.000019 0.049181
0.998925 1.000019 0.049181
1.000019 1.000019 0.049181
0.049181 1.000019 0.049181
0.049181 1.000019 0.049181
0.049181 1.000019 0.049181
0.704804 1.000019 0.049181
0.996978 1.000019 0.049181
1.000019 1.000019 0.049181
0.049181 0.049181 0.408550
0.057965 0.049181 0.408802
0.454432 0.049181 0.412046
0.916159 0.049181 0.441315
1.000019 0.049181 0.449910
1.000019 0.049181 0.450728
0.049181 0.049181 0.407093
0.049766 0.049181 0.407153
0.449872 0.049181 0.410407
0.914153 0.049181 0.439637
1.000019 0.049181 0.448321
1.000019 0.049181 0.449210
0.049181 0.394332 0.387114
0.049181 0.393856 0.387224
0.387134 0.388187 0.388929
0.890230 0.366120 0.399702
1.000019 0.345220 0.409950
1.000019 0.341973 0.411514
0.049181 0.845850 0.312824
0.049181 0.845649 0.313043
0.052568 0.843626 0.315819
0.796120 0.835360 0.309119
1.000019 0.839141 0.316946
1.000019 0.837951 0.318105
0.049181 1.000019 0.160682
0.049181 1.000019 0.161359
0.049181 1.000019 0.169365
0.713802 1.000019 0.189208
0.998235 1.000019 0.204602
1.000019 1.000019 0.206740
0.049181 1.000019 0.110883
0.049181 1.000019 0.110990
0.049181 1.000019 0.117318
0.698104 1.000019 0.154828
0.994641 1.000019 0.176550
1.000019 1.000019 0.179395
0.049181 0.049181 0.809150
0.049181 0.049181 0.809231
0.427487 0.049181 0.810122
0.897629 0.049181 0.820121
1.000019 0.049181 0.829348
1.000019 0.049181 0.829607
0.049181 0.049181 0.808684
0.049181 0.049181 0.808650
0.422069 0.049181 0.809333
0.895892 0.049181 0.819315
1.000019 0.049181 0.828757
1.000019 0.049181 0.829172
0.049181 0.147248 0.800167
0.049181 0.146534 0.800213
0.345826 0.142851 0.800809
0.871044 0.107429 0.809653
1.000019 0.091077 0.821104
1.000019 0.087956 0.821551
0.049181 0.782839 0.769101
0.049181 0.782496 0.769107
0.049181 0.780250 0.769605
0.770437 0.770990 0.771332
1.000019 0.762940 0.774350
1.000019 0.761638 0.774779
0.049181 1.000019 0.757049
0.049181 1.000019 0.757140
0.049181 1.000019 0.758035
0.664937 1.000019 0.744135
0.988491 1.000063 0.744226
1.000019 0.999931 0.744634
0.049181 1.000019 0.752706
0.049181 1.000019 0.752686
0.049181 1.000019 0.753555
0.646912 1.000019 0.740009
0.978231 1.000019 0.739560
1.000019 1.000019 0.739884
0.049181 0.049181 1.000019
0.049181 0.049181 1.000019
0.385561 0.049181 1.000019
0.890290 0.049181 1.000019
1.000019 0.049181 1.000019
1.000019 0.049181 1.000019
0.049181 0.049181 1.000019
0.049181 0.049181 1.000019
0.379034 0.049181 1.000019
0.888292 0.049181 1.000019
1.000019 0.049181 1.000019
1.000019 0.049181 1.000019
0.049181 0.049181 1.000019
0.049181 0.049181 1.000019
0.276284 0.049181 1.000019
0.865140 0.049181 1.000019
1.000019 0.049181 1.000019
1.000019 0.049181 1.000019
0.049181 0.741726 0.991150
0.049181 0.741644 0.991187
0.049181 0.738999 0.991838
0.751483 0.708128 0.993807
1.000019 0.698925 0.994910
1.000019 0.697594 0.994896
0.049181 0.989072 0.971590
0.049181 0.988902 0.971691
0.049181 0.987056 0.971990
0.639939 0.980612 0.972985
0.974783 0.974819 0.974844
1.000019 0.973723 0.974849
0.049181 1.000019 0.968773
0.049181 1.000019 0.968853
0.049181 1.000019 0.969352
0.620972 1.000019 0.969743
0.963974 1.000019 0.971341
1.000018 1.000019 0.971624
0.049181 0.049181 1.000019
0.049181 0.049181 1.000019
0.377087 0.049181 1.000019
0.887786 0.049181 1.000019
1.000019 0.049181 1.000019
1.000019 0.049181 1.000019
0.049181 0.049181 1.000019
0.049181 0.049181 1.000019
0.370419 0.049181 1.000019
0.885974 0.049181 1.000019
1.000019 0.049181 1.000019
1.000019 0.049181 1.000019
0.049181 0.049181 1.000019
0.049181 0.049181 1.000019
0.261580 0.049181 1.000019
0.862572 0.049181 1.000019
1.000019 0.049181 1.000019
1.000019 0.049181 1.000019
0.049181 0.732251 1.000019
0.049181 0.732198 1.000019
0.049181 0.729570 1.000019
0.748216 0.697792 1.000019
1.000019 0.688489 1.000019
1.000019 0.687054 1.000019
0.049181 0.983850 0.999328
0.049181 0.983687 0.999358
0.049181 0.982322 0.999859
0.636083 0.974142 1.000024
0.972297 0.967930 1.000048
1.000019 0.967231 1.000052
0.049181 1.000019 0.995430
0.049181 1.000019 0.995520
0.049181 1.000019 0.996125
0.616855 1.000019 0.997883
0.961554 1.000012 0.999574
1.000019 1.000038 1.000009
