test-luts/TailorMade.cube
LUT_3D_SIZE 16
0.049181 0.049181 0.049181
0.049181 0.049181 0.049181
0.084482 0.049181 0.049182
0.139838 0.049181 0.049185
0.212520 0.049181 0.049204
0.324547 0.049181 0.049365
0.466952 0.049181 0.050425
0.618151 0.049181 0.054464
0.771649 0.049181 0.064698
0.921469 0.049181 0.081645
1.000019 0.049181 0.097596
1.000019 0.049181 0.107709
1.000019 0.049181 0.113118
1.000019 0.049181 0.115410
1.000019 0.049181 0.116223
1.000019 0.049181 0.117311
0.049181 0.049181 0.049181
0.049181 0.049181 0.049181
0.082952 0.049316 0.049181
0.139013 0.049201 0.049181
0.212028 0.049181 0.049188
0.324263 0.049181 0.049333
0.466660 0.049181 0.050314
0.618045 0.049181 0.054226
0.771515 0.049181 0.064311
0.921328 0.049181 0.081220
1.000019 0.049181 0.097206
1.000019 0.049181 0.107343
1.000019 0.049181 0.112788
1.000019 0.049181 0.115071
1.000019 0.049181 0.115894
1.000019 0.049181 0.116982
0.049181 0.078154 0.049181
0.049184 0.078032 0.049181
0.070588 0.077068 0.049181
0.132715 0.067409 0.049181
0.208363 0.061346 0.049181
0.322045 0.054227 0.049181
0.465278 0.049181 0.049545
0.616991 0.049181 0.052641
0.770869 0.049181 0.061568
0.920657 0.049181 0.078076
1.000019 0.049181 0.094352
1.000019 0.049181 0.104691
1.000019 0.049181 0.110225
1.000019 0.049181 0.112561
1.000019 0.049181 0.113396
1.000019 0.049181 0.114496
0.049181 0.130260 0.049181
0.049181 0.130206 0.049181
0.051168 0.129643 0.049181
0.117140 0.128547 0.049181
0.201036 0.115953 0.049181
0.317723 0.105517 0.049181
0.462472 0.090153 0.049181
0.614998 0.063034 0.049300
0.769289 0.049181 0.056600
0.919456 0.049181 0.071929
1.000019 0.049181 0.088637
1.000019 0.049181 0.099395
1.000019 0.049181 0.105146
1.000019 0.049181 0.107554
1.000019 0.049181 0.108441
1.000019 0.049181 0.109580
0.049181 0.198649 0.049181
0.049181 0.198565 0.049181
0.049181 0.198238 0.049181
0.067307 0.197620 0.049181
0.180635 0.196125 0.049181
0.307455 0.185445 0.049181
0.456021 0.177754 0.049181
0.610431 0.165986 0.049181
0.765884 0.144842 0.049181
0.916667 0.111674 0.066782
1.000019 0.070786 0.081489
1.000019 0.059420 0.088896
1.000019 0.055460 0.093869
1.000019 0.053507 0.095925
1.000019 0.052755 0.096653
1.000019 0.051699 0.097622
0.049181 0.303409 0.049181
0.049181 0.303393 0.049181
0.049181 0.303196 0.049181
0.049181 0.302810 0.049181
0.100452 0.301918 0.049181
0.278296 0.299599 0.049181
0.438923 0.295930 0.049181
0.598614 0.293783 0.049181
0.756915 0.288321 0.049181
0.909701 0.277781 0.049181
1.000019 0.263329 0.049258
1.000019 0.251285 0.058485
1.000019 0.244216 0.065757
1.000019 0.241097 0.068969
1.000019 0.239976 0.070139
1.000019 0.238429 0.071687
0.049181 0.436509 0.049181
0.049181 0.436500 0.049181
0.049181 0.436411 0.049181
0.049181 0.436145 0.049181
0.049245 0.435529 0.049181
0.200060 0.434108 0.049181
0.403266 0.431111 0.049181
0.574121 0.433654 0.049181
0.738994 0.436362 0.049181
0.895877 0.435471 0.049181
0.996593 0.430894 0.049181
1.000019 0.424424 0.049181
1.000019 0.420775 0.049181
1.000019 0.419169 0.049181
1.000019 0.418632 0.049181
1.000019 0.417875 0.049181
0.049181 0.578085 0.049181
0.049181 0.578072 0.049181
0.049181 0.578041 0.049181
0.049181 0.577855 0.049181
0.049181 0.577418 0.049181
0.061881 0.576369 0.049181
0.342696 0.574275 0.049181
0.536151 0.571038 0.049181
0.709899 0.576877 0.049181
0.873599 0.582162 0.049181
0.990000 0.582938 0.049181
1.000019 0.579005 0.049181
1.000019 0.576675 0.049181
1.000019 0.575685 0.049181
1.000019 0.575319 0.049181
1.000019 0.574844 0.049181
0.049181 0.722271 0.049181
0.049181 0.722311 0.049181
0.049181 0.722134 0.049181
0.049181 0.721888 0.049181
0.049181 0.721643 0.049181
0.049181 0.720713 0.049181
0.182824 0.719295 0.049181
0.485563 0.716760 0.049181
0.671530 0.713426 0.049181
0.841676 0.720068 0.049181
0.976633 0.725579 0.049181
1.000019 0.723475 0.049181
1.000019 0.721876 0.049181
1.000019 0.721255 0.049181
1.000019 0.720965 0.049181
1.000019 0.720689 0.049181
0.049181 0.863084 0.049181
0.049181 0.863050 0.049181
0.049181 0.863206 0.049181
0.049181 0.863032 0.049181
0.049181 0.862681 0.049181
0.049181 0.861976 0.049181
0.054499 0.860913 0.049181
0.393006 0.858747 0.049181
0.627373 0.856150 0.049181
0.803977 0.852930 0.049181
0.943040 0.857391 0.049181
1.000019 0.859352 0.049181
1.000019 0.857545 0.049181
1.000019 0.856962 0.049181
1.000019 0.856897 0.049181
1.000019 0.856581 0.049181
0.049181 0.978162 0.049181
0.049181 0.978143 0.049181
0.049181 0.978038 0.049181
0.049181 0.977917 0.049181
0.049181 0.977853 0.049181
0.049181 0.977405 0.049181
0.049181 0.976194 0.049181
0.207359 0.974701 0.049181
0.570445 0.972319 0.049181
0.771163 0.969459 0.049181
0.912491 0.966684 0.049181
0.993415 0.967055 0.049181
1.000019 0.965768 0.049181
1.000019 0.965367 0.049181
1.000019 0.965279 0.049181
1.000019 0.964930 0.049181
0.049181 1.000019 0.049181
0.049181 1.000019 0.049181
0.049181 1.000019 0.049181
0.049181 1.000019 0.049181
0.049181 1.000019 0.049181
0.049181 1.000019 0.049181
0.049181 1.000019 0.049181
0.123305 1.000019 0.049181
0.518251 1.000019 0.049181
0.740613 1.000019 0.049181
0.890129 1.000019 0.049181
0.975891 1.000019 0.049181
1.000019 1.000019 0.049181
1.000019 1.000019 0.049181
1.000019 1.000019 0.049181
1.000019 1.000019 0.049181
0.049181 1.000019 0.049181
0.049181 1.000019 0.049181
0.049181 1.000019 0.049181
0.049181 1.000019 0.049181
0.049181 1.000019 0.049181
0.049181 1.000019 0.049181
0.049181 1.000019 0.049181
0.076743 1.000019 0.049181
0.483860 1.000019 0.049181
0.721461 1.000019 0.049181
0.875805 1.000019 0.049181
0.963483 1.000019 0.049181
0.998952 1.000019 0.049181
1.000019 1.000019 0.049181
1.000019 1.000019 0.049181
1.000019 1.000019 0.049181
0.049181 1.000019 0.049181
0.049181 1.000019 0.049181
0.049181 1.000019 0.049181
0.049181 1.000019 0.049181
0.049181 1.000019 0.049181
0.049181 1.000019 0.049181
0.049181 1.000019 0.049181
0.050340 1.000019 0.049181
0.467562 1.000019 0.049181
0.712749 1.000019 0.049181
0.869474 1.000019 0.049181
0.958114 1.000019 0.049181
0.997983 1.000019 0.049181
1.000019 1.000019 0.049181
1.000019 1.000019 0.049181
1.000019 1.000019 0.049181
0.049181 1.000019 0.049181
0.049181 1.000019 0.049181
0.049181 1.000019 0.049181
0.049181 1.000019 0.049181
0.049181 1.000019 0.049181
0.049181 1.000019 0.049181
0.049181 1.000019 0.049181
0.049181 1.000019 0.049181
0.461395 1.000019 0.049181
0.709790 1.000019 0.049181
0.867220 1.000019 0.049181
0.955959 1.000019 0.049181
0.997561 1.000019 0.049181
1.000019 1.000019 0.049181
1.000019 1.000019 0.049181
1.000019 1.000019 0.049181
0.049181 1.000019 0.049181
0.049181 1.000019 0.049181
0.049181 1.000019 0.049181
0.049181 1.000019 0.049181
0.049181 1.000019 0.049181
0.049181 1.000019 0.049181
0.049181 1.000019 0.049181
0.049181 1.000019 0.049181
0.453103 1.000019 0.049181
0.705440 1.000019 0.049181
0.864028 1.000019 0.049181
0.953524 1.000019 0.049181
0.997132 1.000019 0.049181
1.000019 1.000019 0.049181
1.000019 1.000019 0.049181
1.000019 1.000019 0.049181
0.049181 0.049181 0.049181
0.049181 0.049181 0.049181
0.084166 0.049181 0.049393
0.139671 0.049181 0.049369
0.212418 0.049181 0.049459
0.324464 0.049181 0.049890
0.466924 0.049181 0.051650
0.618139 0.049181 0.056878
0.771678 0.049181 0.068343
0.921417 0.049181 0.085414
1.000019 0.049181 0.101031
1.000019 0.049181 0.110909
1.000019 0.049181 0.116220
1.000019 0.049181 0.118433
1.000019 0.049181 0.119245
1.000019 0.049181 0.120296
0.049181 0.049181 0.049181
0.049181 0.049181 0.049181
0.082617 0.049181 0.049268
0.138827 0.049181 0.049322
0.211911 0.049181 0.049411
0.324212 0.049181 0.049815
0.466775 0.049181 0.051491
0.617995 0.049181 0.056589
0.771476 0.049181 0.067926
0.921277 0.049181 0.084997
1.000019 0.049181 0.100660
1.000019 0.049181 0.110562
1.000019 0.049181 0.115886
1.000019 0.049181 0.118106
1.000019 0.049181 0.118921
1.000019 0.049181 0.119968
0.049181 0.077195 0.049187
0.049181 0.077062 0.049184
0.070402 0.076112 0.049181
0.132529 0.066533 0.049181
0.208268 0.060630 0.049181
0.321990 0.053584 0.049181
0.465284 0.049181 0.050403
0.616911 0.049181 0.054653
0.770802 0.049181 0.064975
0.920604 0.049181 0.081916
1.000019 0.049181 0.097869
1.000019 0.049181 0.107948
1.000019 0.049181 0.113368
1.000019 0.049181 0.115657
1.000019 0.049181 0.116460
1.000019 0.049181 0.117549
0.049181 0.129711 0.049182
0.049181 0.129625 0.049182
0.051080 0.129075 0.049181
0.116990 0.127983 0.049181
0.200905 0.115312 0.049181
0.317629 0.104847 0.049181
0.462420 0.089296 0.049181
0.615003 0.064496 0.053498
0.769251 0.049181 0.059520
0.919378 0.049181 0.075815
1.000019 0.049181 0.092288
1.000019 0.049181 0.102787
1.000019 0.049181 0.108408
1.000019 0.049181 0.110772
1.000019 0.049181 0.111631
1.000019 0.049181 0.112725
0.049181 0.198295 0.049181
0.049181 0.198233 0.049181
0.049181 0.197928 0.049181
0.067068 0.197286 0.049181
0.180555 0.195783 0.049181
0.307385 0.185104 0.049181
0.455983 0.177331 0.049181
0.610433 0.165533 0.049181
0.765845 0.144799 0.052620
0.916653 0.111784 0.071153
1.000019 0.070413 0.084864
1.000019 0.059263 0.092414
1.000019 0.055274 0.097327
1.000019 0.053312 0.099338
1.000019 0.052546 0.100056
1.000019 0.051480 0.100989
0.049181 0.303221 0.049181
0.049181 0.303194 0.049181
0.049181 0.303009 0.049181
0.049181 0.302609 0.049181
0.100313 0.301704 0.049181
0.278263 0.299421 0.049181
0.438873 0.295719 0.049181
0.598583 0.293561 0.049181
0.756877 0.288079 0.049181
0.909907 0.277515 0.049181
1.000019 0.263216 0.051982
1.000019 0.251224 0.062718
1.000019 0.244194 0.070106
1.000019 0.241050 0.073273
1.000019 0.239859 0.074417
1.000019 0.238305 0.075911
0.049181 0.436439 0.049181
0.049181 0.436410 0.049181
0.049181 0.436301 0.049181
0.049181 0.436078 0.049181
0.049242 0.435443 0.049181
0.199916 0.433897 0.049181
0.403199 0.431016 0.049181
0.574090 0.433540 0.049181
0.738936 0.436153 0.049181
0.895826 0.435371 0.049181
0.996573 0.430760 0.049181
1.000019 0.424221 0.049181
1.000019 0.420581 0.049181
1.000019 0.419051 0.049181
1.000019 0.418400 0.049181
1.000019 0.417635 0.049181
0.049181 0.578052 0.049181
0.049181 0.578040 0.049181
0.049181 0.577945 0.049181
0.049181 0.577721 0.049181
0.049181 0.577340 0.049181
0.061829 0.576265 0.049181
0.342602 0.574180 0.049181
0.536158 0.570951 0.049181
0.709842 0.576750 0.049181
0.873548 0.582049 0.049181
0.989983 0.582871 0.049181
1.000019 0.578899 0.049181
1.000019 0.576616 0.049181
1.000019 0.575607 0.049181
1.000019 0.575220 0.049181
1.000019 0.574727 0.049181
0.049181 0.722087 0.049181
0.049181 0.722130 0.049181
0.049181 0.722049 0.049181
0.049181 0.721854 0.049181
0.049181 0.721633 0.049181
0.049181 0.720736 0.049181
0.182761 0.719318 0.049181
0.485499 0.716736 0.049181
0.671466 0.713316 0.049181
0.841639 0.720007 0.049181
0.976596 0.725501 0.049181
1.000019 0.723557 0.049181
1.000019 0.721920 0.049181
1.000019 0.721189 0.049181
1.000019 0.720955 0.049181
1.000019 0.720539 0.049181
0.049181 0.863226 0.049181
0.049181 0.863204 0.049181
0.049181 0.863128 0.049181
0.049181 0.862969 0.049181
0.049181 0.862525 0.049181
0.049181 0.861880 0.049181
0.054492 0.860834 0.049181
0.393014 0.858901 0.049181
0.627302 0.856236 0.049181
0.803936 0.852820 0.049181
0.942988 0.857329 0.049181
1.000019 0.859219 0.049181
1.000019 0.857465 0.049181
1.000019 0.857086 0.049181
1.000019 0.856788 0.049181
1.000019 0.856500 0.049181
0.049181 0.978056 0.049181
0.049181 0.978035 0.049181
0.049181 0.978071 0.049181
0.049181 0.977864 0.049181
0.049181 0.977802 0.049181
0.049181 0.977414 0.049181
0.049181 0.976201 0.049181
0.207318 0.974706 0.049181
0.570449 0.972320 0.049181
0.771095 0.969305 0.049181
0.912483 0.966711 0.049181
0.993514 0.967045 0.049181
1.000019 0.965783 0.049181
1.000019 0.965362 0.049181
1.000019 0.965201 0.049181
1.000019 0.964910 0.049181
0.049181 1.000019 0.049181
0.049181 1.000019 0.049181
0.049181 1.000019 0.049181
0.049181 1.000019 0.049181
0.049181 1.000019 0.049181
0.049181 1.000019 0.049181
0.049181 1.000019 0.049181
0.123264 1.000019 0.049181
0.518193 1.000019 0.049181
0.740564 1.000019 0.049181
0.890164 1.000019 0.049181
0.975859 1.000019 0.049181
1.000019 1.000019 0.049181
1.000019 1.000019 0.049181
1.000019 1.000019 0.049181
1.000019 1.000019 0.049181
0.049181 1.000019 0.049181
0.049181 1.000019 0.049181
0.049181 1.000019 0.049181
0.049181 1.000019 0.049181
0.049181 1.000019 0.049181
0.049181 1.000019 0.049181
0.049181 1.000019 0.049181
0.076667 1.000019 0.049181
0.483793 1.000019 0.049181
0.721491 1.000019 0.049181
0.875768 1.000019 0.049181
0.963451 1.000019 0.049181
0.998945 1.000019 0.049181
1.000019 1.000019 0.049181
1.000019 1.000019 0.049181
1.000019 1.000019 0.049181
0.049181 1.000019 0.049181
0.049181 1.000019 0.049181
0.049181 1.000019 0.049181
0.049181 1.000019 0.049181
0.049181 1.000019 0.049181
0.049181 1.000019 0.049181
0.049181 1.000019 0.049181
0.050303 1.000019 0.049181
0.467509 1.000019 0.049181
0.712723 1.000019 0.049181
0.869437 1.000019 0.049181
0.958082 1.000019 0.049181
0.997976 1.000019 0.049181
1.000019 1.000019 0.049181
1.000019 1.000019 0.049181
1.000019 1.000019 0.049181
0.049181 1.000019 0.049181
0.049181 1.000019 0.049181
0.049181 1.000019 0.049181
0.049181 1.000019 0.049181
0.049181 1.000019 0.049181
0.049181 1.000019 0.049181
0.049181 1.000019 0.049181
0.049181 1.000019 0.049181
0.461424 1.000019 0.049181
0.709766 1.000019 0.049181
0.867182 1.000019 0.049181
0.955939 1.000019 0.049181
0.997555 1.000019 0.049181
1.000019 1.000019 0.049181
1.000019 1.000019 0.049181
1.000019 1.000019 0.049181
0.049181 1.000019 0.049181
0.049181 1.000019 0.049181
0.049181 1.000019 0.049181
0.049181 1.000019 0.049181
0.049181 1.000019 0.049181
0.049181 1.000019 0.049181
0.049181 1.000019 0.049181
0.049181 1.000019 0.049181
0.453041 1.000019 0.049181
0.705424 1.000019 0.049181
0.864002 1.000019 0.049181
0.953577 1.000019 0.049181
0.997126 1.000019 0.049181
1.000019 1.000019 0.049181
1.000019 1.000019 0.049181
1.000019 1.000019 0.049181
0.049181 0.049181 0.072713
0.049271 0.049181 0.072753
0.081820 0.049181 0.071243
0.138389 0.049181 0.065618
0.211673 0.049181 0.064324
0.324008 0.049181 0.066238
0.466614 0.049181 0.072261
0.617948 0.049181 0.082187
0.771377 0.049181 0.095352
0.921211 0.049181 0.110643
1.000019 0.049181 0.124048
1.000019 0.049181 0.132439
1.000019 0.049181 0.136994
1.000019 0.049181 0.138918
1.000019 0.049181 0.139612
1.000019 0.049181 0.140531
0.049181 0.049186 0.072234
0.049202 0.049181 0.072277
0.080285 0.049181 0.071000
0.137545 0.049181 0.065245
0.211166 0.049181 0.063964
0.323730 0.049181 0.065867
0.466374 0.049181 0.071857
0.617783 0.049181 0.081783
0.771448 0.049181 0.094975
0.921128 0.049181 0.110289
1.000019 0.049181 0.123717
1.000019 0.049181 0.132130
1.000019 0.049181 0.136700
1.000019 0.049181 0.138636
1.000019 0.049181 0.139329
1.000019 0.049181 0.140248
0.049181 0.070143 0.068515
0.049181 0.070017 0.068588
0.068988 0.069063 0.069111
0.131166 0.067203 0.068859
0.207499 0.062925 0.067448
0.321523 0.051922 0.063806
0.464945 0.049181 0.068906
0.616728 0.049181 0.078823
0.770562 0.049181 0.092157
0.920526 0.049181 0.107707
1.000019 0.049181 0.121360
1.000019 0.049181 0.129921
1.000019 0.049181 0.134555
1.000019 0.049181 0.136511
1.000019 0.049181 0.137216
1.000019 0.049181 0.138149
0.049181 0.125498 0.057121
0.049181 0.125411 0.057151
0.049181 0.124829 0.056317
0.116344 0.123690 0.062946
0.200108 0.112979 0.064322
0.317171 0.104382 0.067813
0.462094 0.091602 0.074710
0.614771 0.066720 0.079313
0.769078 0.049181 0.086460
0.919407 0.049181 0.102567
1.000019 0.049181 0.116662
1.000019 0.049181 0.125530
1.000019 0.049181 0.130288
1.000019 0.049181 0.132321
1.000019 0.049181 0.133049
1.000019 0.049181 0.134007
0.049181 0.195817 0.050017
0.049181 0.195782 0.050026
0.049181 0.195453 0.050071
0.064998 0.194796 0.049181
0.179781 0.193281 0.049218
0.306887 0.182414 0.052209
0.455664 0.175296 0.059202
0.610287 0.164627 0.069886
0.765551 0.145193 0.084195
0.916646 0.110149 0.100089
1.000019 0.067712 0.108946
1.000019 0.058092 0.116276
1.000019 0.053871 0.120509
1.000019 0.051767 0.122252
1.000019 0.050944 0.122871
1.000019 0.049795 0.123678
0.049181 0.301765 0.049181
0.049181 0.301699 0.049181
0.049181 0.301513 0.049181
0.049181 0.301087 0.049181
0.099269 0.300208 0.049181
0.277708 0.297940 0.049181
0.438643 0.294145 0.049181
0.598342 0.291866 0.049181
0.756714 0.286134 0.049267
0.909731 0.276276 0.063486
1.000019 0.262708 0.081086
1.000019 0.250436 0.092557
1.000019 0.243019 0.098662
1.000019 0.239721 0.101212
1.000019 0.238457 0.102125
1.000019 0.236819 0.103310
0.049181 0.435460 0.049181
0.049181 0.435439 0.049181
0.049181 0.435375 0.049181
0.049181 0.435108 0.049181
0.049231 0.434418 0.049181
0.198936 0.432952 0.049181
0.402818 0.430027 0.049181
0.573916 0.432571 0.049181
0.738694 0.435133 0.049181
0.895619 0.434241 0.049181
0.996450 0.429610 0.049181
1.000019 0.423130 0.049181
1.000019 0.419461 0.049181
1.000019 0.417887 0.049181
1.000019 0.417310 0.049181
1.000019 0.416491 0.049181
0.049181 0.577361 0.049181
0.049181 0.577320 0.049181
0.049181 0.577229 0.049181
0.049181 0.577083 0.049181
0.049181 0.576631 0.049181
0.061460 0.575552 0.049181
0.342131 0.573508 0.049181
0.535890 0.570231 0.049181
0.709904 0.576160 0.049181
0.873335 0.581385 0.049181
0.990196 0.582173 0.049181
1.000019 0.578165 0.049181
1.000019 0.575870 0.049181
1.000019 0.574878 0.049181
1.000019 0.574513 0.049181
1.000019 0.574041 0.049181
0.049181 0.721497 0.049181
0.049181 0.721627 0.049181
0.049181 0.721445 0.049181
0.049181 0.721212 0.049181
0.049181 0.721130 0.049181
0.049181 0.720277 0.049181
0.182261 0.718664 0.049181
0.485147 0.716071 0.049181
0.671279 0.712706 0.049181
0.841534 0.719558 0.049181
0.976437 0.724918 0.049181
1.000019 0.722936 0.049181
1.000019 0.721436 0.049181
1.000019 0.720592 0.049181
1.000019 0.720472 0.049181
1.000019 0.720017 0.049181
0.049181 0.862543 0.049181
0.049181 0.862523 0.049181
0.049181 0.862541 0.049181
0.049181 0.862504 0.049181
0.049181 0.862194 0.049181
0.049181 0.861598 0.049181
0.054418 0.860474 0.049181
0.392545 0.858360 0.049181
0.627102 0.855752 0.049181
0.803913 0.852434 0.049181
0.942893 0.856954 0.049181
1.000019 0.858871 0.049181
1.000019 0.857140 0.049181
1.000019 0.856607 0.049181
1.000019 0.856486 0.049181
1.000019 0.856067 0.049181
0.049181 0.977819 0.049181
0.049181 0.977799 0.049181
0.049181 0.977807 0.049181
0.049181 0.977616 0.049181
0.049181 0.977401 0.049181
0.049181 0.976866 0.049181
0.049181 0.975744 0.049181
0.206910 0.974068 0.049181
0.570193 0.972074 0.049181
0.771076 0.969059 0.049181
0.912252 0.966232 0.049181
0.993409 0.966778 0.049181
1.000019 0.965520 0.049181
1.000019 0.964962 0.049181
1.000019 0.964702 0.049181
1.000019 0.964675 0.049181
0.049181 1.000019 0.049181
0.049181 1.000019 0.049181
0.049181 1.000019 0.049181
0.049181 1.000019 0.049181
0.049181 1.000019 0.049181
0.049181 1.000019 0.049181
0.049181 1.000019 0.049181
0.122953 1.000019 0.049181
0.517922 1.000019 0.049181
0.740535 1.000019 0.049181
0.889892 1.000019 0.049181
0.975755 1.000019 0.049181
1.000019 1.000019 0.049181
1.000019 1.000019 0.049181
1.000019 1.000019 0.049181
1.000019 1.000019 0.049181
0.049181 1.000019 0.049181
0.049181 1.000019 0.049181
0.049181 1.000019 0.049181
0.049181 1.000019 0.049181
0.049181 1.000019 0.049181
0.049181 1.000019 0.049181
0.049181 1.000019 0.049181
0.076113 1.000019 0.049181
0.483471 1.000019 0.049181
0.721220 1.000019 0.049181
0.875624 1.000019 0.049181
0.963483 1.000019 0.049181
0.999012 1.000019 0.049181
1.000019 1.000019 0.049181
1.000019 1.000019 0.049181
1.000019 1.000019 0.049181
0.049181 1.000019 0.049181
0.049181 1.000019 0.049181
0.049181 1.000019 0.049181
0.049181 1.000019 0.049181
0.049181 1.000019 0.049181
0.049181 1.000019 0.049181
0.049181 1.000019 0.049181
0.050067 1.000019 0.049181
0.467229 1.000019 0.049181
0.712624 1.000019 0.049181
0.869220 1.000019 0.049181
0.958084 1.000019 0.049181
0.997931 1.000019 0.049181
1.000019 1.000019 0.049181
1.000019 1.000019 0.049181
1.000019 1.000019 0.049181
0.049181 1.000019 0.049181
0.049181 1.000019 0.049181
0.049181 1.000019 0.049181
0.049181 1.000019 0.049181
0.049181 1.000019 0.049181
0.049181 1.000019 0.049181
0.049181 1.000019 0.049181
0.049181 1.000019 0.049181
0.461051 1.000019 0.049181
0.709459 1.000019 0.049181
0.866997 1.000019 0.049181
0.956038 1.000019 0.049181
0.997620 1.000019 0.049181
1.000019 1.000019 0.049181
1.000019 1.000019 0.049181
1.000019 1.000019 0.049181
0.049181 1.000019 0.049181
0.049181 1.000019 0.049181
0.049181 1.000019 0.049181
0.049181 1.000019 0.049181
0.049181 1.000019 0.049181
0.049181 1.000019 0.049181
0.049181 1.000019 0.049181
0.049181 1.000019 0.049181
0.452719 1.000019 0.049181
0.705317 1.000019 0.049181
0.863861 1.000019 0.049181
0.953334 1.000019 0.049181
0.997079 1.000019 0.049181
1.000019 1.000019 0.049181
1.000019 1.000019 0.049181
1.000019 1.000019 0.049181
0.049181 0.049181 0.121408
0.049187 0.049181 0.121426
0.070235 0.049181 0.121625
0.135885 0.049181 0.118972
0.210188 0.049181 0.111903
0.323115 0.049181 0.111669
0.465959 0.049181 0.116876
0.617479 0.049181 0.125485
0.771136 0.049181 0.136494
0.920872 0.049181 0.149102
1.000019 0.049181 0.159841
1.000019 0.049181 0.166476
1.000019 0.049181 0.170110
1.000019 0.049181 0.171664
1.000019 0.049181 0.172240
1.000019 0.049181 0.172974
0.049181 0.049181 0.121096
0.049186 0.049181 0.121118
0.068757 0.049181 0.121323
0.135022 0.049181 0.118778
0.209682 0.049181 0.111605
0.322848 0.049181 0.111349
0.465786 0.049181 0.116560
0.617398 0.049181 0.125173
0.771066 0.049181 0.136225
0.920947 0.049181 0.148822
1.000019 0.049181 0.159610
1.000019 0.049181 0.166235
1.000019 0.049181 0.169876
1.000019 0.049181 0.171445
1.000019 0.049181 0.172018
1.000019 0.049181 0.172743
0.049181 0.053932 0.118892
0.049181 0.053859 0.118902
0.060690 0.055262 0.119101
0.128476 0.053377 0.117477
0.205966 0.049310 0.109087
0.320635 0.049181 0.109032
0.464370 0.049181 0.114308
0.616357 0.049181 0.123001
0.770416 0.049181 0.134137
0.920365 0.049181 0.146860
1.000019 0.049181 0.157742
1.000019 0.049181 0.164465
1.000019 0.049181 0.168167
1.000019 0.049181 0.169744
1.000019 0.049181 0.170298
1.000019 0.049181 0.171077
0.049181 0.116763 0.113821
0.049181 0.116674 0.113883
0.049181 0.116023 0.114305
0.114373 0.114786 0.115047
0.198522 0.111835 0.115476
0.316245 0.103772 0.116085
0.461617 0.085200 0.117460
0.614375 0.054940 0.119536
0.768668 0.049181 0.129994
0.919120 0.049181 0.142979
1.000019 0.049181 0.154124
1.000019 0.049181 0.161009
1.000019 0.049181 0.164777
1.000019 0.049181 0.166401
1.000019 0.049181 0.166958
1.000019 0.049181 0.167723
0.049181 0.190935 0.091645
0.049181 0.190926 0.091690
0.049181 0.190558 0.091959
0.072855 0.189874 0.097885
0.179152 0.188323 0.104917
0.305965 0.181557 0.107514
0.455150 0.174701 0.112447
0.609851 0.162295 0.119521
0.765364 0.139402 0.128465
0.916240 0.099689 0.139689
1.000019 0.062779 0.147149
1.000019 0.055621 0.153336
1.000019 0.050861 0.156631
1.000019 0.049181 0.158127
1.000019 0.049181 0.158789
1.000019 0.049181 0.159643
0.049181 0.298839 0.058388
0.049181 0.298826 0.058414
0.049181 0.298618 0.058602
0.049181 0.298233 0.058970
0.102410 0.297327 0.069736
0.276854 0.294973 0.073069
0.437933 0.292137 0.079639
0.597953 0.290416 0.089223
0.756549 0.284975 0.101273
0.909275 0.273988 0.114768
1.000019 0.258908 0.126447
1.000019 0.245629 0.133933
1.000019 0.237688 0.137953
1.000019 0.234116 0.139637
1.000019 0.232810 0.140253
1.000019 0.230990 0.141057
0.049181 0.433557 0.049190
0.049181 0.433528 0.049190
0.049181 0.433379 0.049190
0.049181 0.433207 0.049188
0.049195 0.432585 0.049181
0.197003 0.431069 0.049181
0.402093 0.428138 0.049181
0.573459 0.430670 0.049181
0.738582 0.433210 0.049181
0.895445 0.432369 0.055171
0.996530 0.427966 0.067039
1.000019 0.421638 0.075928
1.000019 0.418145 0.082319
1.000019 0.416575 0.085055
1.000019 0.415970 0.086039
1.000019 0.415209 0.087332
0.049181 0.576030 0.049181
0.049181 0.576018 0.049181
0.049181 0.575895 0.049181
0.049181 0.575732 0.049181
0.049181 0.575299 0.049181
0.060744 0.574258 0.049181
0.341123 0.572131 0.049181
0.535323 0.568892 0.049181
