test-luts/UrbanGlow.cube
LUT_3D_SIZE 16
-0.141769 -0.141873 -0.141855
-0.137675 -0.141841 -0.141918
-0.084655 -0.141673 -0.141931
0.088549 -0.141532 -0.141931
0.147806 -0.141404 -0.141931
0.237768 -0.141202 -0.141931
0.354342 -0.140939 -0.141931
0.444137 -0.140746 -0.141931
0.520817 -0.140628 -0.141931
0.586507 -0.140472 -0.141931
0.645981 -0.140303 -0.141931
0.699234 -0.140074 -0.141931
0.744300 -0.139868 -0.141931
0.782307 -0.139603 -0.141931
0.817459 -0.139188 -0.141931
0.849872 -0.138658 -0.141931
-0.140891 -0.139607 -0.141570
-0.136231 -0.140116 -0.141835
-0.117635 -0.140059 -0.141928
0.052545 -0.139529 -0.141931
0.090388 -0.139639 -0.141931
0.137878 -0.139180 -0.141931
0.201760 -0.139007 -0.141931
0.303217 -0.138910 -0.141931
0.417912 -0.138578 -0.141931
0.502408 -0.138417 -0.141931
0.577378 -0.138212 -0.141931
0.647648 -0.137979 -0.141931
0.711044 -0.137530 -0.141931
0.764730 -0.136862 -0.141931
0.803688 -0.136118 -0.141931
0.836568 -0.135119 -0.141931
-0.138727 -0.118514 -0.138614
-0.130908 -0.125209 -0.139421
-0.107306 -0.127358 -0.141198
0.064123 -0.130089 -0.141931
0.096453 -0.129370 -0.141931
0.146946 -0.124186 -0.141931
0.222637 -0.117290 -0.141931
0.308462 -0.112098 -0.141931
0.402531 -0.110354 -0.141931
0.483445 -0.110905 -0.141931
0.541896 -0.111317 -0.141931
0.598284 -0.112144 -0.141931
0.657311 -0.112209 -0.141931
0.715049 -0.111495 -0.141931
0.761657 -0.109412 -0.141931
0.798052 -0.105141 -0.141931
-0.133315 0.050529 -0.128569
-0.122834 0.045049 -0.130277
-0.086265 -0.061749 -0.131800
0.074133 -0.101682 -0.141174
0.115146 -0.102819 -0.141930
0.172540 -0.080610 -0.141931
0.258598 0.044042 -0.141931
0.344256 0.080790 -0.141931
0.440048 0.109394 -0.141931
0.535842 0.133849 -0.141931
0.605512 0.147813 -0.141931
0.659469 0.157137 -0.141931
0.711405 0.165348 -0.141931
0.761660 0.172663 -0.141931
0.805850 0.178721 -0.141931
0.837321 0.184351 -0.141931
-0.119525 0.085330 -0.111281
-0.110923 0.084124 -0.110855
-0.082869 0.081169 -0.110303
0.082279 0.069722 -0.120305
0.130969 0.056983 -0.141575
0.205213 0.085186 -0.141930
0.308223 0.126731 -0.141931
0.410994 0.164618 -0.141931
0.504631 0.197424 -0.141931
0.594165 0.226532 -0.141931
0.665614 0.247551 -0.141931
0.712691 0.259617 -0.141931
0.754669 0.269569 -0.141931
0.796055 0.277913 -0.141931
0.834313 0.284781 -0.141931
0.863526 0.289528 -0.141931
-0.089815 0.121760 -0.070771
-0.082508 0.121729 -0.075850
-0.040423 0.121815 -0.073365
0.092935 0.112549 -0.062204
0.141117 0.116262 -0.114306
0.227489 0.138474 -0.141757
0.347683 0.189191 -0.141924
0.465117 0.237294 -0.141930
0.560237 0.273233 -0.141930
0.645129 0.302885 -0.141930
0.719695 0.325971 -0.141931
0.765909 0.338017 -0.141931
0.801682 0.345528 -0.141931
0.835657 0.351709 -0.141931
0.867048 0.356343 -0.141931
0.893643 0.359700 -0.141931
0.029570 0.167794 0.059258
0.045326 0.168927 0.055574
0.057851 0.171816 0.052469
0.113908 0.168159 0.059724
0.156140 0.160664 0.050279
0.235534 0.192156 -0.118321
0.366486 0.243753 -0.141672
0.499724 0.302887 -0.141916
0.594979 0.341761 -0.141921
0.677994 0.371937 -0.141926
0.748959 0.394421 -0.141929
0.798743 0.406446 -0.141930
0.831829 0.412228 -0.141930
0.862798 0.415735 -0.141931
0.890676 0.418120 -0.141931
0.920638 0.416213 -0.141931
0.059532 0.229313 0.082687
0.060993 0.231442 0.075542
0.065454 0.237418 0.065172
0.132647 0.244836 0.069542
0.188559 0.224719 0.069772
0.245107 0.238269 0.051459
0.361709 0.291460 -0.131510
0.506704 0.353066 -0.141567
0.609778 0.397786 -0.141793
0.694385 0.429459 -0.141909
0.763952 0.452432 -0.141907
0.817206 0.465838 -0.141906
0.851130 0.469551 -0.141928
0.880198 0.471492 -0.141928
0.905986 0.471923 -0.141928
0.938501 0.472129 -0.140226
0.066993 0.298999 0.098048
0.068165 0.303884 0.090049
0.070907 0.315862 0.077094
0.146341 0.334609 0.075202
0.225743 0.315205 0.077976
0.281363 0.307493 0.068387
0.364720 0.343293 -0.065072
0.493470 0.399059 -0.138576
0.610687 0.446447 -0.140987
0.698739 0.480310 -0.141522
0.770532 0.502664 -0.141789
0.828672 0.515231 -0.141894
0.862244 0.518675 -0.141895
0.890039 0.519307 -0.141893
0.915851 0.516462 -0.141924
0.943693 0.528064 -0.123510
0.071302 0.370842 0.110636
0.072311 0.378500 0.101446
0.074081 0.396433 0.086652
0.154179 0.424416 0.077484
0.257894 0.415832 0.080906
0.321353 0.393544 0.076293
0.390145 0.406612 0.055461
0.492946 0.454716 -0.108992
0.600752 0.496690 -0.138477
0.692018 0.526842 -0.140712
0.772001 0.550001 -0.141124
0.831530 0.562174 -0.141513
0.870473 0.564155 -0.141801
0.898490 0.561783 -0.141881
0.922708 0.558448 -0.141884
0.948973 0.573994 -0.093367
0.073775 0.450963 0.121273
0.074553 0.460517 0.110645
0.075474 0.482646 0.093771
0.158535 0.512737 0.077640
0.282581 0.515623 0.080374
0.360566 0.491817 0.077397
0.429061 0.488195 0.064678
0.501022 0.505534 -0.081750
0.598244 0.549391 -0.124069
0.685602 0.577396 -0.139184
0.764579 0.597749 -0.140405
0.832013 0.607914 -0.140507
0.875550 0.609497 -0.141178
0.903574 0.606276 -0.141478
0.928856 0.599297 -0.141791
0.950717 0.616111 -0.074391
0.074223 0.540294 0.129350
0.074590 0.552826 0.116624
0.074690 0.577144 0.096830
0.157615 0.605385 0.075469
0.299569 0.617363 0.076680
0.392361 0.594857 0.074397
0.461708 0.574851 0.065371
0.538648 0.588082 -0.048324
0.599560 0.598183 -0.113332
0.683009 0.629807 -0.131153
0.759823 0.648033 -0.139219
0.826995 0.655764 -0.140123
0.877133 0.653264 -0.139903
0.907759 0.646530 -0.140681
0.932506 0.639459 -0.141174
0.952227 0.653960 -0.070189
0.072050 0.632943 0.132460
0.071544 0.650708 0.116886
0.070935 0.674027 0.094113
0.153274 0.697508 0.070085
0.307457 0.712005 0.069909
0.411961 0.694132 0.067043
0.492143 0.673836 0.059171
0.563736 0.667739 -0.053321
0.628993 0.678023 -0.107571
0.683244 0.683078 -0.128304
0.757955 0.703222 -0.135339
0.824782 0.709199 -0.139392
0.876928 0.704040 -0.139747
0.907880 0.693227 -0.139548
0.935680 0.681093 -0.139418
0.951195 0.696357 0.045854
0.066622 0.717581 0.131888
0.064992 0.739264 0.109059
0.063886 0.758805 0.080084
0.150553 0.778467 0.060714
0.307659 0.793516 0.058314
0.418812 0.781761 0.053122
0.507357 0.765004 -0.033739
0.578269 0.747510 -0.086973
0.643810 0.751904 -0.113411
0.700858 0.757538 -0.128752
0.758311 0.762150 -0.137209
0.824019 0.768993 -0.137746
0.877497 0.761936 -0.139313
0.909514 0.748841 -0.139375
0.935694 0.734069 -0.137582
0.948988 0.743375 0.059573
0.056046 0.794786 0.133100
0.056070 0.809866 0.106078
0.052146 0.823975 0.060706
0.152513 0.838626 0.026928
0.303142 0.851026 -0.053373
0.414833 0.840971 -0.075151
0.506150 0.829426 -0.098272
0.583073 0.816696 -0.114722
0.643514 0.809853 -0.125934
0.701777 0.816713 -0.133714
0.760395 0.822391 -0.138779
0.823673 0.828723 -0.140629
0.878731 0.823209 -0.138732
0.912305 0.808807 -0.138990
0.936719 0.793384 -0.137738
0.947737 0.798399 0.049220
-0.063782 0.856353 0.121576
-0.053825 0.866112 0.099459
-0.052015 0.875623 0.045008
0.138735 0.886472 -0.081010
0.295576 0.894541 -0.100161
0.406685 0.885527 -0.112756
0.500671 0.874955 -0.122240
0.579577 0.864077 -0.129491
0.637825 0.854071 -0.134684
0.694005 0.856130 -0.138342
0.751938 0.862266 -0.140392
0.814263 0.868802 -0.141221
0.878821 0.874401 -0.140948
0.913924 0.860367 -0.138837
0.937557 0.845246 -0.137879
0.947663 0.848448 0.036920
-0.141912 -0.141715 -0.141481
-0.139599 -0.141633 -0.140142
-0.080699 -0.141663 -0.141131
0.095054 -0.141774 -0.141799
0.166567 -0.141886 -0.141928
0.261722 -0.141855 -0.141930
0.385208 -0.141756 -0.141931
0.493030 -0.141638 -0.141931
0.565621 -0.141561 -0.141931
0.627184 -0.141456 -0.141931
0.682610 -0.141348 -0.141931
0.733371 -0.141218 -0.141931
0.777962 -0.141079 -0.141931
0.812196 -0.140893 -0.141931
0.843346 -0.140641 -0.141931
0.872695 -0.140295 -0.141931
-0.141896 -0.139550 -0.139615
-0.140319 -0.139172 -0.138732
-0.126604 -0.139105 -0.139948
0.045968 -0.138860 -0.140996
0.095346 -0.140142 -0.141758
0.156364 -0.140531 -0.141927
0.231509 -0.140629 -0.141931
0.330410 -0.140630 -0.141931
0.451201 -0.140499 -0.141931
0.548800 -0.140443 -0.141931
0.620357 -0.140286 -0.141931
0.684822 -0.140045 -0.141931
0.744302 -0.139767 -0.141931
0.795504 -0.139347 -0.141931
0.832725 -0.138816 -0.141931
0.863009 -0.138197 -0.141931
-0.141401 -0.123280 -0.135185
-0.136468 -0.123470 -0.135029
-0.118162 -0.126423 -0.137089
0.058238 -0.128696 -0.140817
0.098587 -0.132732 -0.141910
0.144386 -0.130516 -0.141930
0.212800 -0.126979 -0.141931
0.290486 -0.124815 -0.141931
0.378584 -0.124387 -0.141931
0.466930 -0.125350 -0.141931
0.536939 -0.125606 -0.141931
0.602574 -0.125556 -0.141931
0.669211 -0.125506 -0.141931
0.733581 -0.125473 -0.141931
0.785375 -0.124909 -0.141931
0.819765 -0.122292 -0.141931
-0.138575 0.019749 -0.122599
-0.130771 -0.018696 -0.122640
-0.102663 -0.056939 -0.125664
0.068066 -0.096255 -0.135777
0.110963 -0.108625 -0.141883
0.163140 -0.095755 -0.141931
0.240825 -0.059836 -0.141931
0.327237 0.054522 -0.141931
0.420372 0.085918 -0.141931
0.519997 0.110725 -0.141931
0.596831 0.126118 -0.141931
0.652835 0.135929 -0.141931
0.706557 0.144595 -0.141931
0.757635 0.152376 -0.141931
0.803976 0.159549 -0.141931
0.837973 0.166911 -0.141931
-0.127247 0.082351 -0.108201
-0.118760 0.081654 -0.105334
-0.093467 0.081175 -0.100893
0.076818 0.072489 -0.109588
0.124457 0.055100 -0.138721
0.194682 0.074034 -0.141929
0.291978 0.113224 -0.141931
0.394100 0.151034 -0.141931
0.486269 0.183020 -0.141931
0.576295 0.212397 -0.141931
0.654123 0.235500 -0.141931
0.704620 0.248734 -0.141931
0.750028 0.259111 -0.141931
0.793299 0.268351 -0.141931
0.833170 0.276338 -0.141931
0.864858 0.282270 -0.141931
-0.100514 0.120018 -0.057968
-0.088180 0.119125 -0.053307
-0.053324 0.119950 -0.039211
0.087114 0.114257 -0.019514
0.134058 0.114991 -0.095121
0.217232 0.132975 -0.140974
0.334083 0.179206 -0.141925
0.452416 0.227235 -0.141930
0.547684 0.263043 -0.141930
0.634545 0.293107 -0.141931
0.710943 0.317369 -0.141931
0.761863 0.331290 -0.141931
0.799499 0.339850 -0.141931
0.834655 0.346906 -0.141931
0.866909 0.352529 -0.141931
0.894966 0.356576 -0.141931
-0.047053 0.167904 0.069119
0.044415 0.168465 0.071139
0.054873 0.171557 0.067668
0.104356 0.175451 0.063224
0.151984 0.161936 0.058415
0.226352 0.190424 -0.095594
0.354092 0.237570 -0.141176
0.488549 0.295411 -0.141916
0.586712 0.335481 -0.141921
0.671679 0.366030 -0.141929
0.743883 0.389498 -0.141929
0.797470 0.403232 -0.141930
0.831604 0.409653 -0.141930
0.863450 0.413388 -0.141931
0.891363 0.416098 -0.141931
0.922648 0.413660 -0.141931
0.056919 0.232046 0.097444
0.061552 0.233378 0.093054
0.066021 0.239030 0.086170
0.114887 0.253314 0.072073
0.184216 0.232213 0.074292
0.236416 0.235338 0.060356
0.352278 0.291611 -0.115696
0.496867 0.349170 -0.141459
0.603549 0.395660 -0.141775
0.689728 0.427852 -0.141909
0.760493 0.451467 -0.141907
0.816975 0.465875 -0.141906
0.852161 0.469913 -0.141928
0.881139 0.472034 -0.141928
0.907097 0.472342 -0.141928
0.939389 0.474590 -0.138834
0.065489 0.307066 0.116722
0.069261 0.311046 0.110935
0.072933 0.321351 0.102605
0.117380 0.344800 0.077616
0.220127 0.331564 0.081246
0.278416 0.313948 0.074082
0.355317 0.341658 0.046028
0.487964 0.403847 -0.127407
0.602935 0.446369 -0.140495
0.693844 0.480266 -0.141478
0.766710 0.503414 -0.141748
0.826996 0.516234 -0.141894
0.862978 0.520435 -0.141895
0.890978 0.520760 -0.141892
0.916823 0.517910 -0.141924
0.944548 0.531488 -0.117118
0.070098 0.383440 0.133347
0.073614 0.389629 0.125901
0.076930 0.406691 0.116248
0.115075 0.436607 0.080994
0.247813 0.440282 0.083503
0.320557 0.410557 0.080224
0.389813 0.416157 0.063794
0.485360 0.456944 -0.084035
0.596814 0.502868 -0.130813
0.686559 0.529754 -0.139996
0.767884 0.551745 -0.141038
0.829571 0.564607 -0.141473
0.870676 0.566666 -0.141785
0.899006 0.564179 -0.141880
0.923336 0.560523 -0.141884
0.949559 0.577549 -0.081296
0.072450 0.466173 0.148691
0.075663 0.474772 0.140063
0.078698 0.495111 0.128315
0.108397 0.526796 0.082331
0.265765 0.542687 0.082602
0.358904 0.515900 0.080655
0.427825 0.501595 0.069928
0.503828 0.518431 -0.045691
0.593686 0.555716 -0.109020
0.683267 0.586239 -0.132129
0.761282 0.604243 -0.138435
0.829583 0.612420 -0.140179
0.875677 0.613082 -0.141058
0.903909 0.609331 -0.141433
0.929287 0.601989 -0.141778
0.951205 0.619886 -0.056105
0.072566 0.556621 0.161919
0.075525 0.567704 0.151689
0.078008 0.590184 0.137310
0.099296 0.618791 0.081181
0.275045 0.638779 0.079361
0.385560 0.618173 0.077327
0.460828 0.593405 0.069306
0.538530 0.600382 0.048982
0.601236 0.610224 -0.102517
0.680099 0.638181 -0.119778
0.758357 0.657573 -0.133145
0.825533 0.663647 -0.137597
0.877108 0.659750 -0.138442
0.908141 0.652048 -0.139737
0.933153 0.644531 -0.140421
0.952606 0.658924 -0.046779
0.069754 0.649320 0.171915
0.072301 0.665014 0.159139
0.074421 0.685881 0.141699
0.089544 0.709318 0.077075
0.276073 0.729915 0.073193
0.399830 0.715123 0.070352
0.488420 0.693522 0.062821
0.560972 0.679312 0.042702
0.628724 0.689805 -0.092851
0.684651 0.695393 -0.120477
0.756173 0.712647 -0.126706
0.824018 0.718962 -0.133983
0.877421 0.712684 -0.136138
0.908512 0.701001 -0.136596
0.936373 0.687902 -0.136705
0.951783 0.701583 0.055564
0.063436 0.734733 0.181368
0.065102 0.754147 0.165288
0.066927 0.771315 0.144600
0.071289 0.790279 0.072077
0.267398 0.809036 0.063958
0.400876 0.800637 0.058835
0.499203 0.782296 0.047075
0.575413 0.763385 -0.073920
0.640453 0.762006 -0.103099
0.699012 0.768009 -0.120424
0.757961 0.773322 -0.131617
0.823102 0.779245 -0.131568
0.877587 0.771740 -0.134228
0.910436 0.757957 -0.134811
0.936571 0.742232 -0.132659
0.949577 0.749429 0.066028
0.050562 0.807498 0.186603
0.053059 0.821507 0.170919
0.055568 0.833993 0.152845
0.064440 0.847938 0.089608
0.260535 0.863036 0.056022
0.394796 0.859681 0.030263
0.495883 0.845882 -0.074893
0.578160 0.832656 -0.102623
0.638402 0.820935 -0.117248
0.697817 0.826346 -0.127443
0.757441 0.832064 -0.133836
0.821215 0.837944 -0.137447
0.878837 0.834138 -0.133471
0.913144 0.818755 -0.133735
0.937810 0.801989 -0.132022
0.948745 0.805335 0.060307
-0.079231 0.865001 0.179307
-0.071421 0.874248 0.167280
-0.061192 0.883153 0.152734
0.054180 0.893235 0.110065
0.254588 0.904368 0.052815
0.386781 0.903091 -0.040019
0.490199 0.891096 -0.089441
0.573612 0.879552 -0.113477
0.634749 0.869347 -0.123461
0.689978 0.865541 -0.130521
0.748278 0.870960 -0.135891
0.810543 0.876979 -0.138420
0.876998 0.883407 -0.139050
0.914586 0.870889 -0.133414
0.938595 0.854495 -0.132646
0.949038 0.856321 0.059221
-0.141931 -0.141178 -0.140391
-0.141908 -0.140018 -0.135310
-0.115502 -0.140271 -0.124110
0.084786 -0.140953 -0.133285
0.167445 -0.141727 -0.138086
0.286224 -0.141921 -0.139870
0.429345 -0.141927 -0.140684
0.559016 -0.141926 -0.141214
0.634550 -0.141925 -0.141492
0.695589 -0.141923 -0.141682
0.747479 -0.141922 -0.141810
0.790210 -0.141916 -0.141866
0.827698 -0.141894 -0.141900
0.857245 -0.141860 -0.141915
0.883440 -0.141810 -0.141921
0.908153 -0.141756 -0.141927
-0.141931 -0.138708 -0.136810
-0.141755 -0.137602 -0.134497
-0.134350 -0.136777 -0.128768
0.034896 -0.136882 -0.132246
0.099903 -0.137061 -0.136131
0.179547 -0.138543 -0.138538
0.298957 -0.140638 -0.140695
0.436130 -0.141647 -0.141673
0.563173 -0.141850 -0.141893
0.649685 -0.141856 -0.141917
0.709353 -0.141820 -0.141921
0.761473 -0.141770 -0.141926
0.807473 -0.141678 -0.141929
0.848888 -0.141567 -0.141930
0.879006 -0.141390 -0.141930
0.903424 -0.141192 -0.141931
-0.141931 -0.123381 -0.127277
-0.141599 -0.121457 -0.123242
-0.132839 -0.119106 -0.118709
0.046399 -0.116347 -0.123764
0.095415 -0.120351 -0.129075
0.160437 -0.121638 -0.135077
0.268357 -0.122457 -0.139446
0.381088 -0.125533 -0.141352
0.480664 -0.128526 -0.141781
0.578393 -0.131008 -0.141882
0.647180 -0.132705 -0.141917
0.703277 -0.133646 -0.141926
0.757705 -0.134666 -0.141930
0.807154 -0.135193 -0.141931
0.847033 -0.135069 -0.141931
0.873988 -0.134059 -0.141931
-0.141860 -0.018321 -0.109045
-0.140342 0.010229 -0.105197
-0.124590 0.039357 -0.100018
0.060622 -0.061922 -0.110006
0.106572 -0.082351 -0.125701
0.174788 -0.076371 -0.136672
0.283470 -0.055733 -0.141380
0.373128 0.044403 -0.141805
0.456750 0.072108 -0.141910
0.553383 0.092561 -0.141930
0.627046 0.106696 -0.141931
0.678029 0.115326 -0.141931
0.726106 0.122635 -0.141931
0.772469 0.129872 -0.141931
0.815836 0.136813 -0.141931
0.849098 0.144282 -0.141931
-0.137202 0.082960 -0.096580
-0.132048 0.082704 -0.092896
-0.114739 0.083833 -0.083146
0.063807 0.082222 -0.060804
0.117634 0.076827 -0.103301
0.196590 0.089178 -0.134524
0.309385 0.119287 -0.141519
0.410193 0.152212 -0.141905
0.499108 0.180712 -0.141931
0.582379 0.207948 -0.141931
0.660127 0.230791 -0.141931
0.712206 0.243616 -0.141931
0.756467 0.253420 -0.141931
0.798701 0.262451 -0.141931
0.837690 0.270055 -0.141931
0.870260 0.275706 -0.141931
-0.118384 0.121856 0.031086
-0.108336 0.121666 0.043394
-0.088052 0.122837 0.051192
0.077905 0.125452 0.060891
0.127484 0.120515 0.051309
0.211667 0.145599 -0.112489
0.338724 0.185667 -0.140621
0.458296 0.229077 -0.141898
0.550217 0.262310 -0.141930
0.635313 0.291453 -0.141931
0.711335 0.315572 -0.141931
0.764595 0.330201 -0.141931
0.802148 0.338511 -0.141931
0.837164 0.345315 -0.141931
0.869137 0.350690 -0.141931
0.897354 0.354550 -0.141931
-0.082855 0.173650 0.084490
-0.058327 0.174844 0.087426
0.046475 0.177821 0.091152
0.080225 0.189281 0.075443
0.150326 0.174895 0.072785
0.218818 0.194818 0.056625
0.350300 0.247316 -0.126570
0.486989 0.298258 -0.141566
0.587307 0.336394 -0.141917
0.670633 0.366366 -0.141927
0.743172 0.389478 -0.141929
0.799042 0.403637 -0.141930
0.833668 0.409782 -0.141930
0.865200 0.413182 -0.141931
0.893273 0.415638 -0.141931
0.925875 0.412385 -0.141931
0.048476 0.241872 0.121629
0.056086 0.243556 0.119925
0.062358 0.249118 0.117503
0.080257 0.266377 0.096220
0.179987 0.259927 0.084640
0.237584 0.247204 0.073798
0.346618 0.299737 0.032993
0.494663 0.359451 -0.133520
0.601980 0.400165 -0.141225
0.688726 0.430579 -0.141879
0.760490 0.453520 -0.141907
0.818359 0.468186 -0.141906
0.854218 0.471780 -0.141928
0.882946 0.473362 -0.141928
0.908566 0.473310 -0.141928
0.940437 0.477704 -0.137018
0.060998 0.322506 0.149678
0.065644 0.325967 0.146113
0.070518 0.335465 0.142356
0.081715 0.357859 0.120922
0.204417 0.366696 0.090528
0.279673 0.334934 0.086182
0.348575 0.345698 0.067253
0.484486 0.414339 -0.085714
0.602125 0.456583 -0.132749
0.691659 0.485557 -0.140447
0.764962 0.507288 -0.141532
0.826744 0.519578 -0.141874
0.864564 0.523368 -0.141894
0.892541 0.523356 -0.141892
0.918496 0.520172 -0.141924
0.945496 0.536201 -0.108726
0.066406 0.402670 0.173236
0.070387 0.408699 0.168507
0.074563 0.424789 0.163747
0.082934 0.452588 0.143504
0.217070 0.475077 0.092619
0.322119 0.445529 0.091077
0.392699 0.433680 0.076929
0.480668 0.463813 0.050926
0.595549 0.514354 -0.104739
0.685896 0.540487 -0.131971
0.766359 0.559475 -0.138350
0.829081 0.570441 -0.140584
0.871611 0.572266 -0.141378
0.900716 0.568300 -0.141772
0.925714 0.563574 -0.141819
0.950257 0.582546 -0.059323
0.068819 0.486631 0.194336
0.072355 0.495205 0.188719
0.076016 0.514800 0.182545
0.083134 0.543663 0.162644
0.219859 0.573204 0.092789
0.352761 0.554501 0.091055
0.429777 0.525893 0.081738
0.509648 0.537631 0.060298
0.591358 0.565891 -0.070608
0.682272 0.598452 -0.113306
0.760979 0.615691 -0.129949
0.829209 0.621846 -0.135934
0.876958 0.621162 -0.138558
0.904999 0.616470 -0.139722
0.930429 0.608735 -0.140664
0.952012 0.624868 0.035445
0.068730 0.576611 0.213366
0.071943 0.587490 0.206677
0.075117 0.609031 0.198693
0.080893 0.634395 0.179243
0.213792 0.662322 0.091813
0.369694 0.655036 0.088681
0.462906 0.626544 0.081247
0.540182 0.619067 0.065801
0.607273 0.629041 -0.051371
0.678642 0.649720 -0.094993
0.758133 0.670112 -0.117337
0.825911 0.675440 -0.128032
0.878414 0.669943 -0.131618
0.909564 0.661432 -0.134476
0.934559 0.653109 -0.136413
0.953209 0.665058 0.048011
0.065670 0.667755 0.229162
0.068526 0.682873 0.220600
0.070964 0.702318 0.210123
0.075370 0.722784 0.191256
0.197157 0.745576 0.088823
0.374077 0.747663 0.084243
0.482386 0.723508 0.077257
0.560540 0.700940 0.065448
0.630727 0.706667 0.041956
0.688410 0.712095 -0.093330
0.755578 0.724832 -0.109155
0.824191 0.731328 -0.119764
0.878255 0.724114 -0.125178
0.910011 0.711493 -0.126684
0.937466 0.697227 -0.128056
0.952464 0.707624 0.063772
0.058441 0.751284 0.239855
0.060680 0.769115 0.229514
0.062877 0.784893 0.217363
0.066166 0.801631 0.199226
0.170802 0.819204 0.085146
0.366094 0.826197 0.078749
0.485914 0.807838 0.071553
0.574664 0.788325 0.060623
0.639629 0.777318 0.038691
0.699665 0.782856 -0.082311
0.759653 0.787506 -0.110945
0.823532 0.791662 -0.115962
0.878534 0.783378 -0.120203
0.911850 0.768572 -0.121671
0.938029 0.751636 -0.119771
0.950513 0.756008 0.073854
0.006028 0.819599 0.244415
0.043156 0.832575 0.235058
0.049290 0.844253 0.223508
0.055502 0.857072 0.205836
0.153297 0.871377 0.083984
0.354360 0.880975 0.076264
0.478423 0.869685 0.068588
0.573439 0.856309 0.057835
0.639596 0.843309 0.015903
0.697252 0.840814 -0.073965
0.757675 0.845872 -0.099692
0.821459 0.850855 -0.116245
0.880475 0.846998 -0.114885
0.914834 0.829958 -0.116120
0.939320 0.811630 -0.115145
0.950224 0.812253 0.072038
-0.092593 0.873724 0.240590
-0.085815 0.882198 0.231938
-0.077231 0.890535 0.222392
-0.040750 0.899890 0.209424
0.148164 0.910226 0.085245
0.344425 0.919143 0.078102
0.469405 0.911300 0.072609
0.565643 0.901679 0.064922
0.634555 0.892238 0.057646
0.689979 0.883614 0.046896
0.748852 0.885689 -0.064793
0.810822 0.890596 -0.093193
0.876850 0.895718 -0.107778
0.918263 0.885705 -0.090541
0.941850 0.867619 -0.091158
0.952232 0.866233 0.083769
-0.141931 -0.139403 -0.136883
-0.141931 -0.137377 -0.131912
-0.138770 -0.131268 -0.091061
0.062416 -0.136264 -0.076458
0.134837 -0.138871 -0.093901
0.260261 -0.140401 -0.098584
0.416584 -0.141455 -0.108165
0.559315 -0.141854 -0.116994
0.642803 -0.141913 -0.121822
0.703906 -0.141925 -0.125363
0.755119 -0.141923 -0.128306
0.800413 -0.141922 -0.130576
0.840769 -0.141921 -0.132559
0.872681 -0.141919 -0.134195
0.899043 -0.141922 -0.135526
0.923493 -0.141920 -0.136526
-0.141931 -0.136471 -0.132444
-0.141931 -0.134560 -0.127753
-0.141375 -0.130593 -0.113660
-0.095859 -0.129782 -0.079839
0.088003 -0.130632 -0.106896
0.172430 -0.133458 -0.113741
0.296757 -0.136977 -0.119112
0.437992 -0.139830 -0.123924
0.579330 -0.141246 -0.128258
0.675970 -0.141710 -0.131125
0.737863 -0.141848 -0.133000
0.790109 -0.141891 -0.134457
0.836005 -0.141912 -0.135752
0.877421 -0.141919 -0.136944
0.907901 -0.141921 -0.137747
0.931415 -0.141919 -0.138373
-0.141931 -0.119405 -0.113722
-0.141931 -0.116650 -0.107379
-0.140884 -0.110452 -0.091465
-0.097643 -0.098803 0.037007
0.089955 -0.098430 -0.080926
0.163481 -0.096796 -0.088023
0.287074 -0.099102 -0.098185
0.417881 -0.105513 -0.108809
0.556613 -0.114653 -0.118303
0.677722 -0.124950 -0.126023
0.749297 -0.130268 -0.130172
0.800448 -0.133455 -0.132740
0.845191 -0.136233 -0.134964
0.884963 -0.138369 -0.136834
0.918013 -0.139600 -0.138265
0.940163 -0.139820 -0.138974
-0.141931 -0.012286 -0.063302
-0.141931 0.043015 -0.049576
-0.141047 0.051409 -0.009373
-0.086127 0.055702 0.061154
0.094669 0.063431 0.056443
0.162904 0.072164 0.049285
0.279890 0.087842 -0.059142
0.408660 0.105475 -0.088314
0.532309 0.119336 -0.104078
0.645597 0.126019 -0.115504
0.728912 0.125146 -0.122697
0.780295 0.122174 -0.126466
0.824222 0.117657 -0.129295
0.863709 0.112606 -0.131558
0.898720 0.106473 -0.133432
0.924109 0.105043 -0.134331
-0.141914 0.082959 -0.052776
-0.141643 0.084203 -0.042398
-0.138958 0.085403 -0.014306
-0.044639 0.091739 0.068826
0.105089 0.094897 0.067399
0.181140 0.114904 0.058056
0.306065 0.152542 -0.038816
0.443188 0.187297 -0.092618
0.560966 0.212072 -0.112728
0.664658 0.229578 -0.123829
0.748675 0.239099 -0.130630
0.800031 0.241428 -0.133803
0.839143 0.241491 -0.135694
0.874624 0.240477 -0.137103
0.906025 0.239194 -0.138003
0.931789 0.237862 -0.138531
-0.138466 0.124177 0.067003
-0.134729 0.124362 0.069572
-0.127478 0.125900 0.073278
0.044917 0.134949 0.092520
0.119053 0.134648 0.082595
0.195827 0.155770 0.073672
