test-luts/UrbanGlow.cube
LUT_3D_SIZE 6
-0.141769 -0.141873 -0.141855
0.088549 -0.141532 -0.141931
0.354342 -0.140939 -0.141931
0.586507 -0.140472 -0.141931
0.744300 -0.139868 -0.141931
0.849872 -0.138658 -0.141931
-0.133315 0.050529 -0.128569
0.074133 -0.101682 -0.141174
0.258598 0.044042 -0.141931
0.535842 0.133849 -0.141931
0.711405 0.165348 -0.141931
0.837321 0.184351 -0.141931
0.029570 0.167794 0.059258
0.113908 0.168159 0.059724
0.366486 0.243753 -0.141672
0.677994 0.371937 -0.141926
0.831829 0.412228 -0.141930
0.920638 0.416213 -0.141931
0.071302 0.370842 0.110636
0.154179 0.424416 0.077484
0.390145 0.406612 0.055461
0.692018 0.526842 -0.140712
0.870473 0.564155 -0.141801
0.948973 0.573994 -0.093367
0.072050 0.632943 0.132460
0.153274 0.697508 0.070085
0.492143 0.673836 0.059171
0.683244 0.683078 -0.128304
0.876928 0.704040 -0.139747
0.951195 0.696357 0.045854
-0.063782 0.856353 0.121576
0.138735 0.886472 -0.081010
0.500671 0.874955 -0.122240
0.694005 0.856130 -0.138342
0.878821 0.874401 -0.140948
0.947663 0.848448 0.036920
-0.141931 -0.139403 -0.136883
0.062416 -0.136264 -0.076458
0.416584 -0.141455 -0.108165
0.703906 -0.141925 -0.125363
0.840769 -0.141921 -0.132559
0.923493 -0.141920 -0.136526
-0.141931 -0.012286 -0.063302
-0.086127 0.055702 0.061154
0.279890 0.087842 -0.059142
0.645597 0.126019 -0.115504
0.824222 0.117657 -0.129295
0.924109 0.105043 -0.134331
-0.122357 0.180260 0.106929
0.055635 0.199610 0.124051
0.340795 0.262581 0.073713
0.694361 0.393838 -0.113802
0.859538 0.416656 -0.136225
0.938544 0.417880 -0.133863
0.052092 0.423777 0.222823
0.072916 0.474887 0.225148
0.398613 0.471169 0.108281
0.698447 0.569080 0.069631
0.879553 0.596293 -0.093030
0.952408 0.590540 0.067064
0.056854 0.686884 0.294902
0.068213 0.739608 0.279956
0.459910 0.766385 0.110415
0.699034 0.742404 0.081979
0.885371 0.744674 0.069830
0.956160 0.716657 0.090962
-0.107139 0.882259 0.303674
-0.082246 0.907115 0.286622
0.424770 0.930995 0.113462
0.682732 0.907181 0.102104
0.876916 0.911844 0.088542
0.958831 0.880670 0.151716
-0.141931 -0.121211 -0.101678
-0.139394 -0.082631 0.087853
0.242097 -0.089442 0.192272
0.604763 -0.112135 0.306734
0.810480 -0.121826 0.307870
0.919214 -0.135349 0.272690
-0.141931 0.038391 0.077326
-0.138489 0.068862 0.102735
0.198542 0.097646 0.186006
0.641906 0.087204 0.308020
0.858202 0.075858 0.300661
0.954771 0.067065 0.263919
-0.141931 0.178031 0.170745
-0.141930 0.201889 0.192169
0.220880 0.306053 0.323130
0.689770 0.357859 0.264835
0.881041 0.379568 0.234338
0.959220 0.374995 0.218664
-0.141869 0.442673 0.327748
-0.134411 0.500015 0.362574
0.285852 0.614851 0.368345
0.709332 0.619327 0.329696
0.894436 0.624062 0.277484
0.963891 0.598933 0.258832
-0.135077 0.713177 0.434313
-0.119566 0.763579 0.450123
0.268649 0.829469 0.388354
0.693745 0.816782 0.341818
0.901090 0.790194 0.349911
0.970183 0.745293 0.324458
-0.140979 0.896314 0.436735
-0.133655 0.919221 0.437160
0.272834 0.949931 0.376656
0.637436 0.954211 0.364049
0.863028 0.942843 0.361376
0.972878 0.921231 0.491946
-0.141931 -0.091156 0.057939
-0.141311 0.052698 0.108360
0.218607 0.081376 0.238649
0.481784 0.059851 0.392943
0.718546 -0.025326 0.473614
0.873441 -0.081246 0.475771
-0.141931 0.067730 0.098717
-0.139223 0.100866 0.138125
0.131592 0.148012 0.450280
0.495184 0.119011 0.436487
0.767923 0.102889 0.521361
0.918263 0.088667 0.501868
-0.141931 0.220549 0.243573
-0.141931 0.245672 0.272662
0.160636 0.400077 0.485966
0.625312 0.369430 0.583456
0.888731 0.352488 0.539519
0.979213 0.340620 0.467622
-0.141931 0.420213 0.409124
-0.141931 0.472909 0.454547
0.185271 0.627255 0.616298
0.671951 0.695105 0.697926
0.906804 0.691656 0.637713
0.978006 0.673995 0.612686
-0.141931 0.681769 0.545907
-0.141931 0.755719 0.579800
0.180744 0.836084 0.623163
0.711027 0.872717 0.686789
0.911214 0.849799 0.697837
0.979353 0.820502 0.663834
-0.141931 0.884337 0.569839
-0.141930 0.921529 0.565706
0.200184 0.957196 0.579981
0.708017 0.975388 0.701696
0.879393 0.966874 0.708060
0.983035 0.957784 0.773327
-0.141931 -0.037977 0.086778
-0.141221 0.095363 0.144813
0.124426 0.134732 0.539985
0.479992 0.088515 0.473513
0.663100 0.077011 0.582606
0.820790 0.068001 0.619267
-0.141931 0.096455 0.129458
-0.138680 0.145637 0.193127
0.073275 0.313680 0.500227
0.498141 0.155855 0.550568
0.715583 0.125536 0.653953
0.867648 0.110236 0.667387
-0.141931 0.277551 0.329370
-0.141931 0.336423 0.409601
0.140239 0.488527 0.634031
0.595218 0.407243 0.811885
0.827435 0.414059 0.760292
0.945830 0.383481 0.702291
-0.141931 0.509368 0.563707
-0.141931 0.546200 0.603839
0.165136 0.674347 0.788703
0.652696 0.716664 0.841780
0.897179 0.727690 0.825989
0.988778 0.715358 0.777817
-0.141931 0.693586 0.671706
-0.141931 0.747189 0.712851
0.166991 0.838615 0.798543
0.680847 0.873702 0.838130
0.920513 0.888984 0.863517
0.988500 0.883755 0.848487
-0.141931 0.872778 0.690202
-0.141931 0.909734 0.693643
0.168577 0.958143 0.712727
0.690592 0.979640 0.801457
0.913361 0.987481 0.873970
0.990509 0.976721 0.895354
-0.141931 0.091751 0.133222
-0.139943 0.158447 0.221914
0.076243 0.325871 0.590600
0.490023 0.155728 0.637077
0.669055 0.109531 0.677867
0.815537 0.086960 0.744302
-0.141931 0.160415 0.211339
-0.135934 0.227657 0.301204
0.055798 0.402012 0.598111
0.496880 0.211870 0.833657
0.700284 0.177293 0.753291
0.860380 0.131178 0.805033
-0.141931 0.362746 0.456856
-0.136438 0.483210 0.626239
0.133073 0.563331 0.781657
0.511762 0.468614 0.952919
0.792372 0.454476 0.876805
0.925475 0.424171 0.878698
-0.141931 0.586693 0.724631
-0.141931 0.629509 0.789068
0.182863 0.697097 0.889633
0.635275 0.722084 0.937619
0.869730 0.750924 0.935253
0.958881 0.754175 0.926436
-0.141931 0.735503 0.822074
-0.141931 0.762821 0.850855
0.192119 0.806241 0.935485
0.636519 0.852617 0.946766
0.913644 0.905053 0.971373
0.983134 0.907627 0.956752
-0.141931 0.888766 0.841617
-0.141931 0.919102 0.857346
0.202745 0.960166 0.891786
0.650931 0.977023 0.918978
0.919759 0.991789 0.962749
0.998696 0.991756 0.976546
