lut-uploads/C-9760-STD.cube
# Copyright: (C) Copyright 2016 by IWLTBAP
# Cannot be resold, shared or otherwise redistributed
# Website: http://luts.iwltbap.com
TITLE "IWLTBAP 9760 (Rec.709)"
LUT_3D_SIZE 5
DOMAIN_MIN 0.000000 0.000000 0.000000
DOMAIN_MAX 0.903226 0.903226 0.903226
0.000000 0.000000 0.000000
0.193813 0.000000 0.000000
0.470946 0.006603 0.000000
0.699393 0.017147 0.000000
0.863194 0.047864 0.010393
0.000000 0.000000 0.000000
0.161368 0.057710 0.007200
0.483266 0.201132 0.026735
0.734544 0.230628 0.054254
0.899613 0.297547 0.123227
0.000000 0.000000 0.032103
0.089364 0.077769 0.089248
0.436205 0.238602 0.090858
0.730064 0.397895 0.108501
0.933801 0.546002 0.151618
0.000000 0.000000 0.065848
0.120962 0.080361 0.071372
0.480576 0.233903 0.048672
0.752889 0.385153 0.060723
0.928615 0.519714 0.108370
0.027349 0.090819 0.165163
0.296721 0.220887 0.167785
0.593995 0.335626 0.125254
0.807611 0.443269 0.109263
0.931172 0.523132 0.111325
0.000000 0.008987 0.236496
0.160451 0.000000 0.212220
0.474873 0.000000 0.191573
0.692905 0.000000 0.163568
0.852282 0.014359 0.188717
0.000000 0.103337 0.252772
0.095946 0.172263 0.234456
0.456189 0.184815 0.173149
0.720781 0.221774 0.208707
0.898599 0.334481 0.351402
0.000000 0.124469 0.312071
0.084658 0.249923 0.366877
0.385902 0.330266 0.282223
0.713413 0.445929 0.214298
0.944499 0.562243 0.349080
0.000000 0.134227 0.323626
0.103839 0.239231 0.331330
0.475107 0.382684 0.301401
0.775967 0.518938 0.270622
0.954195 0.659036 0.323384
0.050546 0.263242 0.420519
0.230153 0.352393 0.426561
0.575723 0.474643 0.379520
0.817507 0.568967 0.317124
0.942709 0.641958 0.307859
0.000000 0.054578 0.470313
0.130551 0.000000 0.433088
0.451187 0.001146 0.414638
0.691225 0.004192 0.398313
0.854468 0.032576 0.426452
0.000000 0.247463 0.498188
0.129102 0.266747 0.529514
0.414422 0.212866 0.478154
0.727110 0.253845 0.506712
0.894789 0.322929 0.572722
0.000000 0.285047 0.563644
0.117489 0.408042 0.615605
0.335319 0.492541 0.579442
0.699456 0.472069 0.460530
0.945615 0.588094 0.584574
0.000000 0.287515 0.558137
0.140263 0.396510 0.573153
0.404429 0.521776 0.574401
0.772463 0.651865 0.518225
0.972676 0.808742 0.608525
0.077510 0.407235 0.652337
0.238085 0.499151 0.663942
0.494225 0.602213 0.645345
0.821958 0.725227 0.603811
0.952996 0.783097 0.576734
0.000000 0.082472 0.670511
0.128927 0.009073 0.633757
0.400109 0.000000 0.605359
0.686397 0.011008 0.600583
0.854714 0.044171 0.629760
0.000000 0.284523 0.704643
0.143529 0.299341 0.736401
0.391332 0.234425 0.707046
0.703463 0.261964 0.713226
0.898602 0.334606 0.768441
0.000000 0.419192 0.779051
0.144488 0.536530 0.822529
0.357283 0.568530 0.826264
0.724580 0.532133 0.752643
0.948004 0.575297 0.766992
0.000000 0.416802 0.760590
0.169306 0.523731 0.776028
0.404874 0.652060 0.790950
0.742041 0.747110 0.743137
0.972479 0.838873 0.825337
0.098810 0.526761 0.847368
0.249666 0.607974 0.850947
0.458746 0.705264 0.840853
0.787462 0.841757 0.832988
0.956888 0.910367 0.808798
0.000000 0.112562 0.767786
0.147360 0.019485 0.724291
0.410614 0.003210 0.699472
0.684205 0.020871 0.696067
0.868319 0.066555 0.734828
0.003629 0.311676 0.807792
0.160176 0.326729 0.839162
0.403314 0.261693 0.809502
0.711266 0.283935 0.806423
0.912040 0.353439 0.852203
0.000000 0.485098 0.878033
0.164177 0.581690 0.909916
0.378108 0.581732 0.905728
0.747064 0.541451 0.829998
0.961532 0.589914 0.852208
0.013057 0.482801 0.852848
0.191811 0.587411 0.868878
0.414483 0.712879 0.886024
0.767460 0.814039 0.905072
0.978318 0.846363 0.914612
0.111458 0.579101 0.928179
0.254828 0.653564 0.925299
0.450415 0.747018 0.915244
0.744652 0.871175 0.915576
0.945000 0.940409 0.882236
