lut-uploads/C-9760-STD.cube
# Copyright: (C) Copyright 2016 by IWLTBAP
# Cannot be resold, shared or otherwise redistributed
# Website: http://luts.iwltbap.com
TITLE "IWLTBAP 9760 (Rec.709)"
LUT_3D_SIZE 8
DOMAIN_MIN 0.000000 0.000000 0.000000
DOMAIN_MAX 0.903226 0.903226 0.903226
0.000000 0.000000 0.000000
0.051917 0.000000 0.000000
0.239166 0.000000 0.000000
0.401878 0.002882 0.000000
0.535712 0.010433 0.000000
0.664668 0.015792 0.000000
0.797925 0.024879 0.000000
0.863194 0.047864 0.010393
0.000000 0.000000 0.000000
0.044058 0.011702 0.000000
0.214807 0.070776 0.000004
0.397873 0.091383 0.000012
0.545072 0.105009 0.002504
0.682514 0.115811 0.006089
0.823454 0.131385 0.017416
0.892478 0.170876 0.058764
0.000000 0.000000 0.000000
0.029756 0.010698 0.002396
0.209202 0.081968 0.014063
0.396967 0.180325 0.028782
0.556937 0.254686 0.049851
0.696165 0.267536 0.063367
0.829047 0.287715 0.082948
0.899139 0.339578 0.136223
0.000000 0.000000 0.007593
0.011061 0.015146 0.035173
0.166823 0.096684 0.066143
0.362670 0.193555 0.074842
0.526891 0.282540 0.092205
0.682989 0.369418 0.103938
0.835695 0.453896 0.120617
0.918600 0.497103 0.154599
0.000000 0.000000 0.058493
0.000644 0.024091 0.087957
0.131538 0.105729 0.104187
0.351040 0.197666 0.089457
0.531576 0.284513 0.091577
0.700516 0.374363 0.096135
0.860379 0.474857 0.106971
0.939768 0.542710 0.135664
0.000000 0.000000 0.073147
0.004666 0.026891 0.089460
0.167957 0.105297 0.079042
0.386100 0.194345 0.058464
0.560387 0.279456 0.059331
0.716338 0.365462 0.063606
0.862743 0.460365 0.078395
0.932779 0.525316 0.113185
0.000000 0.000000 0.046682
0.036045 0.034180 0.056039
0.223958 0.109100 0.046254
0.413428 0.199507 0.045990
0.573793 0.282919 0.053732
0.720526 0.367100 0.062074
0.861945 0.459341 0.077389
0.924022 0.513524 0.103077
0.027349 0.090819 0.165163
0.168906 0.165332 0.171096
0.342630 0.239613 0.164490
0.522136 0.304464 0.131145
0.656591 0.364725 0.119765
0.775973 0.425318 0.110843
0.891181 0.493921 0.106264
0.931172 0.523132 0.111325
0.000000 0.000000 0.109987
0.047336 0.000000 0.105205
0.250293 0.000000 0.096554
0.406431 0.000000 0.078024
0.534608 0.001117 0.073122
0.662577 0.005933 0.071491
0.795899 0.019745 0.076758
0.860848 0.044024 0.100888
0.000000 0.017251 0.117171
0.030579 0.062563 0.115845
0.204972 0.081514 0.086528
0.400362 0.085734 0.065013
0.549567 0.101166 0.078138
0.685310 0.116092 0.092332
0.825356 0.144168 0.116955
0.894727 0.188883 0.163974
0.000000 0.010485 0.118062
0.026981 0.073430 0.137658
0.179706 0.132627 0.113146
0.372687 0.194310 0.076475
0.531678 0.208024 0.067882
0.673352 0.218969 0.074196
0.826616 0.299105 0.173383
0.904335 0.366429 0.251588
0.000000 0.015917 0.145737
0.013199 0.094911 0.183438
0.126129 0.177397 0.218966
0.334663 0.257362 0.199043
0.499911 0.303310 0.147269
0.662687 0.373608 0.131532
0.835085 0.443141 0.192082
0.924862 0.495540 0.245080
0.000000 0.039592 0.200187
0.004006 0.119250 0.231625
0.104418 0.184054 0.245184
0.343580 0.282311 0.233727
0.536099 0.361063 0.217556
0.704802 0.419341 0.169148
0.880925 0.548940 0.210655
0.956659 0.612651 0.240673
0.000000 0.045621 0.207005
0.009984 0.118545 0.223771
0.141646 0.183493 0.216698
0.382601 0.274255 0.191164
0.570945 0.347131 0.163183
0.729816 0.428342 0.161349
0.878881 0.530843 0.181644
0.947064 0.593993 0.218371
0.000000 0.048685 0.177613
0.035631 0.111361 0.188759
0.204811 0.190821 0.186782
0.408851 0.276788 0.175907
0.581209 0.349217 0.158216
0.732119 0.429198 0.160532
0.876111 0.527245 0.178788
0.932919 0.573844 0.200442
0.036992 0.183735 0.297747
0.135843 0.235964 0.304153
0.321956 0.311380 0.297480
0.504460 0.378384 0.270754
0.654019 0.427032 0.230828
0.779465 0.482188 0.204681
0.898637 0.556049 0.203771
0.936803 0.579399 0.205352
0.000000 0.020097 0.277820
0.032392 0.001114 0.264251
0.207204 0.000000 0.246209
0.403648 0.000000 0.234469
0.536403 0.000000 0.223779
0.659950 0.000000 0.206935
0.787634 0.000000 0.197359
0.852154 0.013918 0.220492
0.000000 0.126190 0.290469
0.033728 0.121531 0.290333
0.169346 0.082804 0.258121
0.400360 0.094995 0.248711
0.547287 0.093246 0.244166
0.679014 0.090719 0.232690
0.813536 0.106029 0.236588
0.880759 0.153627 0.284324
0.000000 0.130850 0.296179
0.035891 0.194657 0.316222
0.126304 0.218326 0.285058
0.346449 0.215086 0.226736
0.515671 0.232492 0.226407
0.672433 0.257036 0.249327
0.823852 0.323112 0.344509
0.899652 0.379768 0.401112
0.000000 0.142503 0.329114
0.023209 0.217060 0.364545
0.126099 0.290534 0.399139
0.259205 0.297265 0.315331
0.452367 0.346284 0.259030
0.636713 0.362524 0.222862
0.823884 0.443911 0.322041
0.932361 0.521907 0.411771
0.000000 0.161432 0.374998
0.011875 0.231365 0.401407
0.120612 0.298162 0.417591
0.280723 0.347073 0.380264
0.503292 0.408466 0.323124
0.690627 0.466619 0.267715
0.886818 0.595189 0.344564
0.960000 0.626192 0.378854
0.000000 0.163857 0.373498
0.022662 0.230041 0.387721
0.138074 0.287927 0.383745
0.357110 0.372023 0.369628
0.565801 0.452538 0.348979
0.737034 0.520408 0.318269
0.895650 0.630407 0.333138
0.962433 0.691119 0.368630
0.000000 0.166222 0.345329
0.049836 0.227542 0.359176
0.162127 0.285005 0.363431
0.384099 0.375652 0.357795
0.573031 0.454466 0.346271
0.742508 0.529975 0.329702
0.890560 0.623460 0.326768
0.943658 0.662909 0.342484
0.055206 0.288170 0.460251
0.148150 0.343367 0.471385
0.264767 0.391046 0.464372
0.477665 0.468538 0.443590
0.645686 0.527460 0.411172
0.784797 0.578280 0.374022
0.907016 0.645739 0.348497
0.944695 0.664444 0.343887
0.000000 0.045282 0.409912
0.034121 0.019649 0.399255
0.181531 0.000000 0.369229
0.381047 0.000000 0.360277
0.530977 0.002956 0.348493
0.658225 0.000406 0.340518
0.787179 0.000183 0.336896
0.853147 0.017767 0.362885
0.000000 0.152812 0.423632
0.039679 0.149635 0.426097
0.145862 0.101505 0.405853
0.369402 0.092207 0.377662
0.546438 0.105441 0.374556
0.681908 0.108767 0.374436
0.815388 0.120421 0.387016
0.881634 0.170103 0.437528
0.000000 0.221337 0.436687
0.051962 0.278154 0.459356
0.151617 0.292578 0.478935
0.313341 0.238918 0.408522
0.518220 0.244713 0.391497
0.675406 0.269386 0.420034
0.822346 0.316158 0.481588
0.892291 0.358305 0.517807
0.000000 0.234887 0.474115
0.039122 0.307062 0.508804
0.146141 0.384830 0.546732
0.251477 0.407373 0.500982
0.433689 0.389280 0.424719
0.634140 0.397768 0.395599
0.837285 0.478316 0.488452
0.929690 0.527530 0.533407
0.000000 0.250876 0.514911
0.028560 0.318284 0.539293
0.142933 0.389243 0.557627
0.266873 0.420426 0.509844
0.469592 0.456722 0.430244
0.666101 0.494156 0.355672
0.871018 0.581404 0.454317
0.962851 0.642059 0.525173
0.000000 0.251208 0.507452
0.042341 0.315351 0.520712
0.159934 0.378529 0.522435
0.319059 0.444908 0.512461
0.552859 0.532128 0.494037
0.726608 0.583697 0.438588
0.903311 0.709937 0.490684
0.972366 0.770262 0.537725
0.000000 0.252463 0.479951
0.067558 0.315375 0.496978
0.174531 0.378619 0.508660
0.331218 0.447261 0.507313
0.564315 0.545445 0.507271
0.750017 0.630197 0.499689
0.901834 0.710917 0.493894
0.951419 0.745220 0.502897
0.071011 0.370643 0.592485
0.164132 0.426619 0.604486
0.260672 0.476296 0.602294
0.410529 0.532674 0.587837
0.628836 0.611810 0.568448
0.786079 0.669668 0.537470
0.912516 0.725603 0.509398
0.950789 0.744308 0.501931
0.000000 0.063479 0.528241
0.039983 0.040982 0.521346
0.174006 0.000000 0.484611
0.342693 0.000000 0.471427
0.517621 0.004080 0.467363
0.656219 0.006846 0.456662
0.787195 0.010392 0.457199
0.855238 0.039297 0.485865
0.000000 0.173903 0.543900
0.047730 0.171890 0.547636
0.142966 0.119567 0.533262
0.336639 0.087055 0.494143
0.528519 0.105390 0.495918
0.682605 0.117171 0.495302
0.818395 0.138260 0.513076
0.886893 0.188038 0.565730
0.000000 0.289064 0.562971
0.063327 0.307422 0.584011
0.164456 0.321846 0.611358
0.295246 0.284443 0.594494
0.470138 0.272586 0.572143
0.680317 0.292014 0.573466
0.827086 0.325105 0.602013
0.901764 0.371951 0.641524
0.000000 0.316163 0.603925
0.053822 0.386436 0.637228
0.161555 0.462405 0.673142
0.282962 0.492952 0.687341
0.429010 0.465196 0.650997
0.656650 0.435695 0.578450
0.850369 0.482504 0.618608
0.929072 0.513446 0.639667
0.000000 0.329366 0.639410
0.044657 0.395092 0.661995
0.161128 0.466131 0.678711
0.298378 0.541163 0.682487
0.442933 0.562749 0.622321
0.656544 0.501708 0.486037
0.878098 0.609198 0.603634
0.956804 0.649763 0.643866
0.000000 0.328433 0.627422
0.060042 0.391138 0.639857
0.178425 0.455833 0.643489
0.321838 0.528605 0.643848
0.491471 0.586188 0.620259
0.699472 0.622828 0.530589
0.868518 0.694846 0.553192
0.974962 0.791793 0.673050
0.000000 0.329362 0.601780
0.082886 0.391913 0.619561
0.191152 0.457234 0.633770
0.331464 0.530723 0.641204
0.513025 0.613356 0.650904
0.744509 0.715808 0.652754
0.907609 0.790760 0.641713
0.956832 0.823884 0.650421
0.084135 0.442518 0.709828
0.176234 0.496967 0.720219
0.268741 0.545586 0.718175
0.403652 0.603118 0.709322
0.578581 0.670795 0.701006
0.774565 0.747245 0.682048
0.914697 0.800002 0.651194
0.955261 0.821847 0.648302
0.000000 0.077068 0.641986
0.045321 0.057850 0.636983
0.172339 0.000759 0.596838
0.332503 0.000000 0.582095
0.476744 0.000056 0.575839
0.651139 0.009933 0.573979
0.785957 0.013511 0.570828
0.854876 0.043636 0.601205
0.000000 0.191825 0.659082
0.054364 0.189067 0.662977
0.147106 0.127581 0.646696
0.329991 0.088321 0.608657
0.486119 0.097590 0.606540
0.676267 0.121848 0.615176
0.817738 0.142860 0.630428
0.887296 0.194966 0.683842
0.000000 0.312004 0.682082
0.072762 0.328534 0.702971
0.171791 0.340250 0.729596
0.293583 0.306631 0.725399
0.456677 0.284719 0.702870
0.644346 0.299603 0.698743
0.824627 0.325145 0.713357
0.902864 0.374472 0.750176
0.000000 0.393461 0.729104
0.068691 0.462265 0.761534
0.171780 0.500592 0.789040
0.287652 0.505762 0.797596
0.431636 0.488769 0.785516
0.643116 0.463532 0.736027
0.851489 0.473912 0.717923
0.934720 0.513695 0.745334
0.000000 0.404050 0.758959
0.061672 0.469894 0.780779
0.178078 0.538036 0.793457
0.312180 0.609855 0.797596
0.472414 0.626070 0.795924
0.696708 0.600479 0.738076
0.887215 0.610189 0.722729
0.956754 0.642753 0.751602
0.000000 0.401839 0.742828
0.077953 0.464328 0.755189
0.195642 0.528332 0.758705
0.327266 0.600718 0.761815
0.491847 0.680625 0.775628
0.690176 0.698992 0.702170
0.872476 0.725969 0.710874
0.970465 0.799699 0.791585
0.004843 0.402890 0.719870
0.097794 0.465180 0.737957
0.206195 0.530501 0.752227
0.332059 0.602412 0.760546
0.493230 0.681340 0.775802
0.720331 0.784685 0.788176
0.892667 0.840699 0.746410
0.959802 0.896487 0.782027
0.096760 0.511499 0.822096
0.184453 0.560805 0.828473
0.273748 0.606123 0.824323
0.391118 0.661819 0.816422
0.538675 0.724523 0.815580
0.745441 0.808167 0.808755
0.910942 0.870298 0.782375
0.957183 0.893834 0.779076
0.000000 0.100397 0.729781
0.051491 0.072319 0.724074
0.181798 0.004263 0.680067
0.336807 0.000000 0.665933
0.467134 0.000000 0.659075
0.636397 0.011177 0.656800
0.787482 0.018873 0.659845
0.857674 0.050678 0.690175
0.000000 0.205964 0.744860
0.062254 0.204349 0.749931
0.155336 0.142556 0.734640
0.339111 0.099722 0.695297
0.481951 0.107164 0.693307
0.662296 0.129836 0.702449
0.820648 0.156808 0.724730
0.889941 0.207329 0.770838
0.000000 0.329762 0.772267
0.082506 0.347264 0.794321
0.178751 0.356480 0.818548
0.295451 0.322285 0.813870
0.457527 0.292236 0.785632
0.635929 0.304798 0.778939
0.825817 0.332912 0.790527
0.907671 0.380896 0.821714
0.000000 0.454805 0.825245
0.077991 0.494987 0.849547
0.177551 0.512151 0.868147
0.292626 0.512877 0.872217
0.433925 0.489144 0.856085
0.645350 0.461401 0.805886
0.855206 0.473873 0.790576
0.939097 0.516269 0.817534
0.000000 0.459796 0.845158
0.075134 0.522858 0.862464
0.191417 0.589090 0.872123
0.320665 0.623885 0.870376
0.465474 0.623478 0.866074
0.692237 0.596066 0.815425
0.886312 0.600461 0.792166
0.959482 0.643806 0.829007
0.000000 0.459264 0.828636
0.094637 0.519777 0.838855
0.209369 0.581679 0.842459
0.336368 0.651762 0.845706
0.485419 0.725974 0.861182
0.708480 0.765564 0.865425
0.903193 0.765954 0.843148
0.971970 0.799601 0.874306
0.017243 0.461477 0.810044
0.112032 0.522221 0.827142
0.217818 0.584352 0.839000
0.339350 0.653370 0.845676
0.484471 0.728625 0.860670
0.692846 0.824249 0.875620
0.868420 0.851120 0.804395
0.944007 0.897290 0.848792
0.103286 0.556036 0.895151
0.187997 0.602489 0.898757
0.276173 0.647355 0.894634
0.384576 0.700409 0.887115
0.510373 0.756949 0.887117
0.707897 0.838513 0.888663
0.900476 0.918014 0.871838
0.951239 0.935847 0.858671
0.000000 0.112562 0.767786
0.058333 0.078501 0.760901
0.193895 0.010981 0.716199
0.346726 0.002063 0.703501
0.474525 0.004394 0.697132
0.639711 0.017811 0.695726
0.797066 0.031876 0.703125
0.868319 0.066555 0.734828
0.000000 0.219230 0.785209
0.073090 0.219262 0.791909
0.166029 0.163859 0.780621
0.350359 0.114692 0.738419
0.492596 0.120103 0.736305
0.667961 0.144152 0.746780
0.829232 0.174423 0.769536
0.897789 0.221503 0.809384
0.005140 0.346185 0.817036
0.092611 0.361903 0.837129
0.187692 0.371037 0.859517
0.305835 0.338896 0.854779
0.468215 0.308952 0.825805
0.650529 0.321241 0.817041
0.839449 0.348340 0.826970
0.918833 0.393813 0.856667
0.000867 0.482260 0.866693
0.086741 0.509416 0.888843
0.187693 0.525096 0.905632
0.304593 0.525318 0.908189
0.453819 0.500999 0.889625
0.669303 0.475776 0.838315
0.873035 0.488527 0.824983
0.950904 0.528063 0.851269
0.000000 0.486845 0.881689
0.089004 0.550322 0.897993
0.207323 0.617506 0.906923
0.334500 0.633427 0.902371
0.486970 0.634188 0.898357
0.711680 0.607201 0.846780
0.898995 0.614005 0.829747
0.969591 0.658390 0.867118
0.008766 0.485366 0.861776
0.109005 0.545667 0.871568
0.222686 0.608338 0.876654
0.349813 0.680185 0.882836
0.490241 0.741518 0.896759
0.714721 0.773134 0.900994
0.910338 0.772376 0.878139
0.979789 0.810800 0.909939
0.029453 0.489801 0.848906
0.123635 0.549125 0.864233
0.229439 0.611576 0.876026
0.351849 0.681281 0.883200
0.486928 0.752272 0.895931
0.672888 0.839242 0.911302
0.897919 0.912220 0.904213
0.956623 0.913911 0.899571
0.111458 0.579101 0.928179
0.192719 0.622206 0.928716
0.279510 0.665895 0.923385
0.390313 0.719869 0.916436
0.509350 0.774709 0.915049
0.684428 0.847946 0.917792
0.893600 0.934594 0.906241
0.945000 0.940409 0.882236
