lut-uploads/C-9760-STD.cube
# Copyright: (C) Copyright 2016 by IWLTBAP
# Cannot be resold, shared or otherwise redistributed
# Website: http://luts.iwltbap.com
TITLE "IWLTBAP 9760 (Rec.709)"
LUT_3D_SIZE 32
0.000000 0.000000 0.000000
0.000000 0.000000 0.000000
0.002154 0.000000 0.000000
0.016849 0.000000 0.000000
0.051917 0.000000 0.000000
0.099603 0.000000 0.000000
0.147374 0.000000 0.000000
0.193813 0.000000 0.000000
0.239166 0.000000 0.000000
0.282461 0.000000 0.000000
0.323933 0.000000 0.000000
0.363817 0.000917 0.000000
0.401878 0.002882 0.000000
0.437157 0.004534 0.000000
0.470946 0.006603 0.000000
0.503649 0.008621 0.000000
0.535712 0.010433 0.000000
0.567309 0.011857 0.000000
0.598952 0.013111 0.000000
0.631164 0.014370 0.000000
0.664668 0.015792 0.000000
0.699393 0.017147 0.000000
0.735014 0.018807 0.000000
0.769852 0.021426 0.000000
0.797925 0.024879 0.000000
0.816561 0.029343 0.000000
0.831898 0.034718 0.000051
0.847137 0.040823 0.004110
0.863194 0.047864 0.010393
0.879173 0.054753 0.016889
0.892939 0.059855 0.022073
0.906921 0.065094 0.027435
0.000000 0.000000 0.000000
0.000000 0.000000 0.000000
0.001984 0.000000 0.000000
0.015850 0.001650 0.000000
0.048999 0.004709 0.000000
0.095183 0.005786 0.000000
0.143336 0.007535 0.000000
0.190826 0.010898 0.000000
0.237243 0.013739 0.000000
0.281019 0.015832 0.000000
0.322730 0.017997 0.000000
0.362884 0.020240 0.000000
0.401057 0.022302 0.000000
0.436488 0.023923 0.000000
0.470271 0.025886 0.000000
0.503068 0.027963 0.000000
0.535273 0.029900 0.000000
0.567047 0.031453 0.000000
0.598863 0.032819 0.000000
0.631199 0.034199 0.000000
0.664919 0.035776 0.000000
0.699971 0.037425 0.000000
0.735964 0.039424 0.000000
0.771169 0.042356 0.000000
0.799633 0.046199 0.000000
0.818968 0.051327 0.000002
0.835105 0.057365 0.001595
0.851085 0.064271 0.007570
0.868049 0.072286 0.014930
0.883979 0.079435 0.021837
0.898391 0.085328 0.027853
0.913197 0.091541 0.034258
0.000000 0.000000 0.000000
0.000000 0.000000 0.000000
0.001920 0.000000 0.000000
0.015479 0.002470 0.000000
0.045650 0.010317 0.000000
0.084626 0.019021 0.000000
0.128393 0.026062 0.000000
0.177330 0.030751 0.000000
0.226775 0.034170 0.000000
0.273543 0.036564 0.000000
0.317668 0.038976 0.000000
0.359607 0.041472 0.000000
0.399206 0.043622 0.000000
0.435814 0.045388 0.000000
0.470267 0.047259 0.000000
0.503575 0.049262 0.000000
0.536053 0.051216 0.000000
0.568153 0.052880 0.000000
0.600287 0.054425 0.000000
0.632939 0.055910 0.000000
0.666899 0.057549 0.000000
0.702302 0.059398 0.000000
0.738850 0.061805 0.000000
0.774637 0.065213 0.000000
0.803774 0.069761 0.000138
0.824004 0.075826 0.001771
0.841303 0.082974 0.006824
0.858250 0.091182 0.014476
0.875433 0.099821 0.022655
0.891146 0.107811 0.030576
0.906458 0.115898 0.039155
0.922195 0.124762 0.048718
0.000000 0.000000 0.000000
0.000000 0.000000 0.000000
0.001880 0.000000 0.000000
0.015130 0.002763 0.000000
0.044977 0.010919 0.000000
0.082804 0.020778 0.000000
0.122841 0.033588 0.000000
0.168157 0.047533 0.000000
0.218464 0.055572 0.000000
0.267148 0.058084 0.000000
0.313079 0.060678 0.000000
0.356426 0.063662 0.000000
0.397496 0.066642 0.000000
0.435539 0.069293 0.000000
0.471436 0.072149 0.000000
0.505971 0.074943 0.000000
0.539582 0.077350 0.000000
0.572440 0.079288 0.000000
0.605297 0.081060 0.000000
0.638639 0.082861 0.000000
0.673074 0.084605 0.000223
0.708830 0.086491 0.000727
0.745920 0.088994 0.001518
0.782345 0.092762 0.002736
0.812235 0.097790 0.004862
0.833337 0.104923 0.009640
0.851424 0.113436 0.017687
0.868420 0.123286 0.027549
0.884742 0.132898 0.037398
0.900025 0.142248 0.047518
0.915359 0.152514 0.058787
0.930822 0.163106 0.070471
0.000000 0.000000 0.000000
0.000000 0.000000 0.000000
0.001714 0.000000 0.000000
0.014626 0.003044 0.000000
0.044058 0.011702 0.000000
0.081781 0.021853 0.000000
0.122125 0.035111 0.000001
0.166591 0.052768 0.000004
0.214807 0.070776 0.000004
0.263016 0.082093 0.000004
0.310459 0.085200 0.000008
0.355497 0.088213 0.000008
0.397873 0.091383 0.000012
0.437256 0.094527 0.000140
0.474476 0.098040 0.000799
0.510287 0.101678 0.001702
0.545072 0.105009 0.002504
0.579146 0.107922 0.003237
0.613020 0.110620 0.004046
0.647297 0.113297 0.005088
0.682514 0.115811 0.006089
0.718991 0.118386 0.007415
0.756534 0.121490 0.009391
0.793376 0.125655 0.012422
0.823454 0.131385 0.017416
0.844342 0.138996 0.024893
0.861775 0.148690 0.034941
0.877618 0.160081 0.046968
0.892478 0.170876 0.058764
0.907327 0.181740 0.070785
0.922418 0.193170 0.083386
0.937687 0.204834 0.096171
0.000000 0.000000 0.000000
0.000000 0.000000 0.000000
0.001272 0.000000 0.000000
0.013203 0.003029 0.000000
0.042024 0.012124 0.000001
0.079692 0.022608 0.000031
0.120625 0.036490 0.000491
0.165864 0.054846 0.001055
0.214406 0.075241 0.001543
0.261612 0.095606 0.002102
0.308740 0.111196 0.002846
0.355376 0.117310 0.003510
0.399382 0.120418 0.004101
0.440108 0.123749 0.004955
0.478873 0.127656 0.006411
0.515742 0.131554 0.008137
0.551521 0.135325 0.009938
0.586410 0.138626 0.011706
0.620991 0.141700 0.013517
0.655637 0.144846 0.015596
0.691169 0.148069 0.017903
0.727775 0.151499 0.020501
0.765177 0.155445 0.023582
0.801689 0.160567 0.027978
0.831454 0.167581 0.034820
0.851778 0.176773 0.044525
0.868021 0.187938 0.056673
0.882997 0.200480 0.070141
0.897461 0.212043 0.082666
0.912158 0.223625 0.095407
0.927186 0.235761 0.108472
0.942358 0.247948 0.121610
0.000000 0.000000 0.000000
0.000000 0.000000 0.000000
0.000456 0.000000 0.000000
0.010331 0.002690 0.000000
0.038271 0.011783 0.000039
0.075923 0.022656 0.000948
0.117581 0.037134 0.002222
0.163932 0.056434 0.003644
0.213576 0.077830 0.004992
0.261502 0.099816 0.006249
0.308465 0.122808 0.007893
0.355108 0.144105 0.009901
0.400329 0.154911 0.011680
0.442589 0.158180 0.013338
0.482569 0.162248 0.015487
0.520480 0.166441 0.017966
0.556974 0.170447 0.020535
0.592362 0.174126 0.023175
0.627050 0.177578 0.025967
0.661534 0.181060 0.029102
0.696814 0.184787 0.032566
0.733036 0.188945 0.036449
0.769999 0.193783 0.040931
0.805769 0.199726 0.046545
0.835023 0.207765 0.054719
0.854754 0.218280 0.066104
0.870317 0.230356 0.079308
0.885183 0.242825 0.092345
0.899594 0.254727 0.105053
0.914267 0.266676 0.117743
0.929363 0.278970 0.130444
0.944607 0.291399 0.143245
0.000000 0.000000 0.000000
0.000000 0.000000 0.000000
0.000017 0.000000 0.000000
0.007496 0.002301 0.000099
0.033861 0.011194 0.000935
0.071304 0.022546 0.002518
0.113843 0.037607 0.005084
0.161368 0.057710 0.007200
0.212073 0.080022 0.009198
0.260870 0.102709 0.011037
0.308505 0.126874 0.013377
0.355184 0.151689 0.016300
0.400172 0.175507 0.019664
0.442606 0.192242 0.023232
0.483266 0.201132 0.026735
0.522016 0.206515 0.030362
0.559124 0.210786 0.033956
0.594788 0.214807 0.037605
0.629414 0.218501 0.041352
0.663773 0.222326 0.045335
0.698729 0.226288 0.049621
0.734544 0.230628 0.054254
0.770885 0.235626 0.059241
0.805503 0.240948 0.064294
0.833269 0.248056 0.071151
0.854160 0.260998 0.085306
0.869930 0.273734 0.099030
0.884911 0.285666 0.111151
0.899613 0.297547 0.123227
0.914481 0.309339 0.135148
0.929851 0.321370 0.146889
0.945450 0.333600 0.158778
0.000000 0.000000 0.000000
0.000000 0.000000 0.000000
0.000000 0.000000 0.000016
0.005827 0.001995 0.000693
0.029756 0.010698 0.002396
0.066624 0.022641 0.005126
0.109712 0.038027 0.008326
0.157909 0.058721 0.011114
0.209202 0.081968 0.014063
0.258255 0.105491 0.017063
0.305758 0.130057 0.020366
0.352281 0.155384 0.024342
0.396967 0.180325 0.028782
0.439005 0.204360 0.033940
0.479499 0.225663 0.039411
0.518968 0.244319 0.044954
0.556937 0.254686 0.049851
0.593156 0.259355 0.054150
0.628138 0.262946 0.058137
0.661924 0.265309 0.060758
0.696165 0.267536 0.063367
0.731277 0.270568 0.066759
0.766921 0.274487 0.070663
0.800925 0.279508 0.075132
0.829047 0.287715 0.082948
0.851445 0.303128 0.099638
0.868581 0.316942 0.114120
0.883829 0.328045 0.125069
0.899139 0.339578 0.136223
0.914467 0.350992 0.147166
0.930411 0.362646 0.157977
0.946670 0.374518 0.168901
0.000000 0.000000 0.000000
0.000000 0.000000 0.000000
0.000000 0.000000 0.000429
0.004750 0.001954 0.002049
0.025948 0.010673 0.005206
0.061221 0.023125 0.009187
0.103571 0.038999 0.013985
0.151587 0.060253 0.017996
0.202958 0.084132 0.021404
0.252130 0.108522 0.025601
0.299537 0.133507 0.029880
0.345628 0.158967 0.034629
0.389926 0.184114 0.039891
0.431864 0.208270 0.045667
0.472121 0.231709 0.051742
0.511621 0.254712 0.058052
0.550086 0.276960 0.063775
0.586801 0.291431 0.067948
0.622110 0.304515 0.070705
0.656738 0.308052 0.072701
0.691238 0.309456 0.074446
0.726318 0.311025 0.076430
0.761632 0.313484 0.078680
0.795479 0.317413 0.081749
0.825010 0.327345 0.091287
0.849424 0.344962 0.109873
0.867863 0.359405 0.124515
0.883573 0.369678 0.134430
0.899658 0.380159 0.144443
0.915876 0.391136 0.154349
0.932834 0.402168 0.163994
0.950183 0.413630 0.173953
0.000000 0.000000 0.000000
0.000000 0.000000 0.000570
0.000000 0.000000 0.002624
0.003280 0.002428 0.006313
0.021210 0.011468 0.011142
0.053572 0.024353 0.017138
0.094339 0.040896 0.023643
0.141963 0.063047 0.029534
0.193508 0.087339 0.033310
0.243264 0.112003 0.036963
0.290854 0.137316 0.041757
0.336890 0.162747 0.046745
0.381041 0.187766 0.052165
0.423113 0.211772 0.057911
0.463248 0.234948 0.063863
0.502828 0.257664 0.069912
0.541818 0.280040 0.075656
0.579234 0.300995 0.079696
0.614817 0.320077 0.081303
0.650305 0.335413 0.082513
0.686653 0.347857 0.084916
0.722803 0.353542 0.086527
0.758863 0.355862 0.088009
0.793059 0.358277 0.089585
0.823878 0.368246 0.099058
0.850180 0.386759 0.118209
0.869726 0.400798 0.131795
0.886401 0.409979 0.140542
0.903183 0.419167 0.149174
0.920472 0.429736 0.158174
0.938476 0.440606 0.166994
0.956887 0.451715 0.175968
0.000000 0.000000 0.001918
0.000000 0.000000 0.004287
0.000000 0.000000 0.008762
0.001738 0.003208 0.014218
0.016256 0.013108 0.021496
0.044472 0.026721 0.029712
0.082778 0.044284 0.037526
0.129294 0.067054 0.044573
0.181310 0.091907 0.049260
0.232632 0.116489 0.051861
0.281063 0.141297 0.054879
0.327510 0.166459 0.059349
0.371821 0.191172 0.064355
0.414262 0.214795 0.069540
0.454535 0.237470 0.074877
0.494372 0.259730 0.080131
0.533900 0.281930 0.085382
0.572812 0.303872 0.089952
0.609741 0.324036 0.092250
0.646279 0.343700 0.093453
0.683292 0.363862 0.094292
0.721539 0.383743 0.096890
0.759481 0.395442 0.098862
0.795662 0.402397 0.101038
0.827843 0.412067 0.109229
0.854475 0.428735 0.125592
0.874890 0.441568 0.137283
0.892357 0.449483 0.144730
0.909844 0.457843 0.152230
0.928006 0.468311 0.160520
0.946886 0.479391 0.168911
0.966033 0.490496 0.177251
0.000000 0.000000 0.007593
0.000000 0.000000 0.012682
0.000000 0.000000 0.018783
0.000652 0.003895 0.025999
0.011061 0.015146 0.035173
0.035244 0.029694 0.045902
0.070274 0.048496 0.054451
0.115407 0.071559 0.060922
0.166823 0.096684 0.066143
0.219983 0.121353 0.068517
0.270260 0.145339 0.069270
0.317580 0.169464 0.071173
0.362670 0.193555 0.074842
0.405615 0.216732 0.079186
0.446347 0.238901 0.083604
0.486662 0.260690 0.087920
0.526891 0.282540 0.092205
0.566805 0.304703 0.096401
0.606196 0.327225 0.100622
0.644737 0.348663 0.103115
0.682989 0.369418 0.103938
0.721921 0.391262 0.105012
0.762331 0.416154 0.108607
0.801658 0.438757 0.112930
0.835695 0.453896 0.120617
0.862235 0.469053 0.132787
0.882678 0.480957 0.141230
0.900671 0.489110 0.147766
0.918600 0.497103 0.154599
0.937319 0.507970 0.162624
0.956606 0.519038 0.170667
0.976245 0.530259 0.178737
0.000000 0.000000 0.018416
0.000000 0.000000 0.024782
0.000000 0.000141 0.031685
0.000017 0.004648 0.039671
0.006905 0.016832 0.049821
0.025893 0.032407 0.062600
0.056646 0.052438 0.071883
0.101366 0.074638 0.075563
0.152225 0.099299 0.079555
0.206426 0.124236 0.081985
0.258522 0.147709 0.081499
0.307321 0.170626 0.080508
0.353597 0.193695 0.081510
0.397470 0.216183 0.084297
0.439018 0.238110 0.087938
0.480234 0.259776 0.091430
0.521348 0.281538 0.094938
0.562427 0.303655 0.098308
0.602942 0.326223 0.101685
0.643446 0.348951 0.104722
0.684210 0.372239 0.107544
0.725455 0.396367 0.110356
0.767532 0.422381 0.114221
0.808828 0.449440 0.118789
0.843570 0.473242 0.124792
0.869412 0.493791 0.133509
0.890847 0.511267 0.142132
0.909667 0.524532 0.149343
0.927952 0.534817 0.156375
0.946862 0.546130 0.164295
0.966082 0.557341 0.172260
0.985484 0.568372 0.180204
0.000000 0.000000 0.032103
0.000000 0.000000 0.038831
0.000000 0.000539 0.045948
0.000000 0.006248 0.054409
0.004001 0.019180 0.064776
0.020290 0.034671 0.075873
0.045182 0.055424 0.086971
0.089364 0.077769 0.089248
0.141720 0.101644 0.090405
0.196537 0.126523 0.091967
0.250037 0.150076 0.091295
0.300501 0.172474 0.088501
0.348431 0.194794 0.086815
0.393541 0.217040 0.088461
0.436205 0.238602 0.090858
0.478540 0.260256 0.093510
0.520839 0.282055 0.096171
0.563055 0.304243 0.098732
0.604693 0.326795 0.101197
0.646008 0.349509 0.103422
0.687750 0.373077 0.105740
0.730064 0.397895 0.108501
0.772929 0.424228 0.111891
0.814968 0.451618 0.116063
0.849836 0.476403 0.121260
0.875004 0.496759 0.128091
0.896001 0.514118 0.135487
0.914807 0.529040 0.142734
0.933801 0.546002 0.151618
0.953354 0.562760 0.160856
0.973226 0.580681 0.170633
0.992785 0.596439 0.179722
0.000000 0.000000 0.045972
0.000000 0.000000 0.052614
0.000000 0.001331 0.059769
0.000000 0.008131 0.067913
0.001899 0.021806 0.077567
0.016483 0.037421 0.087119
0.039306 0.057157 0.096490
0.079657 0.080325 0.100435
0.135156 0.103832 0.098651
0.191195 0.128601 0.098722
0.246067 0.152112 0.097008
0.298267 0.174391 0.093294
0.347861 0.196282 0.089562
0.394407 0.218300 0.089799
0.438161 0.239853 0.091328
0.481640 0.261435 0.093030
0.524872 0.283291 0.094954
0.567866 0.305496 0.096768
0.610007 0.327956 0.098554
0.651737 0.350542 0.100108
0.693683 0.373907 0.101726
0.736065 0.398642 0.103877
0.778953 0.424851 0.106659
0.820863 0.451869 0.110101
0.855461 0.476162 0.114678
0.879875 0.495311 0.120404
0.900124 0.511274 0.126892
0.918474 0.526618 0.134285
0.937367 0.545522 0.143793
0.956861 0.564719 0.153652
0.976497 0.584043 0.163921
0.995962 0.602769 0.173940
0.000000 0.000000 0.058493
0.000000 0.000000 0.064756
0.000000 0.001632 0.071602
0.000000 0.010019 0.079407
0.000644 0.024091 0.087957
0.013715 0.040082 0.095861
0.036273 0.059044 0.103392
0.074878 0.081976 0.107010
0.131538 0.105729 0.104187
0.190254 0.130249 0.102060
0.246340 0.153711 0.099083
0.299927 0.175885 0.094195
0.351040 0.197666 0.089457
0.398690 0.219615 0.088744
0.443478 0.241184 0.089385
0.487693 0.262769 0.090450
0.531576 0.284513 0.091577
0.574859 0.306604 0.092759
0.617028 0.328822 0.093941
0.658701 0.351182 0.095001
0.700516 0.374363 0.096135
0.742588 0.398844 0.097769
0.785086 0.424845 0.100078
0.826497 0.451358 0.102979
0.860379 0.474857 0.106971
0.884028 0.492996 0.112095
0.903468 0.507938 0.118095
0.921286 0.524126 0.126092
0.939768 0.542710 0.135664
0.958630 0.561463 0.145593
0.977618 0.580343 0.155999
0.996562 0.598939 0.166410
0.000000 0.000000 0.068196
0.000000 0.000000 0.073875
0.000000 0.001959 0.080065
0.000000 0.011311 0.087201
0.000066 0.025827 0.094649
0.012541 0.042128 0.101125
0.035678 0.060662 0.106945
0.075391 0.083318 0.109032
0.133401 0.107147 0.105021
0.194399 0.131372 0.100998
0.252150 0.154478 0.096128
0.306740 0.176506 0.090279
0.358372 0.198289 0.084924
0.406474 0.220519 0.084377
0.451776 0.242198 0.084598
0.496265 0.263723 0.085190
0.540189 0.285291 0.085878
0.582996 0.306965 0.086464
0.624611 0.328702 0.087170
0.665703 0.350688 0.087827
0.706994 0.373647 0.088685
0.748513 0.397970 0.090086
0.790404 0.423706 0.092184
0.831081 0.449713 0.094869
0.864009 0.472417 0.098647
0.886700 0.489592 0.103568
0.905489 0.504141 0.109689
0.922738 0.520906 0.118385
0.940575 0.539153 0.128237
0.958926 0.557846 0.138716
0.977340 0.576607 0.149631
0.995653 0.595120 0.160682
0.000000 0.000000 0.074590
0.000000 0.000000 0.079835
0.000000 0.002168 0.085544
0.000000 0.012476 0.091981
0.000082 0.027306 0.097958
0.013238 0.043457 0.102657
0.037612 0.061952 0.106888
0.082263 0.084368 0.105864
0.141081 0.108426 0.101297
0.203273 0.132054 0.095820
0.262166 0.154541 0.088906
0.317036 0.176478 0.082507
0.368258 0.198579 0.078368
0.416044 0.220737 0.077593
0.461209 0.242341 0.077400
0.505368 0.263698 0.077629
0.548781 0.284988 0.078048
0.590880 0.306243 0.078517
0.631782 0.327532 0.078974
0.672046 0.349296 0.079445
0.712578 0.372104 0.080262
0.753394 0.396334 0.081733
0.794497 0.421840 0.083905
0.834191 0.447207 0.086623
0.866043 0.469116 0.090479
0.887813 0.485792 0.095746
0.905926 0.500309 0.102432
0.922567 0.517220 0.111905
0.939644 0.535217 0.122324
0.957355 0.553869 0.133491
0.975196 0.572630 0.145128
0.992954 0.591019 0.156533
0.000000 0.000000 0.076200
0.000000 0.000000 0.080867
0.000000 0.002358 0.086025
0.000000 0.013035 0.091554
0.001975 0.027598 0.095890
0.016442 0.043533 0.099099
0.044414 0.063089 0.102141
0.093864 0.084252 0.097369
0.153578 0.107933 0.092315
0.215411 0.130653 0.085348
0.273637 0.152631 0.077647
0.327534 0.174663 0.071816
0.377767 0.197110 0.069070
0.424919 0.219257 0.068297
0.469589 0.240663 0.068062
0.513060 0.261736 0.068342
0.555637 0.282803 0.068803
0.596751 0.303858 0.069361
0.636844 0.325065 0.069874
0.676026 0.346569 0.070461
0.715650 0.369179 0.071476
0.755604 0.393166 0.073277
0.795790 0.418423 0.075865
0.834564 0.443418 0.079102
0.865424 0.464876 0.083590
0.886121 0.481390 0.089839
0.903729 0.496239 0.097429
0.919948 0.512726 0.107109
0.936633 0.530530 0.117730
0.953993 0.549023 0.128956
0.971577 0.567574 0.140474
0.989122 0.585848 0.151854
0.000000 0.000000 0.073147
0.000000 0.000000 0.077306
0.000000 0.002398 0.081901
0.000000 0.013069 0.086670
0.004666 0.026891 0.089460
0.021345 0.042819 0.091638
0.055463 0.062232 0.091316
0.106325 0.083046 0.085992
0.167957 0.105297 0.079042
0.227981 0.127285 0.071264
0.284698 0.149409 0.064801
0.337105 0.171707 0.060096
0.386100 0.194345 0.058464
0.432250 0.216337 0.057946
0.476252 0.237660 0.058049
0.518767 0.258602 0.058594
0.560387 0.279456 0.059331
0.600423 0.300392 0.060145
0.639499 0.321565 0.060990
0.677777 0.343024 0.062053
0.716338 0.365462 0.063606
0.755319 0.389290 0.066037
0.794513 0.414306 0.069353
0.832480 0.439103 0.073324
0.862743 0.460365 0.078395
0.882930 0.476737 0.085077
0.900209 0.491858 0.093239
0.916372 0.507692 0.102620
0.932779 0.525316 0.113185
0.949887 0.543494 0.124152
0.967231 0.561756 0.135347
0.984579 0.579820 0.146493
0.000000 0.000000 0.065848
0.000000 0.000000 0.069547
0.000000 0.002377 0.073644
0.000000 0.012743 0.077546
0.007973 0.025547 0.079123
0.028775 0.041578 0.080552
0.068190 0.059538 0.076558
0.120962 0.080361 0.071372
0.181975 0.101537 0.063842
0.239871 0.123044 0.056634
0.294113 0.145181 0.051196
0.344833 0.168064 0.048858
0.392664 0.190787 0.047964
0.437559 0.212611 0.047974
0.480576 0.233903 0.048672
0.522097 0.254830 0.049750
0.562503 0.275637 0.051017
0.601462 0.296515 0.052372
0.639416 0.317691 0.053897
0.676791 0.339097 0.055604
0.714625 0.361513 0.057802
0.752889 0.385153 0.060723
0.791416 0.409987 0.064528
0.828870 0.434671 0.068996
0.858964 0.455779 0.074367
0.878949 0.472034 0.081077
0.896145 0.487182 0.089187
0.912433 0.502432 0.098088
0.928615 0.519714 0.108370
0.945411 0.537426 0.118896
0.962330 0.555163 0.129569
0.979371 0.572867 0.140326
0.000000 0.000000 0.055737
0.000000 0.000000 0.058963
0.000000 0.002364 0.062551
0.000944 0.012414 0.065576
0.011765 0.024424 0.066393
0.039443 0.039403 0.065755
0.081470 0.057039 0.061702
0.136167 0.076752 0.055728
0.194643 0.097873 0.049268
0.249969 0.119353 0.043940
0.301375 0.141741 0.040699
0.350377 0.164762 0.039701
0.396959 0.187451 0.039742
0.440504 0.209288 0.040575
0.482311 0.230667 0.042075
0.522788 0.251620 0.043854
0.562166 0.272427 0.045711
0.600232 0.293290 0.047697
0.637469 0.314489 0.049810
0.674324 0.335857 0.051965
0.711742 0.358209 0.054528
0.749692 0.381743 0.057661
0.788021 0.406367 0.061465
0.825368 0.430850 0.065824
0.855553 0.451903 0.071139
0.875514 0.468037 0.077690
0.892555 0.483004 0.085618
0.908889 0.497797 0.094138
0.924694 0.514444 0.103858
0.941036 0.531563 0.113835
0.957039 0.548037 0.123310
0.973052 0.564410 0.132867
0.000000 0.000000 0.046631
0.000000 0.000108 0.049617
0.000000 0.003210 0.052706
0.004245 0.013520 0.054961
0.019629 0.025321 0.055161
0.052888 0.039346 0.053175
0.097708 0.056982 0.049940
0.151052 0.076634 0.045679
0.206601 0.097617 0.040534
0.258667 0.119390 0.037320
0.307949 0.142114 0.036377
0.355572 0.165213 0.036618
0.401010 0.187926 0.037527
0.443541 0.209762 0.039025
0.484556 0.231096 0.041095
0.524225 0.251992 0.043314
0.562959 0.272741 0.045570
0.600614 0.293538 0.047752
0.637642 0.314638 0.049911
0.674390 0.335955 0.052064
0.711728 0.358214 0.054535
0.749569 0.381673 0.057598
0.787805 0.406133 0.061260
0.825032 0.430470 0.065511
0.854978 0.451315 0.070655
0.874897 0.467284 0.077080
0.891674 0.481985 0.084745
0.907428 0.496097 0.092646
0.922376 0.511305 0.101168
0.937579 0.526978 0.109869
0.951995 0.541286 0.117437
0.965727 0.554588 0.124240
0.000000 0.000000 0.046682
0.000000 0.001455 0.049820
0.001716 0.008613 0.052866
0.011321 0.020327 0.055316
0.036045 0.034180 0.056039
0.073068 0.049561 0.054438
0.119346 0.067943 0.052730
0.171424 0.088338 0.050490
0.223958 0.109100 0.046254
0.274273 0.131128 0.044177
0.322105 0.153932 0.044025
0.368640 0.176952 0.044721
0.413428 0.199507 0.045990
0.455616 0.221064 0.047542
0.496405 0.242036 0.049556
0.535574 0.262530 0.051646
0.573793 0.282919 0.053732
0.610983 0.303350 0.055735
0.647516 0.324015 0.057647
0.683705 0.345052 0.059646
0.720526 0.367100 0.062074
0.758018 0.390401 0.065048
0.795911 0.414738 0.068531
0.832583 0.438836 0.072489
0.861945 0.459341 0.077389
0.881241 0.474754 0.083390
0.896886 0.488041 0.089949
0.910938 0.500608 0.096523
0.924022 0.513524 0.103077
0.936713 0.525792 0.108850
0.948803 0.537045 0.113717
0.960424 0.547532 0.118003
0.000000 0.002369 0.063388
0.000712 0.011450 0.068165
0.008332 0.024351 0.071774
0.027282 0.039484 0.075506
0.060409 0.056851 0.076378
0.103627 0.075223 0.074784
0.149970 0.095235 0.074728
0.200702 0.116008 0.073376
0.251846 0.136589 0.069004
0.301614 0.158082 0.065478
0.349569 0.180669 0.064834
0.395553 0.203039 0.065131
0.439936 0.224920 0.065921
0.482080 0.245974 0.067024
0.522307 0.266351 0.068608
0.560595 0.286191 0.070305
0.597674 0.305824 0.072017
0.633630 0.325426 0.073592
0.669280 0.345250 0.075085
0.704354 0.365619 0.076823
0.740056 0.387155 0.079011
0.776610 0.409910 0.081586
0.813529 0.433443 0.084239
0.848223 0.456125 0.086931
0.875262 0.474944 0.090422
0.892716 0.488188 0.094770
0.905804 0.498298 0.098861
0.916639 0.508084 0.102937
0.927485 0.518216 0.107078
0.938170 0.527762 0.110535
0.948619 0.536796 0.113503
0.959063 0.545684 0.116418
0.000000 0.020902 0.095737
0.005339 0.036189 0.099477
0.025875 0.051838 0.102600
0.052318 0.070542 0.106903
0.093752 0.090758 0.106791
0.141475 0.110319 0.104632
0.187050 0.131129 0.105420
0.234068 0.151857 0.104860
0.284282 0.172668 0.101195
0.334104 0.193235 0.095882
0.382326 0.214011 0.092209
0.428432 0.235092 0.091016
0.472404 0.255973 0.091179
0.514451 0.276369 0.091846
0.553615 0.295886 0.092580
0.590361 0.314886 0.093429
0.625807 0.333578 0.094284
0.660299 0.351996 0.095004
0.694093 0.370526 0.095703
0.727061 0.389051 0.096241
0.760549 0.408646 0.097019
0.795001 0.429536 0.098020
0.829864 0.451196 0.098980
0.861730 0.471509 0.099616
0.885351 0.486960 0.100459
0.900018 0.496681 0.102047
0.910649 0.504328 0.104077
0.919926 0.512500 0.106710
0.929486 0.520878 0.109374
0.939325 0.529308 0.111855
0.949216 0.537601 0.114217
0.959152 0.545843 0.116527
0.004917 0.055102 0.131080
0.026647 0.070433 0.133346
0.051298 0.087367 0.136688
0.084151 0.107068 0.140001
0.131972 0.128051 0.138900
0.180630 0.148157 0.137037
0.223138 0.168266 0.137967
0.267066 0.188373 0.137869
0.315680 0.209184 0.135513
0.365521 0.228841 0.130110
0.413104 0.246826 0.122090
0.458812 0.265473 0.116537
0.502289 0.285027 0.115025
0.542820 0.303667 0.114331
0.579660 0.321417 0.113601
0.613511 0.337904 0.112327
0.646270 0.354217 0.111192
0.678343 0.370485 0.110016
