lut-uploads/Cineon to VisionSpace.cube
# (C) 2014 VisionColor & Patchflyer [www.vision-color.com]
# Generator: VC Patchmatch v.2.1.1 [64/53]
# All work and no play makes Jack a dull boy.
# LUT generated from: Cineon to VisionSpace
LUT_3D_SIZE 17
0.000000 0.000000 0.000000
0.012467 0.001251 0.001251
0.035798 0.003632 0.003632
0.067399 0.006851 0.006851
0.106416 0.010849 0.010849
0.152972 0.015579 0.015579
0.208347 0.021286 0.021286
0.275776 0.028183 0.028183
0.363119 0.037140 0.037140
0.458686 0.046906 0.046906
0.538247 0.055039 0.055039
0.600427 0.061357 0.061357
0.646845 0.066102 0.066102
0.680079 0.069535 0.069535
0.702754 0.071794 0.071794
0.717205 0.073320 0.073320
0.725292 0.074189 0.074189
0.004303 0.015457 0.004303
0.016709 0.016709 0.005570
0.040131 0.019089 0.007935
0.071717 0.022309 0.011170
0.110674 0.026307 0.015167
0.157290 0.031113 0.019898
0.212634 0.036759 0.025544
0.280049 0.043641 0.032471
0.367437 0.052598 0.041428
0.463004 0.062364 0.051164
0.542519 0.070497 0.059312
0.604654 0.076829 0.065690
0.651164 0.081621 0.070420
0.684413 0.085008 0.073854
0.707073 0.087343 0.076127
0.721431 0.088777 0.077638
0.729625 0.089647 0.078431
0.012314 0.044480 0.012314
0.024796 0.045762 0.013565
0.048127 0.048127 0.015946
0.079713 0.051362 0.019181
0.118746 0.055360 0.023163
0.165286 0.060090 0.027970
0.220676 0.065812 0.033616
0.288090 0.072663 0.040497
0.375448 0.081559 0.049454
0.471015 0.091356 0.059220
0.550576 0.099489 0.067353
0.612741 0.105882 0.073686
0.659159 0.110613 0.078492
0.692409 0.113970 0.081865
0.715084 0.116320 0.084199
0.729519 0.117830 0.085649
0.737606 0.118608 0.086519
0.023163 0.083680 0.023163
0.035645 0.084962 0.024491
0.058991 0.087343 0.026886
0.090654 0.090654 0.030106
0.129595 0.094560 0.034104
0.176135 0.099382 0.038819
0.231510 0.105013 0.044495
0.298955 0.111879 0.051362
0.386343 0.120836 0.060304
0.481895 0.130602 0.070069
0.561425 0.138735 0.078233
0.623606 0.145083 0.084550
0.670039 0.149889 0.089357
0.703334 0.153231 0.092729
0.725948 0.155596 0.095064
0.740383 0.157031 0.096498
0.748547 0.157885 0.097353
0.036652 0.132128 0.036652
0.049027 0.133364 0.037888
0.072435 0.135760 0.040269
0.104051 0.139010 0.043503
0.142977 0.142977 0.047501
0.189548 0.147784 0.052232
0.244968 0.153414 0.057877
0.312352 0.160311 0.064790
0.399771 0.169268 0.073686
0.495293 0.179034 0.083497
0.574838 0.187167 0.091630
0.636973 0.193500 0.097978
0.683482 0.198245 0.102754
0.716731 0.201663 0.106111
0.739406 0.203967 0.108446
0.753780 0.205447 0.109957
0.761944 0.206317 0.110750
0.052613 0.189929 0.052613
0.065095 0.191180 0.053880
0.088441 0.193561 0.056260
0.120027 0.196826 0.059510
0.158968 0.200778 0.063493
0.205615 0.205615 0.068238
0.260960 0.211261 0.073945
0.328389 0.218112 0.080812
0.415747 0.227070 0.089738
0.511299 0.236835 0.099519
0.590829 0.244984 0.107622
0.653040 0.251301 0.114015
0.699489 0.256138 0.118746
0.732738 0.259480 0.122164
0.754360 0.262028 0.125078
0.766720 0.264027 0.127764
0.773434 0.265156 0.129412
0.071672 0.258732 0.071672
0.084108 0.259983 0.072969
0.107454 0.262364 0.075349
0.139101 0.265599 0.078584
0.178042 0.269581 0.082582
0.224628 0.274342 0.087297
0.280049 0.280049 0.092958
0.347402 0.286946 0.099870
0.434806 0.295888 0.108766
0.530343 0.305653 0.118578
0.609873 0.313756 0.126711
0.672053 0.320104 0.133059
0.717220 0.325139 0.138933
0.746059 0.329503 0.145678
0.764050 0.332845 0.151339
0.775189 0.335134 0.155077
0.781399 0.336385 0.157168
0.094820 0.342397 0.094820
0.107301 0.343664 0.096117
0.130648 0.346044 0.098497
0.162280 0.349371 0.101747
0.201251 0.353246 0.105730
0.247791 0.358099 0.110475
0.303243 0.363714 0.116121
0.370596 0.370596 0.123064
0.458000 0.379553 0.131975
0.553536 0.389319 0.141726
0.633097 0.397452 0.149905
0.692119 0.404334 0.160128
0.731823 0.410422 0.171893
0.758480 0.415137 0.181292
0.776059 0.418540 0.188022
0.786923 0.420752 0.192401
0.792950 0.422049 0.194858
0.124895 0.450919 0.124895
0.137331 0.452171 0.126192
0.160723 0.454551 0.128573
0.192325 0.457786 0.131807
0.231281 0.461769 0.135805
0.277882 0.466560 0.140536
0.333288 0.472221 0.146181
0.400626 0.479118 0.153094
0.488029 0.488029 0.161990
0.583261 0.497795 0.173114
0.659586 0.506127 0.188602
0.714000 0.513512 0.207492
0.752346 0.519646 0.222644
0.778363 0.524361 0.234211
0.795438 0.527794 0.242374
0.806027 0.529961 0.247639
0.811948 0.531273 0.250614
0.157763 0.569558 0.157763
0.170199 0.570794 0.159060
0.193591 0.573281 0.161440
0.225223 0.576455 0.164675
0.264195 0.580468 0.168658
0.310780 0.585199 0.173404
0.366125 0.590890 0.179080
0.433524 0.597757 0.185931
0.521065 0.606531 0.196414
0.615427 0.615427 0.218143
0.689128 0.623392 0.245136
0.742901 0.630549 0.268147
0.780728 0.636545 0.286076
0.806790 0.641169 0.298741
0.824247 0.644358 0.307088
0.835248 0.646510 0.312291
0.841352 0.647761 0.315145
0.185107 0.668360 0.185107
0.197589 0.669596 0.186389
0.220966 0.671977 0.188830
0.252537 0.675227 0.192004
0.291524 0.679210 0.196048
0.338109 0.683940 0.200763
0.393500 0.689632 0.206439
0.460899 0.696498 0.213336
0.550317 0.703731 0.233036
0.645426 0.711192 0.267231
0.718837 0.718837 0.298466
0.772503 0.725841 0.323323
0.810773 0.731762 0.340719
0.837507 0.736248 0.352499
0.855421 0.739422 0.360327
0.866743 0.741451 0.365179
0.873030 0.742611 0.367864
0.206500 0.745556 0.206500
0.218982 0.746807 0.207813
0.242329 0.749187 0.210193
0.273945 0.752422 0.213382
0.312917 0.756405 0.217411
0.359472 0.761181 0.222187
0.414847 0.766857 0.227832
0.484779 0.772335 0.240772
0.577279 0.777600 0.271611
0.672297 0.784649 0.309682
0.745495 0.792157 0.342428
0.799252 0.799252 0.365972
0.837934 0.805158 0.382376
0.864927 0.809644 0.393591
0.883085 0.812848 0.400885
0.894499 0.814847 0.405524
0.900923 0.815991 0.408087
0.222477 0.803220 0.222477
0.234958 0.804562 0.223804
0.258289 0.806943 0.226184
0.289952 0.810071 0.229404
0.328893 0.814160 0.233417
0.375448 0.818906 0.238163
0.432044 0.824018 0.245884
0.506386 0.827253 0.268269
0.599390 0.831907 0.302693
0.694316 0.838819 0.342931
0.767163 0.846540 0.374716
0.820935 0.853727 0.397192
0.859709 0.859709 0.412833
0.886839 0.864210 0.423606
0.905104 0.867323 0.430808
0.916594 0.869413 0.435264
0.923049 0.870573 0.437659
0.233936 0.844495 0.233936
0.246418 0.845762 0.235203
0.269764 0.848142 0.237583
0.301350 0.851438 0.240818
0.340368 0.855360 0.244800
0.386923 0.860166 0.249531
0.447364 0.863447 0.263844
0.523278 0.865873 0.289937
0.616281 0.870390 0.326055
0.710857 0.877272 0.366842
0.783398 0.885298 0.397345
0.837049 0.892561 0.419135
0.875898 0.898543 0.434440
0.903059 0.903059 0.444923
0.921294 0.906157 0.451881
0.932876 0.908232 0.456245
0.939330 0.909392 0.458656
0.241764 0.872618 0.241764
0.254154 0.873869 0.243000
0.277562 0.876341 0.245380
0.309163 0.879591 0.248631
0.348180 0.883497 0.252613
0.395697 0.887877 0.258747
0.459419 0.889632 0.278248
0.535256 0.891966 0.305180
0.628336 0.896376 0.342473
0.722423 0.903517 0.382818
0.794644 0.911574 0.412619
0.848325 0.919005 0.433951
0.887114 0.924987 0.448997
0.914336 0.929473 0.459312
0.932601 0.932601 0.466163
0.944183 0.934676 0.470436
0.950729 0.935836 0.472770
0.246693 0.890578 0.246693
0.259174 0.891829 0.247959
0.282506 0.894194 0.250324
0.314107 0.897444 0.253559
0.353124 0.901427 0.257557
0.402548 0.904906 0.266438
0.467231 0.906249 0.287724
0.543130 0.908537 0.315175
0.636088 0.912886 0.353017
0.729885 0.920134 0.392859
0.801984 0.928389 0.422187
0.855558 0.935805 0.443275
0.894347 0.941802 0.458183
0.921569 0.946288 0.468345
0.939910 0.949416 0.475196
0.951492 0.951492 0.479362
0.957961 0.952636 0.481788
0.249485 0.900694 0.249485
0.261967 0.901930 0.250751
0.285298 0.904326 0.253132
0.316899 0.907561 0.256352
0.355917 0.911543 0.260349
0.406775 0.914366 0.271199
0.471748 0.915602 0.293050
0.547616 0.917830 0.320806
0.640574 0.922148 0.358938
0.734081 0.929473 0.398550
0.806134 0.937758 0.427634
0.859678 0.945251 0.448539
0.898497 0.951232 0.463371
0.925719 0.955734 0.473533
0.944045 0.958938 0.480217
0.955642 0.960937 0.484489
0.962097 0.962097 0.486793
0.000473 0.000473 0.011612
0.012863 0.001709 0.012863
0.036194 0.004089 0.015259
0.067887 0.007340 0.018463
0.106813 0.011322 0.022461
0.153384 0.016068 0.027268
0.208789 0.021714 0.032914
0.276188 0.028641 0.039811
0.363607 0.037583 0.048753
0.459174 0.047318 0.058518
0.538689 0.055451 0.066667
0.600809 0.061845 0.072984
0.647318 0.066575 0.077714
0.680568 0.069932 0.081147
0.703166 0.072282 0.083421
0.717601 0.073808 0.084947
0.725780 0.074571 0.085725
0.004700 0.015930 0.015930
0.017182 0.017182 0.017182
0.047257 0.017777 0.017777
0.077134 0.021454 0.021454
0.117937 0.024979 0.024979
0.168444 0.028626 0.028626
0.229648 0.032685 0.032685
0.303960 0.037766 0.037766
0.398795 0.044678 0.044678
0.499168 0.053117 0.053117
0.579126 0.061173 0.061173
0.638834 0.068193 0.068193
0.681727 0.073915 0.073915
0.711315 0.078264 0.078264
0.725475 0.080842 0.080842
0.725948 0.081712 0.081712
0.726040 0.082155 0.082155
0.012696 0.044892 0.023941
0.019898 0.048310 0.019898
0.048814 0.048814 0.024872
0.082582 0.051286 0.028229
0.124407 0.054597 0.031403
0.175311 0.058152 0.034806
0.236271 0.062348 0.038804
0.310384 0.067445 0.043778
0.404715 0.074464 0.050874
0.504433 0.083116 0.059815
0.583810 0.091264 0.068345
0.643000 0.098375 0.075807
0.685435 0.104173 0.081971
0.714763 0.108644 0.086580
0.733333 0.111681 0.089876
0.734508 0.112596 0.090898
0.734508 0.113054 0.091524
0.023636 0.084169 0.034791
0.032273 0.086946 0.032273
0.057649 0.088670 0.034668
0.091417 0.091417 0.037095
0.133471 0.094575 0.039780
0.184283 0.098222 0.042939
0.245182 0.102510 0.046799
0.318364 0.107759 0.052186
0.409979 0.115526 0.060777
0.508324 0.124453 0.070542
0.589334 0.132113 0.078752
0.648692 0.139162 0.086625
0.690593 0.145083 0.093324
0.719600 0.149584 0.098421
0.738766 0.152789 0.102083
0.745922 0.154376 0.103990
0.745998 0.154910 0.104692
0.037034 0.132601 0.048188
0.043885 0.136004 0.043885
0.068437 0.138170 0.045274
0.102068 0.140917 0.047196
0.144183 0.144183 0.049516
0.194781 0.147829 0.053162
0.254261 0.152331 0.058427
0.325551 0.158114 0.065217
0.416678 0.165896 0.074174
0.515328 0.174746 0.083940
0.596689 0.182376 0.092226
0.655726 0.189380 0.100694
0.697154 0.195392 0.108186
0.725673 0.199924 0.113909
0.744579 0.203220 0.117922
0.756222 0.205386 0.120668
0.759945 0.206332 0.121950
0.053025 0.190417 0.064225
0.055238 0.195682 0.055238
0.080568 0.197589 0.057267
0.114870 0.200031 0.060151
0.156970 0.203098 0.063951
0.206867 0.206867 0.068681
0.265629 0.211566 0.074327
0.336477 0.217456 0.081270
0.427420 0.225299 0.090181
0.526116 0.234150 0.099931
0.606760 0.241840 0.108766
0.664500 0.249180 0.118776
0.705287 0.255268 0.127245
0.733272 0.259892 0.133776
0.751598 0.263249 0.138491
0.762982 0.265461 0.141634
0.769299 0.266712 0.143450
0.072099 0.259113 0.083238
0.073350 0.264881 0.073350
0.098528 0.266712 0.075731
0.132403 0.269337 0.078965
0.173877 0.272541 0.082948
0.223117 0.276524 0.087755
0.281331 0.281331 0.093400
0.351690 0.287327 0.100298
0.442329 0.295308 0.109224
0.540871 0.304204 0.119020
0.619379 0.312337 0.130098
0.675654 0.319860 0.142199
0.715572 0.326009 0.152148
0.742763 0.330785 0.159869
0.760678 0.334173 0.165331
0.771817 0.336416 0.168948
0.778027 0.337713 0.171038
0.095293 0.342885 0.106432
0.096544 0.348547 0.096544
0.121248 0.350530 0.098924
0.154589 0.353307 0.102159
0.195544 0.356695 0.106157
0.244266 0.360769 0.110948
0.301991 0.365743 0.116594
0.371939 0.371939 0.123461
0.462119 0.379965 0.132403
0.559289 0.389120 0.144137
0.635187 0.397574 0.159472
0.690486 0.405158 0.174060
0.729442 0.411429 0.186069
0.756039 0.416190 0.195178
0.773602 0.419623 0.201709
0.784421 0.421897 0.205921
0.790433 0.423148 0.208408
0.125338 0.451301 0.136507
0.126574 0.457069 0.126574
0.151019 0.459129 0.128969
0.183948 0.461982 0.132204
0.224445 0.465522 0.136187
0.272755 0.469764 0.140993
0.330037 0.474876 0.146624
0.399496 0.481163 0.153521
0.489219 0.489219 0.164141
0.584436 0.498192 0.182589
0.658549 0.506691 0.203342
0.712810 0.514229 0.221515
0.750973 0.520409 0.236255
0.776959 0.525185 0.247440
0.794064 0.528603 0.255207
0.804746 0.530831 0.260288
0.810666 0.532128 0.263127
0.158190 0.570031 0.169436
0.159442 0.575708 0.159442
0.183658 0.577890 0.161837
0.216312 0.580804 0.165118
0.256565 0.584390 0.169055
0.304494 0.588739 0.173846
0.361471 0.593957 0.179492
0.430838 0.600137 0.187137
0.521126 0.607309 0.205432
0.615595 0.615595 0.233021
0.688975 0.623789 0.259007
0.742580 0.631113 0.281132
0.780407 0.637171 0.298238
0.806653 0.641749 0.310246
0.824170 0.644999 0.318074
0.835264 0.647181 0.323033
0.841474 0.648386 0.325750
0.185580 0.668742 0.196765
0.186847 0.674449 0.186847
0.210910 0.676692 0.189197
0.243366 0.679606 0.192447
0.283467 0.683314 0.196429
0.331212 0.687678 0.201205
0.388205 0.692851 0.207309
0.459983 0.697643 0.221820
0.551675 0.703502 0.248493
0.646128 0.711284 0.281315
0.719188 0.719188 0.311086
0.772793 0.726345 0.334615
0.811215 0.732326 0.351141
0.838010 0.736843 0.362417
0.855955 0.740032 0.369879
0.867292 0.742092 0.374578
0.873655 0.743252 0.377188
0.206973 0.745968 0.218112
0.208225 0.751705 0.208225
0.232212 0.753887 0.210605
0.264607 0.756893 0.213840
0.304585 0.760601 0.217823
0.352300 0.765011 0.222629
0.412528 0.768566 0.234714
0.486793 0.771969 0.255833
0.578851 0.777356 0.286259
0.673182 0.784802 0.322621
0.746136 0.792584 0.353567
0.799832 0.799832 0.375967
0.838544 0.805814 0.391745
0.865614 0.810254 0.402518
0.883787 0.813443 0.409705
0.895247 0.815503 0.414160
0.901717 0.816663 0.416648
0.222950 0.803693 0.234089
0.224201 0.809354 0.224201
0.248157 0.811658 0.226581
0.280491 0.814603 0.229801
0.320409 0.818341 0.233799
0.371069 0.821485 0.242954
0.434150 0.823651 0.260304
0.508934 0.826627 0.283818
0.600977 0.831785 0.316533
0.695216 0.839124 0.354803
0.767819 0.847044 0.384863
0.821515 0.854398 0.406439
0.860380 0.860380 0.421653
0.887510 0.864897 0.432090
0.905776 0.868009 0.439017
0.917388 0.870008 0.443366
0.923842 0.871244 0.445853
0.234333 0.844968 0.245579
0.235660 0.850629 0.235660
0.259556 0.852918 0.238041
0.291875 0.855894 0.241276
0.332982 0.859113 0.246860
0.387243 0.860639 0.261143
0.450935 0.862470 0.280171
0.525734 0.865370 0.304891
0.617853 0.870314 0.339315
0.711696 0.877714 0.377752
0.783993 0.885832 0.406867
0.837690 0.893263 0.427939
0.876493 0.899214 0.442817
0.903731 0.903731 0.453056
0.922057 0.906920 0.459831
0.933639 0.908904 0.464103
0.940108 0.910079 0.466499
0.242145 0.873106 0.253376
0.243397 0.878767 0.243397
0.267369 0.881056 0.245792
0.299596 0.884031 0.249088
0.344030 0.885878 0.258671
0.398932 0.887068 0.274205
0.462852 0.888747 0.294270
0.537652 0.891554 0.319738
0.629725 0.896437 0.355154
0.723140 0.903944 0.393256
0.795270 0.912261 0.421775
0.848859 0.919661 0.442435
0.887785 0.925689 0.457115
0.915022 0.930175 0.467262
0.933364 0.933364 0.473945
0.944945 0.935363 0.478126
0.951492 0.936507 0.480522
0.247089 0.890959 0.258320
0.248386 0.896590 0.248386
0.272190 0.898802 0.250767
0.304906 0.901732 0.254414
0.351568 0.902708 0.266865
0.406638 0.903716 0.282994
0.470603 0.905409 0.303380
0.545449 0.908125 0.329366
0.637461 0.912947 0.365270
0.730571 0.920653 0.402975
0.802487 0.929061 0.431159
0.856138 0.936477 0.451698
0.895018 0.942565 0.466224
0.922240 0.946975 0.476204
0.940581 0.950179 0.482872
0.952255 0.952255 0.487053
0.958709 0.953414 0.489372
0.249882 0.901076 0.261112
0.249485 0.900694 0.249485
0.273381 0.903075 0.251865
0.307652 0.906477 0.257404
0.355550 0.910979 0.271183
0.411139 0.913161 0.287999
0.475029 0.914748 0.308598
0.549889 0.917433 0.334874
0.641901 0.922301 0.371023
0.734768 0.930037 0.408438
0.806638 0.938430 0.436454
0.860197 0.945968 0.456840
0.899062 0.952010 0.471336
0.926314 0.956497 0.481300
0.944732 0.959701 0.487892
0.956329 0.961715 0.492058
0.962860 0.962860 0.494392
0.001236 0.001236 0.033417
0.013718 0.002487 0.034668
0.037049 0.004868 0.037049
0.068635 0.008118 0.040284
0.107668 0.012100 0.044266
0.154208 0.016892 0.049012
0.209583 0.022538 0.054719
0.277012 0.029419 0.061585
0.364355 0.038376 0.070542
0.459937 0.048142 0.080278
0.539483 0.056275 0.088411
0.601663 0.062623 0.094789
0.648096 0.067399 0.099519
0.681331 0.070787 0.102892
0.703990 0.073121 0.105241
0.718441 0.074556 0.106752
0.726543 0.075425 0.107530
0.005554 0.016693 0.037659
0.017380 0.017380 0.047120
0.043656 0.019440 0.043656
0.076951 0.022309 0.045548
0.118685 0.025559 0.048707
0.169589 0.029099 0.052476
0.230671 0.033234 0.056764
0.304677 0.038346 0.061982
0.398840 0.045441 0.068986
0.498390 0.054154 0.077424
0.577554 0.062425 0.085344
0.636622 0.069688 0.092195
0.678904 0.075563 0.097765
0.708156 0.080125 0.102083
0.726513 0.083177 0.104967
0.727077 0.084108 0.105806
0.727092 0.084642 0.106264
0.013550 0.045747 0.045747
0.023651 0.047593 0.047593
0.049378 0.049378 0.049378
0.098817 0.047761 0.047761
0.139330 0.051362 0.051362
0.183444 0.056794 0.056794
0.241398 0.061738 0.061738
0.312337 0.067689 0.067689
0.404013 0.075471 0.075471
0.501915 0.084611 0.084611
0.580026 0.093126 0.093126
0.638392 0.100526 0.100526
0.680125 0.106523 0.106523
0.708949 0.111116 0.111116
0.727871 0.114382 0.114382
0.732509 0.115770 0.115770
0.732616 0.116350 0.116350
0.024399 0.084947 0.056596
0.033356 0.087419 0.056306
0.044175 0.095003 0.044175
0.092714 0.092714 0.052445
0.137407 0.094606 0.060090
0.187915 0.098222 0.065049
0.247227 0.102724 0.070344
0.319142 0.108309 0.076402
0.411124 0.116060 0.084504
0.508675 0.125216 0.094209
0.586297 0.133791 0.103410
0.644083 0.141283 0.111513
0.685389 0.147402 0.118029
0.713832 0.152041 0.123079
0.732677 0.155383 0.126635
0.743389 0.157458 0.128893
0.744488 0.158114 0.129702
0.037873 0.133364 0.069978
0.044083 0.136919 0.067155
0.059846 0.142535 0.059846
0.100420 0.142748 0.066239
0.144976 0.144976 0.071214
0.196124 0.148379 0.076005
0.256107 0.152773 0.081178
0.328405 0.158282 0.087358
0.420340 0.165866 0.095933
0.517311 0.175158 0.106584
0.594202 0.183841 0.116793
0.651331 0.191440 0.125734
0.692103 0.197620 0.133059
0.720134 0.202365 0.138674
0.738674 0.205753 0.142672
0.750286 0.207950 0.145327
0.756069 0.209140 0.146700
0.053880 0.191180 0.085985
0.055756 0.196414 0.079164
0.076753 0.200031 0.076753
0.113359 0.201663 0.080720
0.156847 0.204318 0.084779
0.207797 0.207797 0.089143
0.267903 0.212100 0.094194
0.340169 0.217624 0.100740
0.431724 0.225223 0.110170
0.527932 0.234607 0.122179
0.604013 0.243427 0.133791
0.660426 0.251118 0.143999
0.700557 0.257359 0.152300
0.728176 0.262135 0.158618
0.746395 0.265522 0.163165
0.757733 0.267781 0.166110
0.764080 0.269062 0.167834
0.072862 0.259968 0.105058
0.074205 0.265522 0.097002
0.093919 0.269535 0.093919
0.128969 0.271733 0.096956
0.171740 0.274678 0.100435
0.222507 0.278264 0.104662
0.282582 0.282582 0.110018
0.354681 0.287999 0.117327
0.445762 0.295628 0.128237
0.541176 0.305013 0.142245
0.616403 0.313832 0.155718
0.672053 0.321630 0.167529
0.711574 0.327977 0.177142
0.738705 0.332753 0.184451
0.756527 0.336233 0.189639
0.767681 0.338445 0.193057
0.773877 0.339742 0.195010
0.096056 0.343664 0.128252
0.097368 0.349233 0.119722
0.112749 0.355001 0.112749
0.147341 0.357336 0.115434
0.190051 0.360281 0.119066
0.240986 0.363714 0.123949
0.301167 0.367941 0.130297
0.373220 0.373220 0.139025
0.463890 0.380697 0.152316
0.558556 0.390021 0.169162
0.632944 0.398901 0.185229
0.687785 0.406699 0.199161
0.726665 0.413031 0.210513
0.753216 0.417868 0.219135
0.770764 0.421332 0.225254
0.781582 0.423606 0.229328
0.787594 0.424933 0.231662
0.126192 0.452155 0.158282
0.127428 0.457786 0.149386
0.137362 0.465614 0.137362
0.172427 0.467781 0.140887
0.215686 0.470466 0.145617
0.267002 0.473640 0.151781
0.327352 0.477562 0.159869
0.399451 0.482719 0.170886
0.489906 0.489906 0.187778
0.583932 0.498970 0.208698
0.657481 0.507683 0.228458
0.711543 0.515373 0.245579
0.749645 0.521706 0.259464
0.775708 0.526513 0.269932
0.792905 0.529931 0.277195
0.803677 0.532189 0.281880
0.809674 0.533471 0.284520
0.158999 0.570794 0.191150
0.160296 0.576471 0.182040
0.167193 0.585473 0.167193
0.202991 0.587274 0.171954
0.246860 0.589593 0.178195
0.298756 0.592462 0.186236
0.359564 0.596002 0.196582
0.432013 0.600671 0.210986
0.522499 0.607462 0.232227
0.616114 0.616114 0.258244
0.689082 0.624582 0.282521
0.742657 0.632090 0.303075
0.780697 0.638224 0.318807
0.807126 0.642893 0.329778
0.824887 0.646159 0.337041
0.836072 0.648295 0.341588
0.842329 0.649485 0.344198
0.186374 0.669535 0.218524
0.187640 0.675212 0.209293
0.195560 0.683833 0.195560
0.231891 0.685405 0.201495
0.276371 0.687404 0.209186
0.328695 0.689952 0.218875
0.390204 0.693019 0.231937
0.463127 0.697185 0.249363
0.553735 0.703578 0.274311
0.647242 0.711833 0.304723
0.720012 0.720012 0.332326
0.773709 0.727382 0.353841
0.812284 0.733425 0.369192
0.839246 0.737926 0.379797
0.857328 0.741161 0.386770
0.868757 0.743267 0.391211
0.875105 0.744427 0.393683
0.207752 0.746792 0.239918
0.208988 0.752468 0.230655
0.220462 0.759670 0.220462
0.257160 0.761013 0.227283
0.301946 0.762783 0.236118
0.355093 0.764889 0.247883
0.417105 0.767590 0.263005
0.490227 0.771527 0.282658
0.580972 0.777554 0.310506
0.674479 0.785504 0.344152
0.747189 0.793652 0.372564
0.801007 0.801007 0.393362
0.839857 0.806989 0.408286
0.867002 0.811505 0.418540
0.885283 0.814694 0.425391
0.896788 0.816739 0.429664
0.903258 0.817899 0.432074
0.223713 0.804471 0.255894
0.225025 0.810132 0.246571
0.240650 0.815656 0.240650
0.277638 0.816876 0.248173
0.323201 0.818296 0.258549
0.376745 0.820111 0.271656
0.438926 0.822660 0.288045
0.512184 0.826368 0.309331
0.603037 0.832120 0.339483
0.696452 0.839979 0.374670
0.768887 0.848234 0.402396
0.822690 0.855665 0.422736
0.861646 0.861646 0.437278
0.888945 0.866148 0.447333
0.907286 0.869322 0.454078
0.918883 0.871336 0.458274
0.925414 0.872511 0.460594
0.235187 0.845762 0.267292
0.236439 0.851408 0.257954
0.256001 0.855360 0.256001
0.293599 0.856321 0.264607
0.339467 0.857496 0.275746
0.393118 0.859281 0.289601
0.455421 0.861692 0.306935
0.528771 0.865232 0.329335
0.619699 0.870787 0.361059
0.712749 0.878737 0.396338
0.784970 0.887083 0.423590
0.838788 0.894575 0.443641
0.877745 0.900649 0.457908
0.905074 0.905074 0.467887
0.923491 0.908263 0.474464
0.935164 0.910262 0.478553
0.941619 0.911421 0.480873
0.243000 0.873869 0.275105
0.244236 0.879530 0.265751
0.267216 0.882109 0.267216
0.305089 0.882918 0.276326
0.350988 0.884092 0.287953
0.404715 0.885710 0.302312
0.467063 0.888136 0.320226
0.540475 0.891569 0.343404
0.631464 0.897032 0.376089
0.724117 0.905104 0.411063
0.796155 0.913573 0.437949
0.849928 0.921111 0.457771
0.888945 0.927092 0.471931
0.916289 0.931579 0.481727
0.934768 0.934768 0.488212
0.946380 0.936782 0.492393
0.952926 0.937942 0.494621
0.247944 0.891814 0.280110
0.249165 0.897353 0.270649
0.274693 0.898909 0.274693
0.312551 0.899825 0.284016
0.358495 0.900908 0.295888
0.412314 0.902525 0.310582
0.474632 0.904860 0.328893
0.548150 0.908217 0.352575
0.639017 0.913695 0.385657
0.731441 0.921920 0.420371
0.803388 0.930419 0.447089
0.857130 0.937942 0.466804
0.896162 0.943969 0.480858
0.923506 0.948486 0.490578
0.942000 0.951598 0.497063
0.953597 0.953597 0.501076
0.960159 0.954833 0.503304
0.250736 0.901854 0.282918
0.250340 0.901457 0.271763
0.277180 0.902296 0.277180
0.316030 0.906355 0.287617
0.362768 0.910155 0.300328
0.416648 0.912047 0.315297
0.478981 0.914275 0.333806
0.552483 0.917647 0.357809
0.643320 0.923033 0.391089
0.735592 0.931365 0.425635
0.807446 0.939864 0.452262
0.861234 0.947387 0.471885
0.900236 0.953445 0.485863
0.927642 0.957946 0.495583
0.946059 0.961044 0.501976
0.957748 0.963134 0.505974
0.964294 0.964294 0.508293
0.002289 0.002289 0.062821
0.014771 0.003632 0.064149
0.038102 0.005997 0.066545
0.069764 0.009247 0.069764
0.108705 0.013230 0.073747
0.155322 0.017960 0.078508
0.210697 0.023621 0.084138
0.278080 0.030533 0.091066
0.365484 0.039429 0.099977
0.461036 0.049226 0.109728
0.540536 0.057359 0.117906
0.602747 0.063722 0.124254
0.649226 0.068482 0.129015
0.682475 0.071839 0.132387
