lut-uploads/Cineon to VisionSpace.cube
# (C) 2014 VisionColor & Patchflyer [www.vision-color.com]
# Generator: VC Patchmatch v.2.1.1 [64/53]
# All work and no play makes Jack a dull boy.
# LUT generated from: Cineon to VisionSpace
LUT_3D_SIZE 5
0.000000 0.000000 0.000000
0.106416 0.010849 0.010849
0.363119 0.037140 0.037140
0.646845 0.066102 0.066102
0.725292 0.074189 0.074189
0.036652 0.132128 0.036652
0.142977 0.142977 0.047501
0.399771 0.169268 0.073686
0.683482 0.198245 0.102754
0.761944 0.206317 0.110750
0.124895 0.450919 0.124895
0.231281 0.461769 0.135805
0.488029 0.488029 0.161990
0.752346 0.519646 0.222644
0.811948 0.531273 0.250614
0.222477 0.803220 0.222477
0.328893 0.814160 0.233417
0.599390 0.831907 0.302693
0.859709 0.859709 0.412833
0.923049 0.870573 0.437659
0.249485 0.900694 0.249485
0.355917 0.911543 0.260349
0.640574 0.922148 0.358938
0.898497 0.951232 0.463371
0.962097 0.962097 0.486793
0.003693 0.003693 0.099199
0.110124 0.014572 0.110124
0.366827 0.040848 0.136355
0.650568 0.069810 0.165377
0.729030 0.077821 0.173388
0.040269 0.135821 0.135821
0.146685 0.146685 0.146685
0.449653 0.160494 0.160494
0.702739 0.197742 0.197742
0.764050 0.210391 0.210391
0.128573 0.454627 0.224125
0.199603 0.479576 0.199603
0.492622 0.492622 0.249989
0.753689 0.524453 0.317617
0.814725 0.536278 0.339284
0.226184 0.806943 0.321752
0.318318 0.823514 0.318318
0.603662 0.836271 0.393729
0.865721 0.865721 0.482399
0.930541 0.876417 0.503624
0.253193 0.904326 0.348699
0.357000 0.916243 0.357000
0.642954 0.927947 0.441321
0.903471 0.958144 0.526818
0.968826 0.968826 0.547112
0.012589 0.012589 0.338613
0.119020 0.023438 0.349523
0.375769 0.049744 0.375769
0.622934 0.091142 0.389319
0.671336 0.108843 0.390066
0.049210 0.144717 0.375219
0.151171 0.151171 0.443595
0.421210 0.178332 0.421210
0.653391 0.224872 0.428122
0.705867 0.240894 0.433524
0.137545 0.463523 0.463523
0.234348 0.476997 0.476997
0.500679 0.500679 0.500679
0.818784 0.520394 0.520394
0.900542 0.527520 0.527520
0.273991 0.803311 0.570748
0.374777 0.815671 0.583886
0.569268 0.864515 0.569268
0.883497 0.883497 0.607950
0.965072 0.890196 0.619593
0.328801 0.891188 0.610025
0.421576 0.905989 0.622293
0.593332 0.963088 0.593332
0.906920 0.981872 0.635920
0.988495 0.988495 0.647974
0.022461 0.022461 0.603204
0.128893 0.033326 0.614069
0.367391 0.068925 0.601267
0.564599 0.130343 0.564599
0.614771 0.147570 0.564218
0.059022 0.154589 0.639765
0.164065 0.164065 0.668971
0.404273 0.201953 0.628641
0.617212 0.256062 0.617212
0.672465 0.271397 0.621622
0.171527 0.468849 0.701823
0.275669 0.480842 0.708293
0.507271 0.507271 0.806516
0.807874 0.534096 0.807874
0.884749 0.543099 0.810712
0.353948 0.796262 0.796262
0.435248 0.813931 0.813931
0.591852 0.867216 0.867216
0.891859 0.891859 0.891859
0.954940 0.904036 0.904036
0.403769 0.885832 0.833631
0.480812 0.904799 0.851041
0.619425 0.964874 0.890013
0.932906 0.983642 0.932906
0.996353 0.996353 0.939071
0.025193 0.025193 0.676387
0.131624 0.036042 0.687236
0.359716 0.078050 0.641489
0.556100 0.139544 0.606653
0.607691 0.156298 0.607691
0.061753 0.157321 0.712947
0.168475 0.168475 0.720562
0.400870 0.209567 0.671366
0.613046 0.263539 0.663813
0.668894 0.278569 0.668894
0.189059 0.469673 0.750393
0.288273 0.482994 0.758251
0.509728 0.509728 0.883284
0.805722 0.538399 0.879652
0.881743 0.547723 0.881743
0.369940 0.797147 0.848890
0.448295 0.815457 0.868772
0.598474 0.868513 0.943191
0.895964 0.895964 0.946944
0.963836 0.906294 0.963836
0.418585 0.886992 0.886992
0.493370 0.906401 0.906401
0.626413 0.966049 0.966049
0.931914 0.989212 0.989212
1.000000 1.000000 1.000000
