lut-uploads/Cineon to VisionSpace.cube
# (C) 2014 VisionColor & Patchflyer [www.vision-color.com]
# Generator: VC Patchmatch v.2.1.1 [64/53]
# All work and no play makes Jack a dull boy.
# LUT generated from: Cineon to VisionSpace
LUT_3D_SIZE 9
0.000000 0.000000 0.000000
0.035798 0.003632 0.003632
0.106416 0.010849 0.010849
0.208347 0.021286 0.021286
0.363119 0.037140 0.037140
0.538247 0.055039 0.055039
0.646845 0.066102 0.066102
0.702754 0.071794 0.071794
0.725292 0.074189 0.074189
0.012314 0.044480 0.012314
0.048127 0.048127 0.015946
0.118746 0.055360 0.023163
0.220676 0.065812 0.033616
0.375448 0.081559 0.049454
0.550576 0.099489 0.067353
0.659159 0.110613 0.078492
0.715084 0.116320 0.084199
0.737606 0.118608 0.086519
0.036652 0.132128 0.036652
0.072435 0.135760 0.040269
0.142977 0.142977 0.047501
0.244968 0.153414 0.057877
0.399771 0.169268 0.073686
0.574838 0.187167 0.091630
0.683482 0.198245 0.102754
0.739406 0.203967 0.108446
0.761944 0.206317 0.110750
0.071672 0.258732 0.071672
0.107454 0.262364 0.075349
0.178042 0.269581 0.082582
0.280049 0.280049 0.092958
0.434806 0.295888 0.108766
0.609873 0.313756 0.126711
0.717220 0.325139 0.138933
0.764050 0.332845 0.151339
0.781399 0.336385 0.157168
0.124895 0.450919 0.124895
0.160723 0.454551 0.128573
0.231281 0.461769 0.135805
0.333288 0.472221 0.146181
0.488029 0.488029 0.161990
0.659586 0.506127 0.188602
0.752346 0.519646 0.222644
0.795438 0.527794 0.242374
0.811948 0.531273 0.250614
0.185107 0.668360 0.185107
0.220966 0.671977 0.188830
0.291524 0.679210 0.196048
0.393500 0.689632 0.206439
0.550317 0.703731 0.233036
0.718837 0.718837 0.298466
0.810773 0.731762 0.340719
0.855421 0.739422 0.360327
0.873030 0.742611 0.367864
0.222477 0.803220 0.222477
0.258289 0.806943 0.226184
0.328893 0.814160 0.233417
0.432044 0.824018 0.245884
0.599390 0.831907 0.302693
0.767163 0.846540 0.374716
0.859709 0.859709 0.412833
0.905104 0.867323 0.430808
0.923049 0.870573 0.437659
0.241764 0.872618 0.241764
0.277562 0.876341 0.245380
0.348180 0.883497 0.252613
0.459419 0.889632 0.278248
0.628336 0.896376 0.342473
0.794644 0.911574 0.412619
0.887114 0.924987 0.448997
0.932601 0.932601 0.466163
0.950729 0.935836 0.472770
0.249485 0.900694 0.249485
0.285298 0.904326 0.253132
0.355917 0.911543 0.260349
0.471748 0.915602 0.293050
0.640574 0.922148 0.358938
0.806134 0.937758 0.427634
0.898497 0.951232 0.463371
0.944045 0.958938 0.480217
0.962097 0.962097 0.486793
0.001236 0.001236 0.033417
0.037049 0.004868 0.037049
0.107668 0.012100 0.044266
0.209583 0.022538 0.054719
0.364355 0.038376 0.070542
0.539483 0.056275 0.088411
0.648096 0.067399 0.099519
0.703990 0.073121 0.105241
0.726543 0.075425 0.107530
0.013550 0.045747 0.045747
0.049378 0.049378 0.049378
0.139330 0.051362 0.051362
0.241398 0.061738 0.061738
0.404013 0.075471 0.075471
0.580026 0.093126 0.093126
0.680125 0.106523 0.106523
0.727871 0.114382 0.114382
0.732616 0.116350 0.116350
0.037873 0.133364 0.069978
0.059846 0.142535 0.059846
0.144976 0.144976 0.071214
0.256107 0.152773 0.081178
0.420340 0.165866 0.095933
0.594202 0.183841 0.116793
0.692103 0.197620 0.133059
0.738674 0.205753 0.142672
0.756069 0.209140 0.146700
0.072862 0.259968 0.105058
0.093919 0.269535 0.093919
0.171740 0.274678 0.100435
0.282582 0.282582 0.110018
0.445762 0.295628 0.128237
0.616403 0.313832 0.155718
0.711574 0.327977 0.177142
0.756527 0.336233 0.189639
0.773877 0.339742 0.195010
0.126192 0.452155 0.158282
0.137362 0.465614 0.137362
0.215686 0.470466 0.145617
0.327352 0.477562 0.159869
0.489906 0.489906 0.187778
0.657481 0.507683 0.228458
0.749645 0.521706 0.259464
0.792905 0.529931 0.277195
0.809674 0.533471 0.284520
0.186374 0.669535 0.218524
0.195560 0.683833 0.195560
0.276371 0.687404 0.209186
0.390204 0.693019 0.231937
0.553735 0.703578 0.274311
0.720012 0.720012 0.332326
0.812284 0.733425 0.369192
0.857328 0.741161 0.386770
0.875105 0.744427 0.393683
0.223713 0.804471 0.255894
0.240650 0.815656 0.240650
0.323201 0.818296 0.258549
0.438926 0.822660 0.288045
0.603037 0.832120 0.339483
0.768887 0.848234 0.402396
0.861646 0.861646 0.437278
0.907286 0.869322 0.454078
0.925414 0.872511 0.460594
0.243000 0.873869 0.275105
0.267216 0.882109 0.267216
0.350988 0.884092 0.287953
0.467063 0.888136 0.320226
0.631464 0.897032 0.376089
0.796155 0.913573 0.437949
0.888945 0.927092 0.471931
0.934768 0.934768 0.488212
0.952926 0.937942 0.494621
0.250736 0.901854 0.282918
0.277180 0.902296 0.277180
0.362768 0.910155 0.300328
0.478981 0.914275 0.333806
0.643320 0.923033 0.391089
0.807446 0.939864 0.452262
0.900236 0.953445 0.485863
0.946059 0.961044 0.501976
0.964294 0.964294 0.508293
0.003693 0.003693 0.099199
0.039521 0.007340 0.102892
0.110124 0.014572 0.110124
0.212039 0.025025 0.120516
0.366827 0.040848 0.136355
0.541909 0.058701 0.154284
0.650568 0.069810 0.165377
0.706462 0.075532 0.171084
0.729030 0.077821 0.173388
0.016007 0.048127 0.111528
0.049928 0.049928 0.139528
0.130800 0.055741 0.130800
0.240436 0.064347 0.136400
0.402853 0.078294 0.148272
0.574655 0.097353 0.164385
0.670954 0.112062 0.176562
0.716609 0.120638 0.183703
0.733608 0.124285 0.186633
0.040269 0.135821 0.135821
0.067720 0.141756 0.141756
0.146685 0.146685 0.146685
0.307881 0.141161 0.141161
0.449653 0.160494 0.160494
0.610101 0.182330 0.182330
0.702739 0.197742 0.197742
0.746944 0.206607 0.206607
0.764050 0.210391 0.210391
0.075349 0.262440 0.170901
0.096712 0.271061 0.168048
0.129107 0.294331 0.129107
0.286091 0.286091 0.161563
0.455283 0.296239 0.191501
0.624231 0.314946 0.219455
0.717449 0.329686 0.239643
0.761257 0.338384 0.251301
0.778012 0.342168 0.256291
0.128573 0.454627 0.224125
0.141833 0.466590 0.211856
0.199603 0.479576 0.199603
0.324239 0.482261 0.220188
0.492622 0.492622 0.249989
0.661631 0.510216 0.288808
0.753689 0.524453 0.317617
0.797513 0.532784 0.333074
0.814725 0.536278 0.339284
0.188830 0.672023 0.284382
0.204959 0.683116 0.272099
0.269642 0.693080 0.269642
0.388159 0.697322 0.292638
0.554955 0.707134 0.332372
0.723415 0.723415 0.385718
0.817090 0.736812 0.418204
0.862913 0.744564 0.434150
0.881041 0.747738 0.440375
0.226184 0.806943 0.321752
0.253986 0.813642 0.318593
0.318318 0.823514 0.318318
0.436240 0.827497 0.345296
0.603662 0.836271 0.393729
0.771527 0.852430 0.450385
0.865721 0.865721 0.482399
0.912108 0.873259 0.497688
0.930541 0.876417 0.503624
0.245396 0.876310 0.340948
0.283162 0.879271 0.346151
0.345510 0.889769 0.345510
0.463737 0.893355 0.375265
0.631449 0.901671 0.427527
0.798276 0.918166 0.483803
0.892470 0.931609 0.514290
0.939132 0.939132 0.529030
0.957687 0.942290 0.534859
0.253193 0.904326 0.348699
0.295399 0.905241 0.357839
0.357000 0.916243 0.357000
0.475502 0.919646 0.387961
0.642954 0.927947 0.441321
0.809277 0.944671 0.496925
0.903471 0.958144 0.526818
0.950225 0.965743 0.541405
0.968826 0.968826 0.547112
0.007218 0.007218 0.194293
0.043030 0.010910 0.197940
0.113634 0.018128 0.205142
0.215579 0.028519 0.215579
0.370398 0.044327 0.231388
0.545480 0.062272 0.249317
0.652354 0.073915 0.260182
0.696666 0.083177 0.264973
0.712734 0.087404 0.266957
0.019532 0.051682 0.206622
0.053498 0.053498 0.234546
0.131334 0.059129 0.235660
0.240772 0.067857 0.240772
0.400153 0.082994 0.250172
0.565011 0.104479 0.262577
0.655558 0.121187 0.271946
0.697688 0.130968 0.277485
0.713710 0.135241 0.279866
0.043839 0.139406 0.230884
0.072160 0.143923 0.247684
0.144793 0.144793 0.311864
0.279393 0.149828 0.279393
0.433326 0.168093 0.273442
0.595209 0.190478 0.285969
0.683909 0.207477 0.297292
0.725292 0.217441 0.304143
0.740932 0.221683 0.307149
0.078920 0.265965 0.265965
0.100893 0.273365 0.273365
0.158465 0.284077 0.284077
0.287282 0.287282 0.287282
0.518044 0.282582 0.282582
0.722271 0.292592 0.292592
0.807446 0.310063 0.310063
0.844999 0.320729 0.320729
0.859678 0.325170 0.325170
0.132143 0.458167 0.319203
0.149905 0.467704 0.317449
0.214817 0.477180 0.319005
0.271427 0.506966 0.271427
0.500160 0.500160 0.293217
0.700221 0.507942 0.338201
0.800580 0.519768 0.366461
0.848173 0.527138 0.380560
0.866789 0.530221 0.386145
0.192370 0.675547 0.379400
0.220813 0.681804 0.379065
0.286305 0.690959 0.381796
0.302495 0.735973 0.302495
0.529976 0.726314 0.356603
0.732448 0.732448 0.410925
0.840543 0.741711 0.441550
0.892622 0.747616 0.456703
0.913100 0.750164 0.462699
0.231708 0.809766 0.417899
0.275868 0.810437 0.426703
0.338567 0.820462 0.429389
0.348791 0.867353 0.348791
0.565484 0.860746 0.404425
0.766155 0.867292 0.459037
0.876066 0.876066 0.490043
0.929458 0.881544 0.505409
0.950469 0.883955 0.511513
0.263279 0.874784 0.444419
0.307546 0.875288 0.454337
0.368277 0.885924 0.456718
0.374777 0.934051 0.374777
0.586053 0.929122 0.429725
0.785702 0.936034 0.484245
0.896071 0.944579 0.515282
0.949981 0.949981 0.530724
0.971222 0.952239 0.536843
0.277684 0.900359 0.456458
0.320943 0.901183 0.466041
0.380911 0.912108 0.468330
0.385306 0.960937 0.385306
0.594720 0.956573 0.440055
0.793851 0.963638 0.494499
0.904418 0.972198 0.525536
0.958450 0.977493 0.540963
0.979767 0.979767 0.547097
0.012589 0.012589 0.338613
0.048402 0.016220 0.342290
0.119020 0.023438 0.349523
0.220951 0.033890 0.359960
0.375769 0.049744 0.375769
0.542489 0.070649 0.388708
0.622934 0.091142 0.389319
0.658244 0.103563 0.389776
0.671336 0.108843 0.390066
0.024918 0.057099 0.350958
0.058122 0.058122 0.387808
0.134356 0.064271 0.389166
0.241306 0.074083 0.391257
0.393744 0.091981 0.393744
0.546578 0.117952 0.396918
0.626413 0.138476 0.399435
0.662089 0.150591 0.401221
0.675654 0.155718 0.402197
0.049210 0.144717 0.375219
0.078096 0.148089 0.402640
0.151171 0.151171 0.443595
0.265995 0.160540 0.426215
0.421210 0.178332 0.421210
0.573526 0.204562 0.423636
0.653391 0.224872 0.428122
0.690959 0.236286 0.431724
0.705867 0.240894 0.433524
0.084260 0.271351 0.410300
0.109575 0.276844 0.426841
0.178546 0.283604 0.443153
0.285649 0.285649 0.521202
0.495415 0.289357 0.495415
0.664424 0.312673 0.477577
0.747600 0.332326 0.478965
0.787564 0.343008 0.482322
0.803342 0.347402 0.484031
0.137545 0.463523 0.463523
0.166903 0.468940 0.468940
0.234348 0.476997 0.476997
0.292454 0.499260 0.499260
0.500679 0.500679 0.500679
0.698100 0.512459 0.512459
0.818784 0.520394 0.520394
0.877485 0.525322 0.525322
0.900542 0.527520 0.527520
0.207172 0.678050 0.524590
0.250324 0.679408 0.529595
0.314565 0.688487 0.536660
0.352300 0.720272 0.524865
0.541619 0.725734 0.541619
0.737621 0.737621 0.557488
0.854566 0.746014 0.571160
0.912734 0.750851 0.578668
0.935912 0.752941 0.581674
0.273991 0.803311 0.570748
0.313771 0.805524 0.576837
0.374777 0.815671 0.583886
0.399268 0.852613 0.559274
0.569268 0.864515 0.569268
0.766842 0.875257 0.592096
0.883497 0.883497 0.607950
0.941833 0.888243 0.616236
0.965072 0.890196 0.619593
0.312657 0.866133 0.598215
0.349752 0.869139 0.604288
0.407965 0.880125 0.610971
0.424186 0.920241 0.579477
0.586099 0.934874 0.586099
0.783551 0.945418 0.611307
0.900023 0.953613 0.627817
0.958373 0.958373 0.636332
0.981613 0.960342 0.639735
0.328801 0.891188 0.610025
0.364584 0.894652 0.615915
0.421576 0.905989 0.622293
0.434394 0.947448 0.587991
0.593332 0.963088 0.593332
0.790539 0.973632 0.619287
0.906920 0.981872 0.635920
0.965240 0.986542 0.644556
0.988495 0.988495 0.647974
0.018677 0.018677 0.501900
0.054505 0.022370 0.505531
0.125109 0.029603 0.512764
0.227039 0.040024 0.523186
0.376425 0.058274 0.530205
0.512642 0.091310 0.512642
0.582101 0.116152 0.503685
0.616297 0.129030 0.502144
0.629999 0.134142 0.501991
0.031006 0.063157 0.514244
0.064225 0.064225 0.551293
0.138445 0.071336 0.548577
0.241138 0.083085 0.543603
0.384024 0.105074 0.533654
0.519799 0.137896 0.519799
0.592050 0.161379 0.515343
0.628107 0.173480 0.515846
0.642557 0.178424 0.516487
0.055283 0.150805 0.538460
0.086610 0.153643 0.563790
0.158709 0.158709 0.587747
0.265538 0.170031 0.574807
0.410620 0.191806 0.560265
0.549264 0.223499 0.549264
0.626734 0.244938 0.549920
0.665446 0.256046 0.552407
0.680949 0.260548 0.553750
0.090364 0.277378 0.573541
0.123217 0.281300 0.583719
0.192706 0.288182 0.597421
0.289143 0.289143 0.717632
0.469139 0.305501 0.654505
0.624063 0.334234 0.624063
0.707881 0.354253 0.620264
0.749020 0.364843 0.621180
0.765286 0.369131 0.621958
0.150408 0.468116 0.621714
0.191562 0.470649 0.620386
0.258259 0.478843 0.629709
0.326970 0.494621 0.684474
0.504616 0.504616 0.690730
0.698940 0.517815 0.698940
0.811795 0.528374 0.703243
0.867750 0.534340 0.706203
0.889952 0.536828 0.707561
0.253574 0.673564 0.673564
0.290867 0.676814 0.676814
0.351553 0.686717 0.686717
0.396948 0.712474 0.712474
0.548669 0.729076 0.729076
0.742031 0.742031 0.742031
0.837034 0.756832 0.756832
0.892287 0.762737 0.762737
0.915175 0.764920 0.764920
0.327520 0.796963 0.717998
0.359335 0.801648 0.722881
0.414618 0.813123 0.732921
0.444297 0.844816 0.745617
0.582620 0.865919 0.757427
0.792248 0.871855 0.792248
0.887434 0.887434 0.798764
0.941100 0.894026 0.802487
0.963226 0.896498 0.803937
0.364828 0.860258 0.744121
0.394369 0.865614 0.749249
0.447547 0.877775 0.758999
0.469154 0.912505 0.765011
0.601617 0.935683 0.773816
0.812543 0.940795 0.812543
0.909148 0.956100 0.817868
0.962768 0.962768 0.821103
0.984878 0.965316 0.822446
0.379705 0.885786 0.755184
0.408453 0.891417 0.760311
0.460868 0.903777 0.769848
0.479255 0.939773 0.773129
0.609445 0.963760 0.780743
0.820264 0.968811 0.820264
0.917464 0.983932 0.825345
0.971084 0.990646 0.828412
0.993194 0.993194 0.829648
0.022461 0.022461 0.603204
0.058274 0.026108 0.606836
0.128893 0.033326 0.614069
0.230381 0.044068 0.622568
0.367391 0.068925 0.601267
0.493797 0.106020 0.572183
0.564599 0.130343 0.564599
0.600336 0.142687 0.563912
0.614771 0.147570 0.564218
0.034775 0.066896 0.615549
0.068788 0.068788 0.642298
0.141375 0.076799 0.635691
0.240909 0.090105 0.624521
0.376364 0.115450 0.603235
0.504967 0.151186 0.581567
0.578561 0.174121 0.578561
0.615778 0.185840 0.579721
0.630701 0.190600 0.580591
0.059022 0.154589 0.639765
0.093309 0.157855 0.652201
0.164065 0.164065 0.668971
0.266621 0.177035 0.652277
0.404273 0.201953 0.628641
0.539147 0.234897 0.615793
0.617212 0.256062 0.617212
0.656611 0.266987 0.620111
0.672465 0.271397 0.621622
0.094850 0.281132 0.673213
0.133898 0.284688 0.668315
0.202426 0.292195 0.678737
0.295506 0.295506 0.785794
0.460044 0.316335 0.723415
0.609781 0.346258 0.696544
0.693217 0.366369 0.693217
0.734615 0.376867 0.694163
0.751095 0.381140 0.694926
0.171527 0.468849 0.701823
0.210559 0.472160 0.699626
0.275669 0.480842 0.708293
0.346212 0.495552 0.768933
0.507271 0.507271 0.806516
0.697459 0.522576 0.805997
0.807874 0.534096 0.807874
0.862837 0.540444 0.809750
0.884749 0.543099 0.810712
0.283131 0.672145 0.750820
0.315785 0.676707 0.754864
0.372519 0.687510 0.766888
0.419928 0.711192 0.807050
0.555978 0.730846 0.839490
0.747036 0.747036 0.827390
0.848615 0.759243 0.848615
0.904479 0.764752 0.857008
0.927382 0.766796 0.860075
0.353948 0.796262 0.796262
0.382605 0.801862 0.801862
0.435248 0.813931 0.813931
0.468116 0.843015 0.843015
0.591852 0.867216 0.867216
0.790082 0.878843 0.878843
0.891859 0.891859 0.891859
0.935271 0.900923 0.900923
0.954940 0.904036 0.904036
0.389578 0.860059 0.822675
0.416785 0.866102 0.828428
0.467735 0.878721 0.840177
0.493217 0.910552 0.863386
0.611383 0.936812 0.883299
0.809491 0.947936 0.900969
0.922454 0.956771 0.922454
0.966110 0.966110 0.927672
0.985443 0.969406 0.929641
0.403769 0.885832 0.833631
0.430472 0.891981 0.839490
0.480812 0.904799 0.851041
0.503410 0.937758 0.871870
0.619425 0.964874 0.890013
0.817029 0.975952 0.909346
0.932906 0.983642 0.932906
0.977050 0.992996 0.937377
0.996353 0.996353 0.939071
0.024430 0.024430 0.655283
0.060243 0.028061 0.659007
0.130785 0.035279 0.666239
0.229969 0.048020 0.661982
0.361944 0.075334 0.630838
0.486366 0.113176 0.600671
0.558267 0.136965 0.594614
0.594690 0.149035 0.594690
0.609400 0.153796 0.595178
0.036744 0.068849 0.667613
0.071382 0.071382 0.684016
0.143084 0.080034 0.675975
0.240757 0.094270 0.660945
0.372000 0.121569 0.632609
0.499443 0.157549 0.611536
0.573739 0.180194 0.609796
0.611505 0.191653 0.611505
0.626673 0.196323 0.612634
0.060975 0.156558 0.691936
0.097246 0.160327 0.693202
0.167132 0.167132 0.706371
0.267430 0.181094 0.686702
0.401648 0.207401 0.659358
0.535607 0.240452 0.648203
0.614023 0.261448 0.650507
0.653773 0.272175 0.653773
0.669749 0.276493 0.655390
0.101198 0.282872 0.714443
0.140215 0.286732 0.706950
0.207996 0.294636 0.715251
0.299489 0.299489 0.811612
0.457359 0.321782 0.754482
0.604654 0.352178 0.730571
0.687907 0.372152 0.728145
0.729381 0.382620 0.729381
0.745998 0.386877 0.730327
0.183856 0.469383 0.737224
0.221454 0.473091 0.734920
0.284688 0.482292 0.744228
0.355138 0.496788 0.807004
0.509010 0.509010 0.861814
0.696956 0.525216 0.858366
0.806287 0.537148 0.859312
0.860838 0.543694 0.860838
0.882521 0.546365 0.861540
0.296208 0.672297 0.787457
0.327138 0.677302 0.792187
0.382223 0.688563 0.805356
0.430732 0.711299 0.851087
0.559869 0.731991 0.893843
0.749020 0.749020 0.878996
0.852872 0.760525 0.900359
0.909102 0.765881 0.909102
0.932113 0.767926 0.912306
0.365560 0.796765 0.834058
0.393225 0.802640 0.840101
0.444678 0.814923 0.853254
0.479469 0.842786 0.889036
0.596567 0.868070 0.921599
0.789899 0.881621 0.928847
0.894911 0.894911 0.929320
0.941390 0.902785 0.941390
0.961547 0.905608 0.945510
0.400549 0.860731 0.860731
0.426917 0.866941 0.866941
0.476905 0.879789 0.879789
0.504845 0.910170 0.910170
0.616297 0.937652 0.937652
0.808850 0.950851 0.950851
0.922194 0.960708 0.960708
0.968872 0.968872 0.968872
0.985046 0.972885 0.972885
0.414588 0.886519 0.871916
0.440467 0.892897 0.878126
0.489906 0.905898 0.890700
0.515068 0.937285 0.918914
0.624445 0.965667 0.944442
0.816236 0.978882 0.959350
0.932006 0.987778 0.971740
0.982544 0.994629 0.982544
0.998657 0.998657 0.985534
0.025193 0.025193 0.676387
0.061006 0.028824 0.680018
0.131624 0.036042 0.687236
0.229541 0.049897 0.675837
0.359716 0.078050 0.641489
0.483925 0.115923 0.611933
0.556100 0.139544 0.606653
0.592798 0.151415 0.607019
0.607691 0.156298 0.607691
0.037507 0.069596 0.688609
0.072023 0.072023 0.686076
0.143771 0.081331 0.690562
0.240726 0.096056 0.674479
0.370275 0.124102 0.643473
0.497612 0.160052 0.623453
0.572183 0.182498 0.622217
0.610147 0.193942 0.624247
0.625406 0.198520 0.625406
0.061753 0.157321 0.712947
0.098909 0.161349 0.708171
0.168475 0.168475 0.720562
0.267796 0.182834 0.699321
0.400870 0.209567 0.671366
0.534508 0.242649 0.661051
0.613046 0.263539 0.663813
0.652873 0.274266 0.667185
0.668894 0.278569 0.668894
0.104189 0.283589 0.729198
0.142931 0.287541 0.721416
0.210391 0.295735 0.728817
0.301122 0.301122 0.821164
0.456565 0.323934 0.766491
0.602991 0.354452 0.743862
0.686168 0.374472 0.741894
0.727718 0.384863 0.743343
0.744335 0.389029 0.744335
0.189059 0.469673 0.750393
0.225925 0.473533 0.748302
0.288273 0.482994 0.758251
0.358602 0.497475 0.821561
0.509728 0.509728 0.883284
0.696788 0.526329 0.878996
0.805722 0.538399 0.879652
0.860059 0.545037 0.880995
0.881743 0.547723 0.881743
0.301106 0.672526 0.801755
0.331426 0.677699 0.806760
0.385946 0.689082 0.820432
0.434928 0.711452 0.868132
0.561456 0.732525 0.915373
0.749798 0.749798 0.900465
0.854444 0.761090 0.921782
0.910811 0.766354 0.930571
0.933806 0.768399 0.933806
0.369940 0.797147 0.848890
0.397223 0.803082 0.855177
0.448295 0.815457 0.868772
0.483909 0.842756 0.906920
0.598474 0.868513 0.943191
0.789883 0.882704 0.949630
0.895964 0.895964 0.946944
0.943389 0.903548 0.959442
0.963836 0.906294 0.963836
0.404746 0.861112 0.875807
0.430823 0.867414 0.882200
0.480430 0.880247 0.895384
0.509346 0.910109 0.928374
0.618326 0.938064 0.959274
0.808728 0.951934 0.971588
0.922316 0.962066 0.978103
0.970306 0.970306 0.982391
0.987152 0.973953 0.987152
0.418585 0.886992 0.886992
0.444297 0.893385 0.893385
0.493370 0.906401 0.906401
0.519661 0.937240 0.937240
0.626413 0.966049 0.966049
0.816068 0.980026 0.980026
0.931914 0.989212 0.989212
0.982956 0.996155 0.996155
1.000000 1.000000 1.000000
