lut-uploads/DELUTS_CLOG3_Look_30.cube
# LUT size
# data domain
# LUT data points
#  
# 
# Copyright: (C) Copyright 2016 James Miller
# Created by: James Miller, www.DeLuts.co.uk
LUT_3D_SIZE 6
0.062347 0.051941 0.043610
0.128766 0.053803 0.042163
0.469244 0.065369 0.036255
0.732995 0.060370 0.029242
0.863916 0.091278 0.031024
0.952606 0.172760 0.034485
0.062561 0.109625 0.045593
0.109814 0.112909 0.044879
0.406201 0.119794 0.042029
0.716156 0.116315 0.033179
0.863843 0.108600 0.031513
0.953449 0.185089 0.034717
0.016071 0.392370 0.055707
0.042804 0.406030 0.054230
0.375464 0.399182 0.051758
0.725964 0.401978 0.040045
0.884967 0.395831 0.036707
0.973438 0.380292 0.038147
0.000000 0.661596 0.055408
0.000073 0.699426 0.059033
0.270544 0.688196 0.055633
0.741229 0.719751 0.040949
0.921875 0.716473 0.037476
0.999854 0.706610 0.050012
0.000000 0.811273 0.125134
0.000000 0.821723 0.118201
0.091968 0.895740 0.090052
0.720746 0.937976 0.084662
0.971106 0.949451 0.089734
1.000000 0.882544 0.164813
0.000000 0.902863 0.230011
0.000000 0.911963 0.224597
0.040185 0.933246 0.361175
0.601490 0.960016 0.289441
0.884394 0.976495 0.304358
0.997375 0.982727 0.365204
0.059833 0.052234 0.106671
0.127332 0.056061 0.122619
0.464679 0.065448 0.109228
0.740594 0.056573 0.087628
0.892328 0.063623 0.033167
0.962549 0.162897 0.034674
0.061883 0.107843 0.100598
0.104584 0.113013 0.108447
0.488233 0.087116 0.065063
0.778296 0.064520 0.029773
0.885455 0.084161 0.031280
0.962897 0.175531 0.034888
0.017505 0.389606 0.098743
0.004267 0.447754 0.083576
0.415735 0.448492 0.066394
0.771051 0.403528 0.038733
0.900549 0.384369 0.036908
0.981024 0.365063 0.038250
0.000000 0.661481 0.072467
0.000000 0.696979 0.077930
0.249005 0.707025 0.056543
0.757739 0.736059 0.040753
0.932299 0.722730 0.037768
1.000000 0.704931 0.063190
0.000000 0.811352 0.135309
0.000000 0.821594 0.128473
0.088849 0.894482 0.101733
0.717065 0.936572 0.098517
0.969848 0.948047 0.104126
1.000000 0.882684 0.177832
0.000000 0.903247 0.241803
0.000000 0.912378 0.236633
0.039679 0.933990 0.375708
0.599487 0.960437 0.303229
0.883685 0.976947 0.318671
0.997345 0.983051 0.379529
0.072229 0.054712 0.426629
0.119855 0.054663 0.446478
0.439032 0.059484 0.458588
0.743402 0.048645 0.445593
0.924536 0.038769 0.411188
0.979907 0.155054 0.354462
0.060175 0.110846 0.376086
0.069019 0.087494 0.446863
0.466144 0.077619 0.498084
0.792914 0.048938 0.452704
0.934198 0.039386 0.397138
0.980047 0.166718 0.349359
0.003669 0.389184 0.372253
0.000122 0.452289 0.436957
0.343256 0.406353 0.422168
0.748633 0.355500 0.375012
0.927448 0.305945 0.312970
0.986322 0.328754 0.314300
0.000000 0.671179 0.361316
0.000000 0.700763 0.386517
0.130597 0.731165 0.355151
0.749603 0.750580 0.353979
0.951807 0.722827 0.321619
1.000000 0.698102 0.327679
0.000000 0.822034 0.322846
0.000000 0.831525 0.309967
0.054260 0.901202 0.319055
0.664258 0.920978 0.295758
0.949151 0.934735 0.287000
1.000000 0.884680 0.310925
0.000000 0.904370 0.263178
0.000000 0.913513 0.257880
0.024005 0.934723 0.391742
0.581586 0.960071 0.321118
0.881232 0.977307 0.332746
0.997406 0.983343 0.392694
0.104700 0.043048 0.686157
0.130359 0.042145 0.696582
0.416321 0.041181 0.713665
0.743628 0.016419 0.736316
0.935944 0.000177 0.757141
0.980145 0.153967 0.707324
0.083936 0.113056 0.652753
0.090088 0.104138 0.693268
0.409863 0.043249 0.767554
0.783520 0.012988 0.777710
0.944806 0.001050 0.761005
0.980237 0.167267 0.705914
0.011725 0.386243 0.653943
0.001965 0.445563 0.702795
0.274994 0.348224 0.728845
0.741016 0.333880 0.749561
0.925104 0.300153 0.727222
0.985803 0.324780 0.700397
0.000000 0.680426 0.664831
0.000000 0.710388 0.696429
0.114294 0.751978 0.750537
0.681372 0.708448 0.722400
0.904779 0.679785 0.701434
1.000000 0.667645 0.689264
0.000000 0.838806 0.659094
0.000000 0.849597 0.665625
0.021253 0.924811 0.732251
0.572021 0.898987 0.687494
0.895886 0.904095 0.691272
1.000000 0.884131 0.695214
0.000000 0.924188 0.638330
0.000000 0.933716 0.640466
0.012677 0.946667 0.678778
0.495642 0.968561 0.680230
0.857153 0.985089 0.683307
0.996893 0.988220 0.707776
0.126465 0.045849 0.828985
0.125751 0.057825 0.847302
0.375122 0.027582 0.873389
0.742938 0.000458 0.904230
0.938470 0.012201 0.928699
0.980231 0.175366 0.871075
0.107410 0.125775 0.812720
0.111163 0.131995 0.837378
0.349665 0.032874 0.906226
0.750488 0.003466 0.918182
0.936328 0.022790 0.926581
0.980383 0.189203 0.870679
0.049048 0.389007 0.814795
0.026721 0.444201 0.851062
0.226251 0.341931 0.894049
0.697674 0.306451 0.904095
0.919470 0.294928 0.912878
0.985907 0.326861 0.874426
0.000000 0.679413 0.827673
0.000000 0.703082 0.852124
0.064307 0.737598 0.920746
0.626898 0.672315 0.898346
0.899127 0.666278 0.904211
0.999988 0.663947 0.886939
0.000000 0.842786 0.830609
0.000000 0.853894 0.842517
0.003186 0.916370 0.908191
0.560077 0.904755 0.906684
0.830926 0.852136 0.861731
0.997723 0.829394 0.845257
0.000000 0.931317 0.825714
0.000000 0.940979 0.834192
0.017975 0.952655 0.857477
0.478076 0.972388 0.877594
0.788202 0.984741 0.844440
0.993470 0.987390 0.862720
0.126617 0.113953 0.899963
0.133515 0.122809 0.906622
0.285047 0.125830 0.916009
0.682892 0.121051 0.938776
0.872131 0.153149 0.947082
0.975250 0.229614 0.953369
0.123517 0.138891 0.898950
0.130725 0.147742 0.906030
0.287695 0.141297 0.915808
0.683520 0.133893 0.938953
0.872485 0.166998 0.947485
0.975837 0.244238 0.954169
0.065900 0.421295 0.908123
0.062994 0.444323 0.920459
0.210003 0.428876 0.925220
0.670160 0.376050 0.946747
0.875073 0.360467 0.955939
0.980291 0.344305 0.959906
0.000000 0.679749 0.916333
0.000647 0.699304 0.931488
0.066266 0.720807 0.937415
0.618634 0.683288 0.960193
0.870520 0.672827 0.971173
0.994464 0.669757 0.976477
0.000000 0.843512 0.921661
0.000000 0.851318 0.931555
0.063233 0.872235 0.940759
0.587103 0.877942 0.964728
0.804480 0.834033 0.973413
0.994019 0.829162 0.981238
0.000000 0.934601 0.923553
0.000000 0.943951 0.933545
0.083050 0.952509 0.943354
0.628003 0.977264 0.968805
0.831458 0.983777 0.977405
0.983978 0.972900 0.970123
