lut-uploads/DELUTS_CLOG3_Look_30.cube
# LUT size
# data domain
# LUT data points
#  
# 
# Copyright: (C) Copyright 2016 James Miller
# Created by: James Miller, www.DeLuts.co.uk
LUT_3D_SIZE 16
0.062347 0.051941 0.043610
0.072424 0.051435 0.042676
0.082330 0.051361 0.042096
0.128766 0.053803 0.042163
0.221747 0.059149 0.041797
0.340424 0.064056 0.039886
0.469244 0.065369 0.036255
0.580194 0.063928 0.032764
0.668354 0.061926 0.030237
0.732995 0.060370 0.029242
0.783997 0.059601 0.028839
0.824933 0.069922 0.029816
0.863916 0.091278 0.031024
0.901233 0.116754 0.032245
0.931079 0.144385 0.033392
0.952606 0.172760 0.034485
0.061676 0.059729 0.043079
0.069397 0.059406 0.043067
0.079749 0.058740 0.042370
0.126599 0.059516 0.042352
0.216669 0.063861 0.042047
0.332788 0.068122 0.040344
0.463049 0.069220 0.036780
0.576581 0.067560 0.033215
0.665552 0.065588 0.030628
0.731054 0.064117 0.029541
0.782398 0.063409 0.029089
0.823816 0.073822 0.029962
0.863709 0.095227 0.031140
0.901355 0.120734 0.032318
0.931244 0.148358 0.033465
0.952893 0.177002 0.034582
0.061285 0.068024 0.043011
0.068347 0.068878 0.042786
0.076526 0.068646 0.042755
0.120691 0.067560 0.042615
0.205744 0.070996 0.042419
0.318170 0.075433 0.041156
0.452533 0.077564 0.037891
0.573327 0.075855 0.034100
0.663538 0.072742 0.031329
0.728870 0.069916 0.030041
0.780487 0.067926 0.029388
0.822644 0.077643 0.030121
0.863562 0.099121 0.031231
0.901514 0.124683 0.032422
0.931476 0.152136 0.033557
0.953180 0.181110 0.034649
0.062561 0.109625 0.045593
0.068024 0.114825 0.045355
0.075073 0.114197 0.045252
0.109814 0.112909 0.044879
0.181617 0.112329 0.044464
0.275275 0.115149 0.043939
0.406201 0.119794 0.042029
0.543024 0.121368 0.038293
0.643042 0.119616 0.035199
0.716156 0.116315 0.033179
0.770080 0.112244 0.032025
0.818445 0.107141 0.031329
0.863843 0.108600 0.031513
0.901618 0.128516 0.032495
0.931677 0.155878 0.033624
0.953449 0.185089 0.034717
0.063037 0.181226 0.049726
0.067108 0.190106 0.049280
0.073993 0.188898 0.049133
0.104364 0.184784 0.048694
0.176825 0.184046 0.048071
0.269659 0.184082 0.047229
0.394525 0.187207 0.045416
0.533344 0.190308 0.041772
0.639862 0.190198 0.038477
0.713660 0.188519 0.036358
0.770911 0.186023 0.034809
0.819269 0.182629 0.034180
0.865418 0.178015 0.033832
0.904132 0.171893 0.033612
0.932819 0.171154 0.033911
0.953699 0.188855 0.034760
0.054474 0.276337 0.053711
0.055634 0.288025 0.052636
0.062378 0.291266 0.052753
0.090442 0.283185 0.052575
0.164703 0.277716 0.051978
0.262451 0.277374 0.051025
0.387561 0.277997 0.049085
0.528284 0.279865 0.045343
0.642041 0.280743 0.041345
0.716779 0.279932 0.039178
0.776184 0.278412 0.037567
0.826379 0.275970 0.036756
0.871783 0.272449 0.036297
0.910370 0.267902 0.035834
0.940551 0.261951 0.035706
0.959991 0.253204 0.035950
0.016071 0.392370 0.055707
0.014471 0.399512 0.053528
0.017236 0.416650 0.053674
0.042804 0.406030 0.054230
0.132019 0.397442 0.054474
0.243506 0.395025 0.053686
0.375464 0.399182 0.051758
0.525415 0.402124 0.047406
0.646765 0.402881 0.042670
0.725964 0.401978 0.040045
0.785657 0.400665 0.038251
0.839252 0.398743 0.036816
0.884967 0.395831 0.036707
0.922699 0.392285 0.037115
0.952789 0.387683 0.037677
0.973438 0.380292 0.038147
0.000000 0.503686 0.055536
0.000135 0.508862 0.052539
0.005835 0.529156 0.051990
0.017249 0.523053 0.052942
0.070685 0.512799 0.054523
0.207470 0.509217 0.054108
0.347748 0.513427 0.052606
0.512390 0.524170 0.047882
0.643622 0.528058 0.042316
0.732239 0.528931 0.038727
0.793128 0.528211 0.037622
0.848730 0.527411 0.036725
0.897137 0.525818 0.036749
0.934876 0.523565 0.037439
0.964648 0.520764 0.038135
0.985693 0.516364 0.038593
0.000000 0.594891 0.054297
0.000006 0.599335 0.051123
0.003100 0.610467 0.049933
0.010541 0.619183 0.050501
0.056464 0.606946 0.053443
0.148950 0.603076 0.054102
0.316467 0.605804 0.053290
0.488159 0.616547 0.049585
0.633966 0.626556 0.044293
0.732715 0.630261 0.039856
0.796472 0.630310 0.038379
0.853442 0.630090 0.037146
0.904931 0.629578 0.036401
0.943512 0.628235 0.037011
0.973401 0.626672 0.037890
0.992493 0.624231 0.038562
0.000000 0.661596 0.055408
0.000000 0.665894 0.052106
0.000116 0.672321 0.050171
0.000073 0.699426 0.059033
0.031061 0.694293 0.051874
0.105334 0.685248 0.055542
0.270544 0.688196 0.055633
0.466186 0.700330 0.052630
0.630414 0.712762 0.046283
0.741229 0.719751 0.040949
0.810791 0.719812 0.039044
0.869293 0.718219 0.037909
0.921875 0.716473 0.037476
0.961432 0.714368 0.038343
0.988056 0.712268 0.039758
0.999854 0.706610 0.050012
0.000000 0.716278 0.071442
0.000000 0.720276 0.068366
0.000000 0.724304 0.065436
0.000000 0.744489 0.079163
0.002783 0.766223 0.068915
0.075195 0.768860 0.057648
0.187122 0.768988 0.059418
0.430359 0.780017 0.057227
0.624591 0.794403 0.050647
0.751599 0.803357 0.044891
0.832001 0.808014 0.043640
0.893622 0.805677 0.042890
0.945971 0.801312 0.042658
0.981238 0.797174 0.044214
0.999017 0.789111 0.054205
1.000000 0.772522 0.086151
0.000000 0.765778 0.096234
0.000000 0.769385 0.093512
0.000000 0.772870 0.090741
0.000000 0.782684 0.095874
0.000000 0.807599 0.119116
0.028284 0.846124 0.061761
0.130646 0.844013 0.064270
0.358753 0.855438 0.063562
0.599725 0.872412 0.058807
0.748926 0.882825 0.054510
0.840522 0.887958 0.054016
0.914416 0.891809 0.055005
0.968073 0.886371 0.054992
0.995325 0.875427 0.060498
1.000000 0.850787 0.092895
1.000000 0.831421 0.123853
0.000000 0.811273 0.125134
0.000000 0.814758 0.122674
0.000000 0.818146 0.120154
0.000000 0.821723 0.118201
0.000000 0.843860 0.148633
0.001776 0.880725 0.123779
0.091968 0.895740 0.090052
0.248602 0.906457 0.089685
0.546222 0.925403 0.087622
0.720746 0.937976 0.084662
0.827301 0.944208 0.084180
0.904700 0.947315 0.086468
0.971106 0.949451 0.089734
0.998871 0.938171 0.097455
1.000000 0.905109 0.133472
1.000000 0.882544 0.164813
0.000000 0.849799 0.159491
0.000000 0.853223 0.157343
0.000000 0.856506 0.155151
0.000000 0.859662 0.152924
0.000000 0.870904 0.169061
0.000000 0.893438 0.206201
0.054016 0.923016 0.146417
0.179913 0.929864 0.140607
0.473956 0.945782 0.142169
0.673858 0.959332 0.141278
0.794312 0.966962 0.140644
0.875812 0.970740 0.143018
0.946637 0.973877 0.146643
0.992181 0.975873 0.151178
1.000000 0.950214 0.179236
1.000000 0.924811 0.212036
0.000000 0.881408 0.199121
0.000000 0.884668 0.196961
0.000000 0.887915 0.194928
0.000000 0.890967 0.192957
0.000000 0.894775 0.193793
0.000000 0.915161 0.241491
0.030969 0.927270 0.251190
0.148181 0.931055 0.216693
0.400421 0.944623 0.218780
0.626184 0.958899 0.220599
0.752796 0.967218 0.222070
0.839001 0.971918 0.224676
0.908313 0.974988 0.228607
0.963916 0.977484 0.232795
0.994635 0.978870 0.237078
1.000000 0.958868 0.264051
0.000000 0.902863 0.230011
0.000000 0.905993 0.228290
0.000000 0.909064 0.226361
0.000000 0.911963 0.224597
0.000000 0.914697 0.222925
0.003235 0.928345 0.277161
0.040185 0.933246 0.361175
0.138501 0.933807 0.290082
0.359119 0.945838 0.285230
0.601490 0.960016 0.289441
0.729095 0.968292 0.292877
0.817395 0.973481 0.297217
0.884394 0.976495 0.304358
0.938135 0.979016 0.315088
0.977453 0.981140 0.333081
0.997375 0.982727 0.365204
0.061346 0.051202 0.051709
0.073108 0.051849 0.052856
0.083350 0.051496 0.051697
0.129693 0.053693 0.050421
0.223676 0.058832 0.049420
0.343683 0.063299 0.046515
0.474262 0.063904 0.041626
0.586407 0.061390 0.036450
0.675018 0.058160 0.031738
0.739300 0.056281 0.029315
0.789460 0.055530 0.028674
0.829492 0.066205 0.029761
0.867682 0.087653 0.030963
0.904193 0.113464 0.032245
0.933936 0.141522 0.033423
0.955298 0.169727 0.034546
0.061584 0.059461 0.050629
0.068628 0.058325 0.049951
0.079431 0.057636 0.048834
0.137543 0.055713 0.044092
0.237799 0.059405 0.041650
0.357538 0.063458 0.039429
0.482880 0.063714 0.035657
0.590332 0.062018 0.032263
0.674878 0.060553 0.030017
0.737775 0.059863 0.029150
0.787866 0.059394 0.028839
0.828418 0.070099 0.029883
0.867401 0.091705 0.031085
0.904383 0.117474 0.032337
0.934119 0.145392 0.033484
0.955584 0.174023 0.034613
0.061200 0.067835 0.049744
0.067437 0.068549 0.048859
0.075982 0.068225 0.048755
0.128229 0.065393 0.044226
0.223724 0.067652 0.042132
0.340252 0.071527 0.040399
0.471802 0.072577 0.036865
0.586267 0.070435 0.033203
0.672138 0.067957 0.030713
0.735413 0.065277 0.029590
0.786139 0.063764 0.029120
0.827405 0.073944 0.030005
0.867212 0.095679 0.031183
0.904565 0.121484 0.032398
0.934308 0.149262 0.033557
0.955872 0.178247 0.034680
0.062531 0.109528 0.050635
0.063599 0.121985 0.046509
0.071991 0.121094 0.046313
0.113617 0.118915 0.045789
0.188861 0.112433 0.044446
0.284082 0.112573 0.043707
0.416821 0.115796 0.041571
0.551471 0.116412 0.037750
0.649439 0.114142 0.034735
0.721411 0.110492 0.032782
0.774652 0.106116 0.031653
0.822827 0.100848 0.031073
0.867316 0.104040 0.031421
0.904779 0.125384 0.032471
0.934534 0.153015 0.033636
0.956140 0.182318 0.034760
0.063043 0.181281 0.053668
0.062433 0.197535 0.049634
0.070172 0.196295 0.049518
0.102295 0.191266 0.048974
0.181286 0.189905 0.048303
0.275860 0.185510 0.047247
0.401776 0.186236 0.045221
0.540173 0.187836 0.041449
0.645025 0.186926 0.038220
0.718561 0.184742 0.036066
0.774841 0.181897 0.034607
0.822992 0.178259 0.033990
0.869019 0.173395 0.033655
0.907251 0.167224 0.033502
0.935571 0.167243 0.033887
0.956415 0.186108 0.034815
0.054571 0.276319 0.056781
0.051666 0.291974 0.053192
0.057751 0.298151 0.052875
0.086279 0.289471 0.052741
0.164075 0.283319 0.052173
0.266797 0.282855 0.051153
0.393854 0.280145 0.049029
0.534607 0.279791 0.045117
0.647253 0.279376 0.041156
0.721344 0.277887 0.038995
0.780340 0.275904 0.037378
0.829889 0.273010 0.036658
0.875159 0.269238 0.036181
0.913593 0.264557 0.035785
0.943579 0.258478 0.035639
0.962604 0.249884 0.035974
0.016254 0.392084 0.058716
0.012933 0.400251 0.055469
0.012427 0.422650 0.053528
0.036670 0.411938 0.054157
0.127649 0.402777 0.054529
0.243738 0.400177 0.053741
0.380267 0.404535 0.051690
0.531531 0.405133 0.047198
0.652545 0.404126 0.042426
0.730511 0.402179 0.039911
0.789997 0.400195 0.038147
0.842969 0.397742 0.036773
0.888342 0.394513 0.036731
0.925940 0.390656 0.037164
0.955939 0.385852 0.037720
0.976422 0.378308 0.038214
0.000000 0.503271 0.058563
0.000000 0.508514 0.055475
0.003137 0.534289 0.051660
0.014618 0.528363 0.052649
0.068042 0.517645 0.054468
0.204748 0.513940 0.054120
0.349036 0.518200 0.052575
0.517578 0.529278 0.047687
0.649353 0.531763 0.042053
0.736853 0.531409 0.038623
0.797534 0.529968 0.037543
0.852820 0.528521 0.036694
0.900695 0.526361 0.036810
0.938245 0.523743 0.037524
0.967895 0.520697 0.038202
0.988800 0.516113 0.038684
0.000000 0.594647 0.057422
0.000000 0.599097 0.054303
0.000714 0.614435 0.050031
0.007879 0.623846 0.050146
0.054480 0.611401 0.053345
0.144983 0.607532 0.054150
0.315905 0.610419 0.053314
0.490936 0.621308 0.049591
0.639093 0.631439 0.044195
0.737427 0.634143 0.039789
0.800861 0.633337 0.038312
0.857629 0.632507 0.037097
0.908612 0.631360 0.036432
0.946881 0.629602 0.037115
0.976556 0.627735 0.037994
0.994745 0.625055 0.038776
0.000000 0.661395 0.058728
0.000000 0.665698 0.055463
0.000000 0.672296 0.053412
0.000012 0.699322 0.062555
0.028467 0.698620 0.051611
0.103344 0.689319 0.055627
0.267481 0.692255 0.055823
0.467413 0.704645 0.052771
0.634039 0.717316 0.046246
0.745813 0.724341 0.040900
0.815082 0.723718 0.039007
0.873389 0.721393 0.037903
0.925519 0.719000 0.037567
0.964661 0.716376 0.038507
0.990350 0.713947 0.040063
0.999933 0.706500 0.054730
0.000000 0.716150 0.074836
0.000000 0.720178 0.071801
0.000000 0.724194 0.068945
0.000000 0.744336 0.082709
0.002228 0.766815 0.072101
0.072888 0.772510 0.057745
0.183032 0.772809 0.059613
0.429852 0.783924 0.057385
0.626807 0.798468 0.050812
0.755188 0.807508 0.045105
0.835968 0.812079 0.044030
0.897632 0.809192 0.043304
0.949402 0.804083 0.043121
0.983685 0.799457 0.044672
0.999280 0.789312 0.058466
1.000000 0.772491 0.090821
0.000000 0.765808 0.099665
0.000000 0.769391 0.097010
0.000000 0.772888 0.094263
0.000000 0.782617 0.099402
0.000000 0.807574 0.122851
0.026923 0.847174 0.064203
0.128839 0.846735 0.065106
0.355713 0.858331 0.064459
0.600147 0.875592 0.059735
0.750867 0.886072 0.055542
0.843005 0.891150 0.055163
0.917218 0.894684 0.056470
0.970532 0.889234 0.056146
0.996319 0.876587 0.063220
1.000000 0.850788 0.097338
1.000000 0.831329 0.128094
0.000000 0.811304 0.128571
0.000000 0.814783 0.126172
0.000000 0.818189 0.123755
0.000000 0.821753 0.121802
0.000000 0.843878 0.152472
0.001739 0.880682 0.128253
0.091437 0.895330 0.094098
0.246729 0.905993 0.094037
0.544824 0.924927 0.092200
0.719672 0.937518 0.089441
0.826562 0.943756 0.089050
0.903998 0.946833 0.091419
0.970746 0.948963 0.094690
0.998810 0.938111 0.101935
1.000000 0.905072 0.137683
1.000000 0.882678 0.169348
0.000000 0.849927 0.163342
0.000000 0.853314 0.161096
0.000000 0.856598 0.158862
0.000000 0.859741 0.156702
0.000000 0.870953 0.172907
0.000000 0.893548 0.210559
0.053607 0.923102 0.150580
0.179035 0.929810 0.144330
0.472424 0.945685 0.146002
0.672949 0.959247 0.145301
0.793714 0.966913 0.144763
0.875378 0.970703 0.147199
0.946326 0.973877 0.151032
0.992108 0.975897 0.155640
1.000000 0.950268 0.183698
1.000000 0.924933 0.216699
0.000000 0.881506 0.203027
0.000000 0.884808 0.200977
0.000000 0.888019 0.198889
0.000000 0.891065 0.196930
0.000000 0.894873 0.197754
0.000000 0.915320 0.245899
0.030835 0.927448 0.255810
0.147650 0.931171 0.220551
0.398962 0.944721 0.222937
0.625519 0.958990 0.224988
0.752295 0.967340 0.226587
0.838647 0.972058 0.229230
0.908130 0.975116 0.233185
0.963763 0.977612 0.237415
0.994586 0.978998 0.241675
1.000000 0.958996 0.268872
0.000000 0.902966 0.234143
0.000000 0.906128 0.232233
0.000000 0.909216 0.230530
0.000000 0.912122 0.228699
0.000000 0.914887 0.227088
0.003235 0.928540 0.281689
0.040088 0.933526 0.366174
0.138165 0.934034 0.294769
0.357813 0.946002 0.289813
0.600891 0.960174 0.294189
0.728681 0.968451 0.297687
0.817169 0.973664 0.302082
0.884131 0.976624 0.309278
0.938013 0.979169 0.320013
0.977368 0.981268 0.338037
0.997406 0.982855 0.370136
0.060535 0.050696 0.060932
0.071680 0.051313 0.062982
0.083649 0.051947 0.064215
0.129395 0.054065 0.061975
0.221887 0.059027 0.060950
0.341370 0.063483 0.057868
0.472449 0.064185 0.053052
0.585309 0.061731 0.048162
0.675177 0.058405 0.043707
0.740784 0.055536 0.040247
0.793201 0.053003 0.036523
0.837610 0.059290 0.029779
0.873114 0.082739 0.030957
0.907489 0.109790 0.032245
0.936737 0.138501 0.033423
0.957989 0.166980 0.034588
0.060779 0.058539 0.060376
0.067023 0.057098 0.061707
0.079876 0.057739 0.062756
0.136835 0.056195 0.059076
0.235877 0.059607 0.055066
0.354699 0.063648 0.051862
0.481317 0.063940 0.047595
0.591577 0.061371 0.042920
0.679693 0.058093 0.038531
0.744977 0.055237 0.035138
0.796527 0.052917 0.031580
0.836627 0.063397 0.029828
0.872552 0.086896 0.031036
0.907623 0.113910 0.032337
0.936920 0.142511 0.033496
0.958209 0.171167 0.034649
0.061090 0.067389 0.059558
0.067090 0.068420 0.060742
0.074859 0.066980 0.059510
0.127093 0.064099 0.054755
0.243958 0.062610 0.045636
0.378784 0.063818 0.038989
0.502917 0.063446 0.035040
0.608630 0.060742 0.031622
0.689215 0.058087 0.029590
0.749597 0.055688 0.028699
0.797266 0.055378 0.028748
0.835492 0.067609 0.029932
0.872168 0.091028 0.031128
0.907763 0.118030 0.032410
0.937097 0.146393 0.033557
0.958502 0.175440 0.034741
0.062457 0.109131 0.058948
0.063354 0.122290 0.057434
0.070123 0.121887 0.055426
0.112353 0.119446 0.054675
0.196655 0.111981 0.047711
0.300269 0.107996 0.043323
0.436352 0.108881 0.040729
0.567932 0.107349 0.036749
0.663367 0.103912 0.033734
0.732355 0.099872 0.032019
0.783819 0.095752 0.030981
0.829889 0.091382 0.030719
0.871210 0.098248 0.031317
0.907770 0.122137 0.032471
0.937323 0.150214 0.033655
0.958777 0.179517 0.034809
0.063074 0.180719 0.061591
0.062567 0.196466 0.059198
0.061896 0.210150 0.051978
0.096576 0.203754 0.050708
0.188678 0.201386 0.049683
0.289117 0.189441 0.047235
0.418036 0.184882 0.044763
0.554999 0.183508 0.040784
0.655621 0.180994 0.037689
0.727246 0.178040 0.035553
0.780640 0.175018 0.034265
0.827423 0.171283 0.033740
0.872589 0.166321 0.033435
0.910065 0.160040 0.033349
0.938129 0.161688 0.033844
0.959051 0.183362 0.034876
0.054828 0.276318 0.063709
0.052899 0.287116 0.061096
0.046051 0.314386 0.054456
0.074322 0.306153 0.053131
0.161188 0.297522 0.052588
0.276361 0.296124 0.051398
0.407348 0.285578 0.048841
0.547034 0.280194 0.044709
0.656000 0.277136 0.040832
0.727911 0.274158 0.038721
0.785248 0.271295 0.037164
0.833398 0.267877 0.036523
0.878278 0.263544 0.036041
0.916516 0.258411 0.035657
0.946088 0.252032 0.035553
0.964752 0.243274 0.035938
0.015869 0.392975 0.064105
0.013190 0.399164 0.061029
0.004443 0.434778 0.054236
0.024640 0.424762 0.053925
0.116724 0.413678 0.054608
0.243360 0.410089 0.053802
0.388489 0.414001 0.051569
0.540808 0.409540 0.046900
0.659827 0.405243 0.042139
0.735705 0.401172 0.039746
0.794501 0.397937 0.038019
0.846533 0.394495 0.036756
0.891413 0.390485 0.036780
0.928827 0.386029 0.037189
0.958667 0.380780 0.037744
0.978912 0.372821 0.038244
0.000000 0.503912 0.062030
0.000000 0.508862 0.059015
0.000000 0.537403 0.052765
0.009869 0.536456 0.052143
0.063318 0.524280 0.054370
0.199268 0.520001 0.054150
0.350000 0.524182 0.052551
0.523919 0.535449 0.047443
0.655786 0.535547 0.041760
0.741687 0.533240 0.038519
0.802008 0.530597 0.037482
0.856903 0.528223 0.036639
0.904089 0.525238 0.036853
0.941400 0.522046 0.037591
0.970935 0.518622 0.038263
0.991651 0.513691 0.038757
0.000000 0.594787 0.060547
0.000000 0.599213 0.057422
0.000000 0.612537 0.052869
0.004376 0.629633 0.049793
0.050403 0.616400 0.053162
0.138037 0.612366 0.054181
0.313806 0.615271 0.053393
0.493640 0.626446 0.049628
0.644757 0.636713 0.044067
0.742267 0.637915 0.039715
0.805292 0.636035 0.038245
0.861841 0.634350 0.037011
0.912195 0.632434 0.036456
0.950098 0.630194 0.037213
0.979468 0.627985 0.038111
0.996729 0.624781 0.039215
0.000000 0.661347 0.061896
0.000000 0.665643 0.058710
0.000000 0.671240 0.056226
0.000000 0.698846 0.066107
0.024182 0.703406 0.051135
0.100818 0.693531 0.055688
0.262634 0.696344 0.056018
0.467926 0.708984 0.052924
0.637476 0.721875 0.046228
0.750452 0.728931 0.040820
0.819379 0.727441 0.039001
0.877423 0.724347 0.037878
0.929004 0.721173 0.037677
0.967584 0.718018 0.038678
0.992401 0.715039 0.040564
0.999982 0.706213 0.059277
0.000000 0.716064 0.078155
0.000000 0.720062 0.075165
0.000000 0.724005 0.072242
0.000000 0.743964 0.085846
0.001477 0.767169 0.075672
0.070166 0.776153 0.057770
0.178271 0.776495 0.059802
0.428717 0.787732 0.057605
0.628735 0.802417 0.051025
0.758588 0.811511 0.045300
0.839850 0.816082 0.044452
0.901538 0.812561 0.043750
0.952710 0.806793 0.043634
0.985992 0.801593 0.045276
0.999554 0.789301 0.062537
1.000000 0.772351 0.095331
0.000000 0.765784 0.103088
0.000000 0.769397 0.100433
0.000000 0.772888 0.097736
0.000000 0.782477 0.102802
0.000000 0.807513 0.126593
0.025580 0.848096 0.066730
0.127405 0.848322 0.067023
0.352734 0.860608 0.065833
0.600293 0.878284 0.061090
0.752118 0.888520 0.057257
0.844458 0.893164 0.057379
0.918750 0.896380 0.059058
0.972314 0.891101 0.058087
0.997266 0.877643 0.065869
1.000000 0.850720 0.101654
1.000000 0.831342 0.132343
0.000000 0.811316 0.131989
0.000000 0.814819 0.129608
0.000000 0.818231 0.127258
0.000000 0.821747 0.125378
0.000000 0.843878 0.156116
0.001685 0.880511 0.132721
0.090894 0.894891 0.097980
0.244959 0.905554 0.098248
0.543414 0.924432 0.096588
0.718592 0.937055 0.094073
0.825781 0.943317 0.093774
0.903253 0.946350 0.096185
0.970239 0.948499 0.099475
0.998731 0.938019 0.106281
1.000000 0.905078 0.141736
1.000000 0.882727 0.173737
0.000000 0.850018 0.167096
0.000000 0.853406 0.164831
0.000000 0.856677 0.162579
0.000000 0.859814 0.160407
0.000000 0.870953 0.176636
0.000000 0.893621 0.214850
0.053143 0.923187 0.154681
0.178101 0.929755 0.147931
0.470984 0.945594 0.149780
0.672015 0.959198 0.149280
0.793158 0.966883 0.148919
0.875006 0.970715 0.151483
0.946063 0.973883 0.155365
0.992010 0.975897 0.160040
1.000000 0.950348 0.188086
1.000000 0.924951 0.221289
0.000000 0.881635 0.206848
0.000000 0.884936 0.204877
0.000000 0.888129 0.202795
0.000000 0.891181 0.200830
0.000000 0.894952 0.201642
0.000000 0.915436 0.250141
0.030658 0.927649 0.260437
0.147064 0.931274 0.224390
0.397278 0.944812 0.226904
0.624738 0.959125 0.229279
0.751788 0.967450 0.230927
0.838391 0.972192 0.233649
0.907941 0.975244 0.237622
0.963635 0.977740 0.241864
0.994617 0.979114 0.246161
1.000000 0.959119 0.273547
0.000000 0.903119 0.238037
0.000000 0.906256 0.236236
0.000000 0.909320 0.234448
0.000000 0.912268 0.232709
0.000000 0.915070 0.231103
0.003235 0.928735 0.285913
0.039917 0.933746 0.371039
0.137726 0.934216 0.299402
0.356433 0.946185 0.294275
0.600159 0.960303 0.298798
0.728296 0.968579 0.302393
0.816895 0.973822 0.306811
0.883942 0.976782 0.314062
0.937769 0.979346 0.324841
0.977222 0.981433 0.342920
0.997437 0.982953 0.374921
0.059833 0.052234 0.106671
0.069660 0.053009 0.116675
0.080316 0.053559 0.117804
0.127332 0.056061 0.122619
0.217254 0.060370 0.120972
0.332709 0.064490 0.116217
0.464679 0.065448 0.109228
0.581042 0.063098 0.101892
0.674384 0.059521 0.094745
0.740594 0.056573 0.087628
0.793701 0.053827 0.078088
0.847882 0.051593 0.054162
0.892328 0.063623 0.033167
0.920092 0.096186 0.032324
0.944824 0.130798 0.033563
0.962549 0.162897 0.034674
0.060089 0.058709 0.107117
0.060242 0.053497 0.125830
0.073840 0.054205 0.126947
0.133441 0.057343 0.132544
0.229462 0.060999 0.122772
0.345130 0.064691 0.113049
0.473529 0.065253 0.104028
0.587048 0.062799 0.096314
0.678974 0.059247 0.089612
0.744714 0.056286 0.082440
0.797449 0.053558 0.072693
0.850464 0.051959 0.049103
0.892108 0.067444 0.031903
0.919867 0.100873 0.032404
0.944818 0.135095 0.033624
0.962622 0.167072 0.034741
0.060443 0.066113 0.104547
0.060431 0.063995 0.120795
0.067273 0.061688 0.122327
0.127161 0.064307 0.128235
0.237677 0.064056 0.122162
0.368268 0.065088 0.109174
0.495972 0.064874 0.098114
0.604394 0.062060 0.088959
0.689392 0.058612 0.080054
0.750445 0.055774 0.071625
0.801410 0.053186 0.063019
0.852563 0.052771 0.042920
0.891009 0.072424 0.031702
0.919605 0.105695 0.032452
0.944745 0.139423 0.033673
0.962744 0.171283 0.034821
0.061883 0.107843 0.100598
0.062134 0.121448 0.113556
0.068524 0.120868 0.113654
0.104584 0.113013 0.108447
0.188586 0.105322 0.100006
0.310865 0.097449 0.086029
0.488233 0.087116 0.065063
0.632098 0.073236 0.044824
0.720422 0.066742 0.035089
0.778296 0.064520 0.029773
0.818115 0.066553 0.029645
0.852618 0.070154 0.030353
0.885455 0.084161 0.031280
0.917193 0.112939 0.032532
0.943774 0.144550 0.033716
0.962897 0.175531 0.034888
0.062506 0.177960 0.100781
0.061920 0.193701 0.106763
0.061487 0.206757 0.106805
0.088208 0.200086 0.099268
0.180957 0.194500 0.096356
0.291443 0.183887 0.088452
0.446313 0.174078 0.069714
0.599701 0.162561 0.050378
0.697070 0.155340 0.040277
0.762207 0.151972 0.034186
0.805676 0.152686 0.033228
0.846228 0.152356 0.033020
0.884790 0.151044 0.032928
0.916315 0.148456 0.033203
0.942475 0.154718 0.033850
0.962323 0.180060 0.034925
0.055420 0.271899 0.101233
0.053851 0.282294 0.100531
0.047400 0.310962 0.103412
0.055097 0.320673 0.089532
0.147791 0.308050 0.085053
0.281738 0.307282 0.083649
0.435938 0.292486 0.071564
0.593146 0.277032 0.054309
0.696753 0.265869 0.043842
0.764447 0.259381 0.037665
0.811090 0.256397 0.036480
0.851110 0.254358 0.036102
0.889533 0.252313 0.035742
0.922669 0.248730 0.035449
0.949243 0.242853 0.035504
0.966663 0.234119 0.035870
0.017505 0.389606 0.098743
0.015106 0.396027 0.094623
0.005963 0.429877 0.098932
0.004267 0.447754 0.083576
0.073480 0.447436 0.071832
0.234588 0.442816 0.070142
0.415735 0.448492 0.066394
0.586774 0.432495 0.054358
0.702570 0.415729 0.044379
0.771051 0.403528 0.038733
0.820312 0.395331 0.037317
0.862604 0.389343 0.036749
0.900549 0.384369 0.036908
0.933124 0.379559 0.037225
0.961420 0.373456 0.037738
0.981024 0.365063 0.038250
0.000055 0.502844 0.091852
0.000037 0.508423 0.086804
0.000000 0.528766 0.088245
