lut-uploads/FujiColor 200_VS.cube
# (C) 2014 VisionColor & Patchflyer [www.vision-color.com]
# Generator: VC Patchmatch v.2.1.1 [64/53]
# All work and no play makes Jack a dull boy.
# LUT generated from: FujiColor 200_VisionSpace
LUT_3D_SIZE 5
0.032197 0.033112 0.033661
0.184634 0.109804 0.054963
0.309361 0.184756 0.070802
0.387182 0.217655 0.085176
0.436713 0.240177 0.094667
0.094636 0.173495 0.166018
0.299657 0.268986 0.150515
0.444984 0.306493 0.144930
0.514153 0.331945 0.148470
0.554253 0.367407 0.188418
0.187930 0.337621 0.328252
0.264500 0.440589 0.334722
0.611399 0.533394 0.329015
0.681941 0.576501 0.357763
0.708736 0.615290 0.418112
0.254063 0.454841 0.458686
0.296971 0.538018 0.527764
0.643381 0.683528 0.508598
0.744411 0.738155 0.700282
0.753689 0.752071 0.735470
0.309575 0.551415 0.562707
0.372930 0.641657 0.646967
0.697108 0.730617 0.714839
0.757473 0.757717 0.749538
0.758206 0.759121 0.752163
0.032410 0.048005 0.077455
0.202670 0.112093 0.176394
0.389410 0.174929 0.188571
0.447150 0.185458 0.184207
0.511009 0.209995 0.200687
0.109285 0.193881 0.216587
0.222660 0.224613 0.224399
0.456825 0.254002 0.184482
0.492897 0.259922 0.146059
0.575616 0.321233 0.227970
0.207767 0.364813 0.384649
0.251225 0.444495 0.419989
0.590951 0.523354 0.340139
0.684810 0.558358 0.360143
0.713130 0.612100 0.475578
0.273136 0.480140 0.503136
0.307561 0.546410 0.560845
0.600656 0.691157 0.579339
0.748379 0.744533 0.718227
0.755093 0.754330 0.739620
0.340124 0.600946 0.617761
0.378302 0.644526 0.652674
0.695125 0.729915 0.713191
0.757443 0.757321 0.748501
0.757656 0.757717 0.749447
0.039857 0.073762 0.123568
0.131594 0.121248 0.246891
0.352331 0.177859 0.301183
0.450568 0.200046 0.310430
0.519768 0.219394 0.327977
0.111330 0.204288 0.243351
0.131563 0.206516 0.264012
0.413397 0.244205 0.384710
0.545708 0.237705 0.339574
0.658595 0.309911 0.401404
0.227207 0.392584 0.436744
0.267948 0.458473 0.507958
0.458457 0.455131 0.475303
0.691371 0.435843 0.395193
0.692988 0.585077 0.560250
0.293370 0.511894 0.545464
0.326207 0.574029 0.604669
0.495995 0.680720 0.643458
0.750210 0.747921 0.724544
0.757015 0.756466 0.744991
0.342260 0.601007 0.627649
0.374731 0.637201 0.656123
0.693874 0.731777 0.723354
0.758328 0.759426 0.752377
0.758846 0.760494 0.753353
0.051606 0.113191 0.167269
0.083040 0.140475 0.225437
0.304417 0.178592 0.351720
0.441962 0.217136 0.377081
0.520623 0.243626 0.399878
0.108736 0.216556 0.267735
0.095827 0.204013 0.265873
0.302876 0.223545 0.449378
0.512871 0.259037 0.447120
0.621698 0.327459 0.503807
0.223850 0.400824 0.454078
0.232822 0.430274 0.491463
0.237064 0.355749 0.479271
0.573053 0.381765 0.607324
0.654200 0.544533 0.637446
0.301274 0.526604 0.568383
0.311742 0.549920 0.590417
0.401877 0.639185 0.663752
0.698756 0.702693 0.701106
0.736812 0.724453 0.719234
0.318669 0.555871 0.596765
0.328923 0.573754 0.613306
0.664775 0.727932 0.727474
0.751186 0.756344 0.751064
0.759854 0.762448 0.757168
0.058900 0.134157 0.187198
0.078645 0.158816 0.229587
0.279759 0.179080 0.380774
0.432624 0.222477 0.410742
0.515923 0.255222 0.439155
0.091737 0.223697 0.284092
0.065370 0.207156 0.277165
0.184222 0.200412 0.416342
0.469795 0.257420 0.499306
0.566857 0.317510 0.556786
0.219760 0.409400 0.469612
0.204135 0.425147 0.489326
0.211109 0.357259 0.466026
0.553033 0.499321 0.651911
0.649012 0.558389 0.660304
0.291722 0.521050 0.567987
0.318395 0.553979 0.596918
0.492561 0.665888 0.686091
0.684810 0.709438 0.722622
0.744228 0.735897 0.742061
0.309728 0.548882 0.589715
0.330205 0.576135 0.615534
0.640208 0.723293 0.724025
0.732052 0.750149 0.748440
0.760128 0.762844 0.760128
