lut-uploads/FujiColor 200_VS.cube
# (C) 2014 VisionColor & Patchflyer [www.vision-color.com]
# Generator: VC Patchmatch v.2.1.1 [64/53]
# All work and no play makes Jack a dull boy.
# LUT generated from: FujiColor 200_VisionSpace
LUT_3D_SIZE 17
0.032197 0.033112 0.033661
0.035920 0.035431 0.035248
0.081605 0.056031 0.043061
0.137575 0.084443 0.051484
0.184634 0.109804 0.054963
0.225071 0.135378 0.055360
0.259129 0.159091 0.060517
0.286900 0.173342 0.066194
0.309361 0.184756 0.070802
0.334234 0.196231 0.075654
0.354528 0.206027 0.079683
0.372442 0.212863 0.082826
0.387182 0.217655 0.085176
0.405280 0.224460 0.088289
0.423377 0.232975 0.091829
0.433509 0.238407 0.093996
0.436713 0.240177 0.094667
0.033387 0.037049 0.037232
0.038178 0.040955 0.039643
0.093324 0.065492 0.046204
0.147372 0.095583 0.054871
0.195377 0.128817 0.060517
0.234226 0.151705 0.059968
0.265873 0.168338 0.063416
0.292638 0.181277 0.068666
0.318090 0.193729 0.073793
0.342382 0.203769 0.078187
0.362615 0.212161 0.081880
0.378058 0.217075 0.084321
0.396155 0.224308 0.087556
0.414557 0.231998 0.090913
0.431556 0.239689 0.094148
0.441535 0.244938 0.096254
0.445045 0.246799 0.097017
0.042542 0.070527 0.062776
0.050996 0.084718 0.072724
0.127321 0.127382 0.079194
0.187625 0.152071 0.082765
0.230533 0.170016 0.080140
0.269749 0.183261 0.075013
0.302525 0.196414 0.075074
0.330571 0.207736 0.078340
0.352941 0.218265 0.083375
0.372381 0.226139 0.086244
0.392340 0.234562 0.089967
0.410407 0.242222 0.093233
0.426337 0.248753 0.096101
0.445197 0.258518 0.100923
0.462867 0.268009 0.105623
0.474525 0.275334 0.110384
0.478859 0.277867 0.111604
0.067048 0.123201 0.112490
0.075013 0.137545 0.125185
0.131044 0.175296 0.134524
0.213901 0.203525 0.113130
0.264530 0.216800 0.108278
0.306310 0.227787 0.106630
0.342901 0.237797 0.104067
0.370947 0.246952 0.103639
0.396185 0.252781 0.099214
0.415015 0.261295 0.103426
0.438239 0.271092 0.105959
0.457374 0.279667 0.110567
0.472816 0.286534 0.112184
0.486275 0.293584 0.115175
0.501488 0.305486 0.125978
0.515679 0.317205 0.137758
0.519921 0.321019 0.141909
0.094636 0.173495 0.166018
0.102174 0.186587 0.175784
0.142977 0.220798 0.183597
0.220829 0.245823 0.156405
0.299657 0.268986 0.150515
0.346258 0.280156 0.154421
0.385840 0.291966 0.153079
0.419501 0.301030 0.151614
0.444984 0.306493 0.144930
0.467506 0.310369 0.143252
0.486305 0.315801 0.139773
0.504662 0.325078 0.143923
0.514153 0.331945 0.148470
0.525689 0.341436 0.156344
0.539544 0.353155 0.169162
0.550042 0.362982 0.182101
0.554253 0.367407 0.188418
0.119081 0.216861 0.203098
0.125032 0.227329 0.211734
0.160128 0.268650 0.232517
0.217777 0.288121 0.207187
0.315435 0.322393 0.178683
0.386542 0.337835 0.198398
0.427436 0.347997 0.197269
0.462196 0.356756 0.200595
0.493935 0.364752 0.203098
0.520806 0.372076 0.204074
0.535943 0.375525 0.201724
0.547967 0.378790 0.199039
0.558526 0.385290 0.200412
0.566796 0.393530 0.207034
0.577813 0.406012 0.221744
0.588067 0.418860 0.237980
0.593347 0.424079 0.246799
0.143618 0.259220 0.245060
0.148684 0.268284 0.251438
0.177829 0.313085 0.276707
0.217136 0.335576 0.255344
0.311772 0.368597 0.214847
0.402136 0.390967 0.222934
0.469551 0.408423 0.239048
0.507073 0.416083 0.250889
0.538445 0.422583 0.254734
0.564141 0.428656 0.256016
0.578973 0.433112 0.258152
0.589990 0.438880 0.258640
0.600153 0.446479 0.262516
0.607202 0.454017 0.266941
0.616785 0.466987 0.280247
0.628901 0.480659 0.293767
0.634791 0.485481 0.298589
0.168246 0.301366 0.285832
0.172457 0.308965 0.290654
0.194583 0.349615 0.315404
0.223453 0.382452 0.310399
0.293462 0.407416 0.272892
0.408301 0.438453 0.244968
0.489067 0.456580 0.269566
0.544152 0.471626 0.282963
0.577523 0.474891 0.292729
0.601709 0.482612 0.300633
0.620020 0.490639 0.306096
0.631952 0.500023 0.308324
0.641382 0.510948 0.313726
0.649927 0.523796 0.324498
0.658289 0.534722 0.333715
0.671687 0.546258 0.343877
0.678706 0.552239 0.348272
0.187930 0.337621 0.328252
0.190951 0.343450 0.333318
0.208499 0.376989 0.356939
0.228458 0.413184 0.370642
0.264500 0.440589 0.334722
0.377478 0.473213 0.297215
0.484947 0.495888 0.292790
0.567559 0.517769 0.306981
0.611399 0.533394 0.329015
0.641505 0.541344 0.333684
0.662287 0.552789 0.341009
0.674800 0.565728 0.352941
0.681941 0.576501 0.357763
0.690181 0.587579 0.362570
0.699489 0.599786 0.377493
0.705440 0.608667 0.399283
0.708736 0.615290 0.418112
0.205570 0.370611 0.365545
0.207706 0.375036 0.369055
0.218387 0.397253 0.386755
0.240604 0.439918 0.411414
0.262089 0.470039 0.397421
0.329549 0.503899 0.348287
0.474205 0.538872 0.316625
0.568399 0.560479 0.342626
0.633082 0.583398 0.368505
0.674891 0.604120 0.392538
0.694850 0.618112 0.399725
0.706844 0.629923 0.411704
0.710933 0.637140 0.424491
0.714473 0.644892 0.436881
0.718685 0.652979 0.461509
0.721614 0.661677 0.496818
0.723751 0.667445 0.520943
0.223331 0.401923 0.400732
0.224826 0.404944 0.403052
0.231968 0.419471 0.414466
0.252201 0.458778 0.445624
0.266911 0.496223 0.450904
0.305379 0.538720 0.401663
0.440635 0.579309 0.366369
0.567849 0.605859 0.374792
0.648157 0.626673 0.411810
0.691737 0.651087 0.455497
0.715297 0.670863 0.496727
0.724239 0.679805 0.509865
0.725826 0.682765 0.524758
0.727138 0.687953 0.546334
0.729183 0.695613 0.578653
0.731167 0.702907 0.612406
0.732509 0.708186 0.632151
0.239200 0.429480 0.430976
0.240421 0.431861 0.433051
0.246128 0.442847 0.442664
0.264530 0.478340 0.471901
0.280797 0.515526 0.489906
0.301885 0.564691 0.467765
0.403037 0.613214 0.421515
0.561318 0.642115 0.415503
0.649836 0.659937 0.453040
0.698329 0.680018 0.517098
0.724361 0.700893 0.577035
0.732418 0.713222 0.619516
0.734401 0.715816 0.630503
0.736263 0.721279 0.650462
0.739071 0.726772 0.672999
0.741756 0.732174 0.690455
0.743343 0.735317 0.701076
0.254063 0.454841 0.458686
0.255131 0.456977 0.460395
0.260227 0.466621 0.468879
0.278386 0.500084 0.498787
0.296971 0.538018 0.527764
0.311742 0.579126 0.529229
0.364340 0.642298 0.497932
0.535653 0.666316 0.480598
0.643381 0.683528 0.508598
0.703395 0.702754 0.566476
0.729488 0.722469 0.642161
0.739712 0.732235 0.680385
0.744411 0.738155 0.700282
0.747372 0.743465 0.715663
0.750271 0.747677 0.724788
0.752438 0.750484 0.731563
0.753689 0.752071 0.735470
0.269352 0.480995 0.486946
0.270451 0.483131 0.488594
0.276402 0.493996 0.498207
0.293431 0.524681 0.528252
0.315801 0.568353 0.568536
0.334691 0.607630 0.588159
0.378668 0.650752 0.571923
0.507210 0.678614 0.558404
0.639887 0.697047 0.589410
0.700099 0.715846 0.628092
0.733669 0.734493 0.686336
0.748104 0.746120 0.721340
0.753658 0.751919 0.734432
0.756832 0.755734 0.743038
0.757046 0.756771 0.745937
0.757290 0.757290 0.747433
0.757534 0.757534 0.748165
0.287144 0.511284 0.519310
0.288151 0.513207 0.520989
0.294316 0.524559 0.531975
0.312718 0.558801 0.566705
0.340398 0.607477 0.611749
0.370611 0.642451 0.634302
0.419120 0.668513 0.628351
0.534920 0.691798 0.641840
0.658976 0.712978 0.669581
0.713680 0.732113 0.703639
0.740932 0.745907 0.725063
0.754025 0.754818 0.741421
0.756924 0.756802 0.746639
0.757687 0.758022 0.749447
0.757992 0.758602 0.751034
0.758175 0.758694 0.751308
0.758206 0.758877 0.751705
0.301274 0.536004 0.546471
0.302464 0.538231 0.548730
0.310674 0.553582 0.564355
0.331945 0.592950 0.602594
0.361883 0.632166 0.638514
0.397528 0.656458 0.652308
0.474113 0.681575 0.662867
0.587839 0.704189 0.676234
0.678614 0.724086 0.702144
0.725582 0.740322 0.720394
0.746242 0.750973 0.736507
0.755642 0.756527 0.745693
0.757321 0.757443 0.748989
0.757900 0.758480 0.751247
0.758114 0.758938 0.751980
0.758206 0.759121 0.752163
0.758206 0.759121 0.752163
0.309575 0.551415 0.562707
0.310979 0.554101 0.565393
0.320775 0.570855 0.582177
0.344701 0.611261 0.621576
0.372930 0.641657 0.646967
0.415900 0.664302 0.660151
0.522499 0.693507 0.676631
0.625177 0.713375 0.694453
0.697108 0.730617 0.714839
0.730251 0.744381 0.729976
0.748012 0.752682 0.740047
0.756100 0.756741 0.746456
0.757473 0.757717 0.749538
0.757992 0.758694 0.751736
0.758206 0.759121 0.752132
0.758206 0.759121 0.752163
0.758206 0.759121 0.752163
0.032227 0.033478 0.034882
0.036225 0.035737 0.037690
0.082582 0.056397 0.046448
0.141848 0.084535 0.052979
0.189151 0.107881 0.052247
0.229557 0.130556 0.052033
0.263066 0.152163 0.059113
0.288090 0.165072 0.064179
0.309239 0.174594 0.068208
0.330999 0.184146 0.072297
0.347417 0.191257 0.075380
0.362097 0.197116 0.078004
0.378088 0.204654 0.081147
0.396948 0.213138 0.084749
0.415381 0.222599 0.088563
0.426673 0.228122 0.090822
0.430457 0.230106 0.091646
0.034241 0.038636 0.040070
0.038025 0.040589 0.041749
0.086061 0.061677 0.049195
0.146609 0.091524 0.054994
0.196323 0.123079 0.057099
0.237888 0.147280 0.058412
0.271550 0.162722 0.062531
0.296300 0.173373 0.066926
0.321050 0.184695 0.071687
0.339666 0.193149 0.075257
0.356420 0.200076 0.078309
0.372442 0.206668 0.081239
0.391089 0.215396 0.084871
0.408911 0.223331 0.088258
0.426307 0.231296 0.091615
0.437934 0.236851 0.093935
0.441901 0.238865 0.094728
0.045197 0.074708 0.071260
0.049958 0.079896 0.075105
0.114199 0.117556 0.089113
0.187167 0.145357 0.087282
0.230594 0.164187 0.083101
0.269810 0.178286 0.077211
0.302892 0.190219 0.073518
0.328771 0.201328 0.078859
0.349248 0.209934 0.080720
0.367102 0.217960 0.083711
0.388403 0.226993 0.087648
0.406226 0.234470 0.090913
0.422858 0.241276 0.093904
0.438697 0.248631 0.096986
0.456764 0.258152 0.101656
0.470893 0.266667 0.106752
0.475593 0.269688 0.108186
0.070436 0.126558 0.126375
0.075837 0.136782 0.133242
0.117678 0.166629 0.142000
0.208194 0.197910 0.117128
0.260197 0.210941 0.111849
0.303655 0.222995 0.111696
0.341985 0.233433 0.107607
0.371252 0.243290 0.107393
0.396185 0.248173 0.098207
0.413397 0.255467 0.101076
0.433417 0.263096 0.102815
0.452277 0.271489 0.107118
0.466041 0.277470 0.108186
0.479500 0.284733 0.111299
0.495796 0.296971 0.121798
0.510582 0.309270 0.134096
0.515587 0.313542 0.138491
0.096315 0.175418 0.171786
0.102968 0.187716 0.182254
0.136324 0.218021 0.192355
0.205600 0.237705 0.169223
0.292973 0.264866 0.151339
0.343542 0.275822 0.159274
0.383612 0.287297 0.156832
0.418067 0.295628 0.154482
0.443549 0.301152 0.147036
0.464790 0.304356 0.141543
0.483192 0.309056 0.136690
0.500938 0.317571 0.139284
0.509392 0.324437 0.144594
0.521477 0.333410 0.152041
0.536187 0.346105 0.166079
0.547204 0.356603 0.179660
0.553857 0.362921 0.188907
0.121492 0.219638 0.212680
0.127504 0.230289 0.221347
0.153597 0.264988 0.240330
0.203738 0.281041 0.220706
0.305211 0.316197 0.181857
0.379980 0.333165 0.198825
0.425849 0.343481 0.200717
0.460670 0.352178 0.202884
0.491737 0.359838 0.203220
0.518303 0.367010 0.202609
0.534203 0.369909 0.201114
0.545678 0.372564 0.196841
0.556298 0.379461 0.198642
0.564080 0.387579 0.203983
0.575341 0.400580 0.219455
0.586786 0.414832 0.237308
0.592523 0.420539 0.246738
0.146395 0.262730 0.255070
0.151400 0.271702 0.261112
0.174075 0.310857 0.284123
0.211643 0.333837 0.268345
0.293736 0.360723 0.227726
0.393103 0.387549 0.220981
0.465461 0.405371 0.238132
0.504173 0.412573 0.249699
0.536736 0.418341 0.254612
0.562982 0.424201 0.256382
0.577996 0.428931 0.258030
0.589227 0.435279 0.258488
0.599298 0.443244 0.261326
0.606378 0.450629 0.265415
0.616480 0.464576 0.279667
0.629786 0.478492 0.293370
0.635737 0.483497 0.298283
0.170352 0.304967 0.294469
0.174472 0.312566 0.298070
0.194278 0.349035 0.319982
0.220066 0.381781 0.319036
0.279088 0.402838 0.280583
0.399115 0.436164 0.244297
0.480552 0.453803 0.269047
0.541421 0.469795 0.281865
0.575265 0.473121 0.291661
0.601038 0.480232 0.299901
0.619928 0.488838 0.306035
0.632044 0.497780 0.307347
0.641260 0.508965 0.313237
0.649592 0.521477 0.323827
0.657771 0.532128 0.332891
0.672267 0.544305 0.343328
0.679438 0.550713 0.347967
0.189853 0.340764 0.335088
0.192813 0.346563 0.339452
0.208774 0.377386 0.362982
0.227665 0.412177 0.375189
0.260533 0.439307 0.344396
0.363500 0.469551 0.305303
0.476997 0.494179 0.292393
0.562448 0.516579 0.308721
0.609201 0.532570 0.330877
0.641443 0.540368 0.333989
0.662318 0.551781 0.341314
0.674922 0.564263 0.352483
0.681819 0.574975 0.357397
0.690059 0.585809 0.361837
0.699641 0.598260 0.377646
0.705653 0.608454 0.401358
0.708980 0.615106 0.420157
0.207431 0.373724 0.372015
0.209445 0.377905 0.375036
0.220035 0.399634 0.392187
0.240116 0.437842 0.415778
0.259464 0.467994 0.407675
0.313222 0.501457 0.357687
0.460746 0.536492 0.324559
0.562051 0.559564 0.345006
0.631189 0.582971 0.370092
0.674159 0.603723 0.393835
0.694697 0.617960 0.401404
0.706966 0.629252 0.412253
0.710933 0.637079 0.425010
0.714473 0.644526 0.437217
0.718654 0.652522 0.461723
0.721736 0.661677 0.498741
0.723934 0.667475 0.522957
0.225650 0.404486 0.406744
0.227085 0.407324 0.409247
0.234287 0.422065 0.420539
0.252201 0.457496 0.448890
0.267399 0.495277 0.455787
0.302251 0.535851 0.411215
0.428092 0.578180 0.373419
0.563241 0.606622 0.376623
0.646784 0.626947 0.413703
0.690791 0.651301 0.457145
0.715175 0.671077 0.497917
0.724239 0.679896 0.510628
0.725856 0.682826 0.525399
0.727108 0.687922 0.546609
0.729152 0.695521 0.579263
0.731136 0.702846 0.612680
0.732479 0.708186 0.632517
0.241245 0.432135 0.435950
0.242313 0.434272 0.437720
0.248051 0.445319 0.447425
0.264469 0.477119 0.473335
0.281468 0.514733 0.494118
0.299351 0.562188 0.475731
0.392355 0.613275 0.428901
0.557412 0.642969 0.418128
0.647227 0.660365 0.454597
0.697627 0.680171 0.517555
0.724330 0.701076 0.577585
0.732448 0.713344 0.619974
0.734432 0.715877 0.630701
0.736263 0.721248 0.650553
0.739071 0.726772 0.673030
0.741726 0.732052 0.689967
0.743313 0.735225 0.700710
0.256016 0.457313 0.463264
0.256931 0.459144 0.464637
0.261936 0.468696 0.472847
0.278386 0.499214 0.499763
0.297520 0.537255 0.530694
0.310521 0.576288 0.535607
0.360983 0.640620 0.502556
0.528878 0.666438 0.484749
0.641489 0.683650 0.510155
0.702846 0.702754 0.566079
0.729366 0.722438 0.641978
0.739712 0.732235 0.680446
0.744381 0.738125 0.700160
0.747311 0.743374 0.715511
0.750271 0.747677 0.724788
0.752438 0.750515 0.731502
0.753689 0.752102 0.735470
0.271305 0.483497 0.491188
0.272160 0.485359 0.492409
0.277836 0.495857 0.501457
0.293431 0.523980 0.528832
0.316045 0.568383 0.569482
0.335912 0.608392 0.590997
0.377447 0.649439 0.575860
0.504585 0.678614 0.561181
0.639155 0.696986 0.590875
0.699458 0.715663 0.627939
0.733608 0.734401 0.685939
0.748043 0.746029 0.721187
0.753597 0.751858 0.734340
0.756741 0.755642 0.742885
0.757046 0.756771 0.745907
0.757290 0.757321 0.747494
0.757534 0.757565 0.748226
0.288914 0.513787 0.523278
0.289677 0.515343 0.524468
0.295415 0.526055 0.534508
0.312688 0.558434 0.566857
0.340795 0.607446 0.612329
0.371435 0.642817 0.635340
0.419699 0.668116 0.630945
0.533394 0.691951 0.643244
0.658793 0.713130 0.670344
0.713619 0.732082 0.703578
0.740810 0.745785 0.724788
0.754025 0.754696 0.741054
0.756924 0.756771 0.746487
0.757687 0.758022 0.749355
0.757961 0.758541 0.750912
0.758175 0.758694 0.751278
0.758175 0.758877 0.751675
0.303166 0.539178 0.550530
0.304234 0.541222 0.552483
0.311589 0.555169 0.566339
0.332067 0.592401 0.602472
0.362493 0.632929 0.639460
0.397345 0.656245 0.652216
0.472313 0.681147 0.662165
0.586496 0.703822 0.675258
0.677577 0.723781 0.701625
0.725399 0.740078 0.719905
0.746242 0.750881 0.736233
0.755673 0.756527 0.745663
0.757321 0.757443 0.748959
0.757870 0.758480 0.751217
0.758114 0.758938 0.751980
0.758206 0.759121 0.752163
0.758206 0.759121 0.752163
0.311345 0.554589 0.566491
0.312657 0.557122 0.568933
0.321935 0.573022 0.584497
0.344610 0.610315 0.621149
0.373266 0.641871 0.647242
0.415351 0.664179 0.660029
0.521096 0.693202 0.676143
0.624308 0.713191 0.694118
0.696315 0.730404 0.714534
0.730220 0.744259 0.729671
0.748043 0.752682 0.740017
0.756100 0.756741 0.746426
0.757473 0.757717 0.749538
0.757992 0.758663 0.751705
0.758206 0.759121 0.752132
0.758206 0.759121 0.752163
0.758206 0.759121 0.752163
0.032441 0.036652 0.045014
0.036561 0.039185 0.049805
0.073671 0.055543 0.064485
0.149355 0.081605 0.083742
0.211063 0.107729 0.094179
0.263188 0.129732 0.098421
0.290684 0.152163 0.099672
0.314305 0.162905 0.098543
0.331090 0.170779 0.097414
0.344671 0.176883 0.095552
0.356695 0.181491 0.093477
0.368292 0.184451 0.091890
0.382513 0.188449 0.092805
0.393957 0.194003 0.090730
0.412360 0.203189 0.091768
0.424384 0.209445 0.091890
0.430091 0.212680 0.093111
0.035157 0.044129 0.055299
0.039399 0.046601 0.058198
0.079469 0.062654 0.077607
0.162051 0.091585 0.094087
0.218936 0.120211 0.094026
0.263554 0.143893 0.085756
0.295933 0.157382 0.082338
0.318303 0.167300 0.088014
0.332036 0.174746 0.084474
0.342687 0.179599 0.084016
0.353338 0.183291 0.082155
0.365789 0.186252 0.082399
0.377325 0.191409 0.081514
0.389227 0.196902 0.081147
0.409644 0.206668 0.084047
0.427314 0.215030 0.087526
0.435279 0.220218 0.091737
0.050782 0.082216 0.093111
0.057282 0.089418 0.099580
0.090974 0.100862 0.102174
0.174868 0.132143 0.098482
0.233127 0.155245 0.092561
0.274418 0.171786 0.090547
0.307378 0.181765 0.085908
0.332036 0.190372 0.085725
0.349004 0.194400 0.076875
0.364874 0.201297 0.080415
0.377325 0.205600 0.081331
0.391882 0.210544 0.083711
0.402228 0.214450 0.085512
0.419409 0.223575 0.089143
0.442481 0.236027 0.096651
0.463722 0.246647 0.102785
0.475013 0.255131 0.114870
0.075502 0.132601 0.142763
0.081971 0.144198 0.153750
0.111696 0.164736 0.159701
0.184634 0.182467 0.139895
0.262150 0.199588 0.127260
0.304356 0.214481 0.127138
0.343206 0.225986 0.123445
0.370245 0.232090 0.113161
0.393347 0.235599 0.104433
0.406378 0.238651 0.100252
0.421210 0.242588 0.096284
0.439216 0.250278 0.099153
0.448676 0.254185 0.099214
0.463203 0.260777 0.102205
0.485084 0.275212 0.115450
0.503380 0.288823 0.130068
0.512963 0.297215 0.143313
0.100954 0.180789 0.186770
0.107881 0.193515 0.198154
0.130282 0.217807 0.214725
0.179477 0.223484 0.195956
0.280522 0.255222 0.160494
0.334112 0.264195 0.164492
0.380743 0.275059 0.165103
0.415839 0.283543 0.162264
0.441352 0.288762 0.153994
0.459785 0.290501 0.141573
0.475410 0.291234 0.129305
0.490272 0.296849 0.129122
0.499947 0.303990 0.137148
0.510582 0.310887 0.140597
0.526848 0.325505 0.157809
0.542443 0.339544 0.176333
0.552331 0.348516 0.190433
0.126589 0.225620 0.231662
0.132631 0.236332 0.240726
0.150851 0.266209 0.259861
0.187381 0.278721 0.248539
0.268467 0.294957 0.212039
0.365545 0.322515 0.200107
0.423011 0.333013 0.209140
0.459236 0.341741 0.211185
0.489937 0.348119 0.209781
0.511833 0.351202 0.199771
0.528038 0.353460 0.197086
0.539513 0.355230 0.191409
0.549310 0.361486 0.192752
0.555566 0.368475 0.194614
0.568963 0.383032 0.213748
0.586572 0.401617 0.238560
0.593835 0.408301 0.249638
0.151431 0.269139 0.271824
0.157076 0.278904 0.280644
0.177554 0.315465 0.304753
0.198947 0.332006 0.299687
0.257450 0.341680 0.261082
0.377997 0.378363 0.222599
0.454414 0.395209 0.243503
0.500359 0.402106 0.248264
0.532158 0.406378 0.255283
0.559625 0.411780 0.257420
0.575708 0.417487 0.258549
0.588220 0.423743 0.260075
0.597040 0.429328 0.259129
0.604852 0.437568 0.263615
0.615351 0.453956 0.277958
0.633722 0.470314 0.292943
0.641840 0.479011 0.303807
0.175326 0.312016 0.311406
0.179049 0.319402 0.317113
0.197421 0.354406 0.342077
0.213291 0.379126 0.344884
0.256565 0.396368 0.303502
0.364294 0.426764 0.263462
0.461173 0.447883 0.268162
0.535363 0.464485 0.279942
0.572473 0.467720 0.290532
0.602106 0.472419 0.298863
0.621393 0.481666 0.305699
0.633692 0.491005 0.305638
0.642023 0.502861 0.312566
0.649470 0.513909 0.322759
0.659022 0.524681 0.332311
0.676783 0.538720 0.343267
0.683894 0.546639 0.354437
0.194369 0.348058 0.351476
0.197360 0.353918 0.355962
0.213382 0.385779 0.380896
0.228458 0.413550 0.389258
0.252567 0.438758 0.369085
0.328344 0.461891 0.326665
0.455299 0.491524 0.295323
0.544228 0.513863 0.315831
0.603098 0.531289 0.337011
0.640528 0.538872 0.337881
0.663630 0.549874 0.344152
0.676265 0.559853 0.351659
0.682918 0.571420 0.359228
0.692195 0.581201 0.361837
0.701320 0.593591 0.382406
0.707607 0.605722 0.413169
0.712245 0.614481 0.433463
0.213626 0.381170 0.388556
0.215824 0.385321 0.392279
0.227726 0.409155 0.410803
0.241794 0.437385 0.431220
0.257053 0.466651 0.430457
0.298253 0.497658 0.386404
0.421164 0.531182 0.350072
0.542733 0.558740 0.353918
0.625544 0.582513 0.377478
0.670283 0.604761 0.406119
0.695338 0.619974 0.411399
0.708247 0.628244 0.418418
0.711940 0.636591 0.429465
0.715663 0.645258 0.443534
0.719142 0.653620 0.473350
0.722927 0.663783 0.515877
0.724361 0.670222 0.540993
0.231296 0.411566 0.420356
0.232761 0.414435 0.422889
0.241459 0.430793 0.438361
0.255650 0.459449 0.460334
0.269780 0.492592 0.472908
0.293492 0.528405 0.445975
0.382071 0.574914 0.402197
0.546212 0.609461 0.388373
0.636103 0.629664 0.426337
0.687739 0.654078 0.468376
0.715602 0.674617 0.508217
0.724666 0.682185 0.520821
0.726253 0.684627 0.534401
0.727535 0.689967 0.555550
0.729671 0.697505 0.591775
0.731594 0.704707 0.621775
0.732876 0.709865 0.640482
0.247288 0.439948 0.450599
0.248295 0.441993 0.452277
0.254215 0.452979 0.462135
0.267704 0.478553 0.483803
0.284520 0.512535 0.508782
0.296452 0.551781 0.506310
0.353964 0.613489 0.461646
0.526802 0.646021 0.440467
0.636545 0.663874 0.466316
0.695766 0.683040 0.524910
0.725155 0.704067 0.586984
0.732998 0.715419 0.627756
0.735073 0.718227 0.639033
0.737148 0.723110 0.657084
0.740169 0.728908 0.679591
0.742458 0.733547 0.693507
0.743923 0.736538 0.702968
0.262425 0.465217 0.478035
0.263371 0.467109 0.479500
0.268620 0.477119 0.488045
0.281041 0.500725 0.508324
0.299748 0.537102 0.539117
0.313817 0.576898 0.553155
0.355200 0.633112 0.528161
0.498405 0.668238 0.509514
0.632364 0.685603 0.525200
0.701320 0.704799 0.571389
0.729854 0.724147 0.648753
0.740749 0.733944 0.686275
0.744930 0.739254 0.703853
0.748074 0.744472 0.717891
0.751278 0.749142 0.727871
0.753231 0.751766 0.733730
0.754360 0.753292 0.737148
0.277775 0.492195 0.505486
0.278782 0.494087 0.506950
0.284489 0.504631 0.516014
0.295018 0.524651 0.534325
0.318395 0.570703 0.576226
0.343359 0.614374 0.606165
0.377111 0.649042 0.598810
0.494224 0.679805 0.583185
0.637903 0.699062 0.611780
0.698085 0.716762 0.635523
0.734646 0.735775 0.690700
0.748653 0.747005 0.723629
0.754208 0.752743 0.736385
0.756527 0.755550 0.743099
0.757198 0.756893 0.746670
0.757382 0.757321 0.747860
0.757626 0.757656 0.748806
0.295476 0.523766 0.537438
0.296269 0.525353 0.538811
0.301762 0.535912 0.548455
0.312047 0.555505 0.567193
0.343908 0.611048 0.619593
0.376318 0.645106 0.642420
0.426383 0.669276 0.644709
0.543862 0.694545 0.653437
0.661723 0.716670 0.683803
0.716121 0.734066 0.708522
0.742275 0.746670 0.726345
0.754147 0.754330 0.740078
0.757015 0.756741 0.746120
0.757626 0.757748 0.748989
0.757839 0.758206 0.750301
0.758022 0.758450 0.750820
0.758083 0.758724 0.751400
0.310796 0.552605 0.566735
0.311864 0.554681 0.568689
0.319524 0.568170 0.581750
0.331029 0.587640 0.600336
0.365240 0.635340 0.642451
0.401984 0.657404 0.654200
0.473259 0.681666 0.663020
0.589975 0.704494 0.675502
0.679408 0.724514 0.702785
0.727779 0.740810 0.720668
0.747341 0.751339 0.736385
0.755947 0.756527 0.745480
0.757351 0.757504 0.748653
0.757778 0.758206 0.750576
0.758022 0.758694 0.751461
0.758114 0.758877 0.751705
0.758144 0.758938 0.751858
0.320775 0.570550 0.584680
0.322271 0.573266 0.587182
0.331395 0.589380 0.602411
0.344121 0.608118 0.620386
0.376410 0.643427 0.649195
0.422858 0.666194 0.662104
0.520790 0.693080 0.675624
0.624125 0.712856 0.691035
0.696162 0.730098 0.713436
0.731655 0.743832 0.727321
0.749294 0.752865 0.739315
0.756344 0.756741 0.746303
0.757534 0.757839 0.749386
0.757900 0.758450 0.751156
0.758114 0.758938 0.751827
0.758144 0.758999 0.751980
0.758175 0.759030 0.751980
0.029114 0.040284 0.063142
0.032654 0.042420 0.068086
0.072267 0.059510 0.099794
0.140261 0.082948 0.128664
0.218936 0.109071 0.133730
0.276524 0.129854 0.137606
0.316960 0.151492 0.146822
0.352941 0.166476 0.145602
0.367987 0.175540 0.143557
0.381933 0.179294 0.142702
0.395331 0.181643 0.140322
0.409094 0.184146 0.139315
0.423224 0.186862 0.137575
0.435462 0.191257 0.135164
