lut-uploads/FujiColor 200_VS.cube
# (C) 2014 VisionColor & Patchflyer [www.vision-color.com]
# Generator: VC Patchmatch v.2.1.1 [64/53]
# All work and no play makes Jack a dull boy.
# LUT generated from: FujiColor 200_VisionSpace
LUT_3D_SIZE 9
0.032197 0.033112 0.033661
0.081605 0.056031 0.043061
0.184634 0.109804 0.054963
0.259129 0.159091 0.060517
0.309361 0.184756 0.070802
0.354528 0.206027 0.079683
0.387182 0.217655 0.085176
0.423377 0.232975 0.091829
0.436713 0.240177 0.094667
0.042542 0.070527 0.062776
0.127321 0.127382 0.079194
0.230533 0.170016 0.080140
0.302525 0.196414 0.075074
0.352941 0.218265 0.083375
0.392340 0.234562 0.089967
0.426337 0.248753 0.096101
0.462867 0.268009 0.105623
0.478859 0.277867 0.111604
0.094636 0.173495 0.166018
0.142977 0.220798 0.183597
0.299657 0.268986 0.150515
0.385840 0.291966 0.153079
0.444984 0.306493 0.144930
0.486305 0.315801 0.139773
0.514153 0.331945 0.148470
0.539544 0.353155 0.169162
0.554253 0.367407 0.188418
0.143618 0.259220 0.245060
0.177829 0.313085 0.276707
0.311772 0.368597 0.214847
0.469551 0.408423 0.239048
0.538445 0.422583 0.254734
0.578973 0.433112 0.258152
0.600153 0.446479 0.262516
0.616785 0.466987 0.280247
0.634791 0.485481 0.298589
0.187930 0.337621 0.328252
0.208499 0.376989 0.356939
0.264500 0.440589 0.334722
0.484947 0.495888 0.292790
0.611399 0.533394 0.329015
0.662287 0.552789 0.341009
0.681941 0.576501 0.357763
0.699489 0.599786 0.377493
0.708736 0.615290 0.418112
0.223331 0.401923 0.400732
0.231968 0.419471 0.414466
0.266911 0.496223 0.450904
0.440635 0.579309 0.366369
0.648157 0.626673 0.411810
0.715297 0.670863 0.496727
0.725826 0.682765 0.524758
0.729183 0.695613 0.578653
0.732509 0.708186 0.632151
0.254063 0.454841 0.458686
0.260227 0.466621 0.468879
0.296971 0.538018 0.527764
0.364340 0.642298 0.497932
0.643381 0.683528 0.508598
0.729488 0.722469 0.642161
0.744411 0.738155 0.700282
0.750271 0.747677 0.724788
0.753689 0.752071 0.735470
0.287144 0.511284 0.519310
0.294316 0.524559 0.531975
0.340398 0.607477 0.611749
0.419120 0.668513 0.628351
0.658976 0.712978 0.669581
0.740932 0.745907 0.725063
0.756924 0.756802 0.746639
0.757992 0.758602 0.751034
0.758206 0.758877 0.751705
0.309575 0.551415 0.562707
0.320775 0.570855 0.582177
0.372930 0.641657 0.646967
0.522499 0.693507 0.676631
0.697108 0.730617 0.714839
0.748012 0.752682 0.740047
0.757473 0.757717 0.749538
0.758206 0.759121 0.752132
0.758206 0.759121 0.752163
0.032441 0.036652 0.045014
0.073671 0.055543 0.064485
0.211063 0.107729 0.094179
0.290684 0.152163 0.099672
0.331090 0.170779 0.097414
0.356695 0.181491 0.093477
0.382513 0.188449 0.092805
0.412360 0.203189 0.091768
0.430091 0.212680 0.093111
0.050782 0.082216 0.093111
0.090974 0.100862 0.102174
0.233127 0.155245 0.092561
0.307378 0.181765 0.085908
0.349004 0.194400 0.076875
0.377325 0.205600 0.081331
0.402228 0.214450 0.085512
0.442481 0.236027 0.096651
0.475013 0.255131 0.114870
0.100954 0.180789 0.186770
0.130282 0.217807 0.214725
0.280522 0.255222 0.160494
0.380743 0.275059 0.165103
0.441352 0.288762 0.153994
0.475410 0.291234 0.129305
0.499947 0.303990 0.137148
0.526848 0.325505 0.157809
0.552331 0.348516 0.190433
0.151431 0.269139 0.271824
0.177554 0.315465 0.304753
0.257450 0.341680 0.261082
0.454414 0.395209 0.243503
0.532158 0.406378 0.255283
0.575708 0.417487 0.258549
0.597040 0.429328 0.259129
0.615351 0.453956 0.277958
0.641840 0.479011 0.303807
0.194369 0.348058 0.351476
0.213382 0.385779 0.380896
0.252567 0.438758 0.369085
0.455299 0.491524 0.295323
0.603098 0.531289 0.337011
0.663630 0.549874 0.344152
0.682918 0.571420 0.359228
0.701320 0.593591 0.382406
0.712245 0.614481 0.433463
0.231296 0.411566 0.420356
0.241459 0.430793 0.438361
0.269780 0.492592 0.472908
0.382071 0.574914 0.402197
0.636103 0.629664 0.426337
0.715602 0.674617 0.508217
0.726253 0.684627 0.534401
0.729671 0.697505 0.591775
0.732876 0.709865 0.640482
0.262425 0.465217 0.478035
0.268620 0.477119 0.488045
0.299748 0.537102 0.539117
0.355200 0.633112 0.528161
0.632364 0.685603 0.525200
0.729854 0.724147 0.648753
0.744930 0.739254 0.703853
0.751278 0.749142 0.727871
0.754360 0.753292 0.737148
0.295476 0.523766 0.537438
0.301762 0.535912 0.548455
0.343908 0.611048 0.619593
0.426383 0.669276 0.644709
0.661723 0.716670 0.683803
0.742275 0.746670 0.726345
0.757015 0.756741 0.746120
0.757839 0.758206 0.750301
0.758083 0.758724 0.751400
0.320775 0.570550 0.584680
0.331395 0.589380 0.602411
0.376410 0.643427 0.649195
0.520790 0.693080 0.675624
0.696162 0.730098 0.713436
0.749294 0.752865 0.739315
0.757534 0.757839 0.749386
0.758114 0.758938 0.751827
0.758175 0.759030 0.751980
0.032410 0.048005 0.077455
0.078035 0.069459 0.126040
0.202670 0.112093 0.176394
0.321019 0.147463 0.185885
0.389410 0.174929 0.188571
0.426703 0.180911 0.184878
0.447150 0.185458 0.184207
0.486091 0.196231 0.188846
0.511009 0.209995 0.200687
0.059998 0.105531 0.130587
0.072541 0.108370 0.143954
0.230320 0.151858 0.212558
0.371130 0.176822 0.192447
0.441871 0.183627 0.175692
0.451881 0.186160 0.163912
0.465980 0.190127 0.159365
0.509239 0.211917 0.171328
0.557061 0.234409 0.199039
0.109285 0.193881 0.216587
0.135409 0.225406 0.251896
0.222660 0.224613 0.224399
0.387060 0.248539 0.202213
0.456825 0.254002 0.184482
0.473091 0.254887 0.161135
0.492897 0.259922 0.146059
0.524956 0.283665 0.170474
0.575616 0.321233 0.227970
0.162173 0.282719 0.306127
0.189578 0.332372 0.353033
0.226810 0.339208 0.332067
0.415320 0.367895 0.264225
0.538323 0.379797 0.260471
0.576776 0.383368 0.249088
0.588159 0.392950 0.246128
0.620691 0.421332 0.272404
0.664637 0.458991 0.316655
0.207767 0.364813 0.384649
0.229252 0.404089 0.421881
0.251225 0.444495 0.419989
0.395911 0.479759 0.336645
0.590951 0.523354 0.340139
0.663142 0.538155 0.345296
0.684810 0.558358 0.360143
0.704067 0.583017 0.398947
0.713130 0.612100 0.475578
0.241886 0.425025 0.446876
0.253086 0.445472 0.467414
0.280003 0.500481 0.506645
0.336080 0.573297 0.450675
0.605661 0.632593 0.451209
0.713100 0.678553 0.537209
0.727535 0.690486 0.562875
0.731228 0.703609 0.624918
0.733577 0.712612 0.655726
0.273136 0.480140 0.503136
0.279728 0.492042 0.513390
0.307561 0.546410 0.560845
0.341863 0.615595 0.589075
0.600656 0.691157 0.579339
0.731289 0.729305 0.669200
0.748379 0.744533 0.718227
0.753506 0.752132 0.734432
0.755093 0.754330 0.739620
0.308629 0.546166 0.565698
0.315679 0.559747 0.578698
0.353063 0.619471 0.631189
0.450080 0.674403 0.663203
0.657664 0.720119 0.697780
0.745541 0.748867 0.730617
0.756741 0.756436 0.745754
0.757626 0.757595 0.749233
0.757626 0.757656 0.749355
0.340124 0.600946 0.617761
0.348760 0.613001 0.628473
0.378302 0.644526 0.652674
0.508217 0.690059 0.674769
0.695125 0.729915 0.713191
0.751186 0.753170 0.738460
0.757443 0.757321 0.748501
0.757656 0.757687 0.749386
0.757656 0.757717 0.749447
0.034760 0.058137 0.098573
0.061799 0.077424 0.149783
0.169100 0.116030 0.225711
0.288731 0.151339 0.248753
0.381842 0.175540 0.259709
0.429877 0.186465 0.262943
0.459022 0.189212 0.260990
0.496986 0.197513 0.268589
0.526757 0.210849 0.278813
0.064942 0.120912 0.154421
0.067079 0.115724 0.159335
0.161074 0.148379 0.255131
0.325200 0.177737 0.287816
0.420172 0.192813 0.280552
0.458137 0.194949 0.268254
0.480781 0.192508 0.258640
0.533715 0.212253 0.270542
0.578271 0.234012 0.289372
0.109346 0.198917 0.230106
0.125216 0.216861 0.253727
0.166629 0.210788 0.255894
0.333623 0.239353 0.315679
0.477211 0.242161 0.298039
0.549798 0.233890 0.275883
0.568902 0.230747 0.253483
0.626917 0.258000 0.272496
0.671748 0.300664 0.314977
0.172763 0.297612 0.333410
0.202060 0.347204 0.387488
0.226352 0.347845 0.388708
0.333654 0.328222 0.344396
0.525902 0.335332 0.311254
0.612970 0.325261 0.278752
0.621210 0.326452 0.259709
0.663325 0.371008 0.291325
0.699855 0.438605 0.370260
0.219913 0.381201 0.413886
0.240360 0.418097 0.451637
0.259464 0.453407 0.475471
0.340246 0.455589 0.430823
0.534585 0.497215 0.396902
0.658351 0.503548 0.358694
0.681392 0.505989 0.340139
0.705226 0.545037 0.404044
0.708583 0.589212 0.500801
0.250584 0.438697 0.469520
0.262089 0.458808 0.491524
0.290806 0.511406 0.535637
0.325200 0.565667 0.508385
0.567178 0.626429 0.464973
0.699489 0.668620 0.542519
0.725917 0.680842 0.559762
0.729183 0.698940 0.632853
0.732052 0.709529 0.665110
0.283024 0.495186 0.524865
0.289555 0.507164 0.535027
0.319005 0.563928 0.587396
0.354711 0.623743 0.620630
0.552956 0.691005 0.612696
0.729244 0.732265 0.682963
0.751644 0.748745 0.727443
0.756313 0.755611 0.742824
0.756954 0.756558 0.745724
0.320653 0.566125 0.590661
0.328344 0.579644 0.603052
0.366522 0.633722 0.648463
0.458000 0.676478 0.673274
0.658640 0.721553 0.702358
0.747646 0.751827 0.737850
0.757473 0.757626 0.748928
0.757778 0.758053 0.750118
0.757778 0.758022 0.750057
0.348089 0.612024 0.632319
0.349584 0.613947 0.633844
0.379370 0.644038 0.655970
0.502358 0.687861 0.681147
0.696986 0.731563 0.717250
0.754177 0.755764 0.744045
0.757656 0.757778 0.749660
0.757778 0.758022 0.750057
0.757778 0.757992 0.749996
0.039857 0.073762 0.123568
0.057191 0.091737 0.157717
0.131594 0.121248 0.246891
0.255131 0.153323 0.288212
0.352331 0.177859 0.301183
0.413245 0.192966 0.309056
0.450568 0.200046 0.310430
0.492927 0.209079 0.317906
0.519768 0.219394 0.327977
0.068513 0.133089 0.174990
0.065217 0.125734 0.175265
0.112032 0.147860 0.241398
0.273777 0.176699 0.332403
0.384955 0.196353 0.334539
0.438697 0.205539 0.328313
0.470710 0.204196 0.317082
0.526879 0.223239 0.330144
0.570367 0.245579 0.352361
0.111330 0.204288 0.243351
0.117006 0.214237 0.260441
0.131563 0.206516 0.264012
0.260990 0.226200 0.364874
0.413397 0.244205 0.384710
0.505699 0.244175 0.364843
0.545708 0.237705 0.339574
0.610651 0.265110 0.358007
0.658595 0.309911 0.401404
0.175998 0.304204 0.348608
0.191989 0.333288 0.382300
0.205936 0.337316 0.395605
0.254490 0.308019 0.392279
0.435737 0.324804 0.435523
0.575799 0.313970 0.412985
0.646326 0.297307 0.376120
0.685084 0.359197 0.411887
0.685176 0.441444 0.480720
0.227207 0.392584 0.436744
0.242557 0.424140 0.468635
0.267948 0.458473 0.507958
0.328740 0.462242 0.501717
0.458457 0.455131 0.475303
0.620218 0.454551 0.444236
0.691371 0.435843 0.395193
0.696498 0.514916 0.475654
0.692988 0.585077 0.560250
0.257969 0.450050 0.489937
0.269566 0.470802 0.511681
0.299138 0.522057 0.557458
0.328679 0.561303 0.569879
0.478355 0.594629 0.541802
0.651621 0.633310 0.564446
0.712520 0.638773 0.532189
0.716823 0.651347 0.575021
0.719265 0.679988 0.639124
0.293370 0.511894 0.545464
0.299290 0.522850 0.555718
0.326207 0.574029 0.604669
0.371283 0.634089 0.647395
0.495995 0.680720 0.643458
0.702983 0.721004 0.670817
0.750210 0.747921 0.724544
0.754665 0.753506 0.738796
0.757015 0.756466 0.744991
0.329503 0.580591 0.609155
0.335363 0.590417 0.618006
0.365667 0.630762 0.651331
0.493309 0.686488 0.688441
0.651667 0.721981 0.710994
0.743801 0.750912 0.738338
0.757626 0.757992 0.750088
0.758419 0.759579 0.752468
0.758450 0.759518 0.752377
0.342260 0.601007 0.627649
0.342657 0.601526 0.628321
0.374731 0.637201 0.656123
0.535470 0.696834 0.696803
0.693874 0.731777 0.723354
0.754055 0.756405 0.747189
0.758328 0.759426 0.752377
0.758755 0.760250 0.753109
0.758846 0.760494 0.753353
0.045167 0.093935 0.148013
0.057038 0.107820 0.170230
0.095949 0.129122 0.238987
0.232761 0.152743 0.309728
0.324193 0.178683 0.329412
0.396216 0.197482 0.340948
0.445258 0.209812 0.346960
0.489570 0.219547 0.356146
0.519310 0.232822 0.368017
0.070893 0.143557 0.189761
0.065675 0.137636 0.190158
0.087373 0.151949 0.225650
0.220844 0.169986 0.349310
0.353765 0.199344 0.376745
0.423651 0.212406 0.369299
0.467903 0.217624 0.362768
0.523796 0.236484 0.375494
0.569024 0.258183 0.398016
0.111086 0.210361 0.256443
0.109194 0.214206 0.266392
0.118776 0.204135 0.259983
0.192004 0.214298 0.364385
0.354574 0.237095 0.430762
0.468330 0.251011 0.418799
0.526970 0.248966 0.399878
0.594781 0.276738 0.421881
0.641535 0.321141 0.461036
0.174166 0.307103 0.358129
0.181094 0.326238 0.381231
0.187991 0.326696 0.391546
0.205447 0.292424 0.388190
0.342123 0.299535 0.491096
0.492958 0.307927 0.492195
0.598199 0.301701 0.463142
0.657588 0.368719 0.498665
0.667292 0.423926 0.531609
0.227573 0.399390 0.447333
0.235386 0.420783 0.471077
0.253941 0.440620 0.495491
0.274006 0.433555 0.508415
0.340261 0.401297 0.516197
0.530114 0.425711 0.554894
0.636774 0.402518 0.522850
0.674067 0.511040 0.575372
0.677607 0.566964 0.607904
0.259800 0.456855 0.501732
0.271305 0.478645 0.523796
0.300999 0.522301 0.564965
0.329076 0.555444 0.597589
0.454643 0.589227 0.607477
0.599298 0.602533 0.606897
0.670222 0.588006 0.581384
0.691859 0.603265 0.589136
0.713893 0.679103 0.670466
0.299779 0.522301 0.560235
0.305119 0.531548 0.569238
0.324315 0.566979 0.604181
0.358923 0.619257 0.646448
0.473335 0.674464 0.674708
0.625422 0.689265 0.658595
0.726680 0.722988 0.696651
0.736324 0.720851 0.694514
0.741482 0.731868 0.715450
0.331182 0.580774 0.614710
0.330144 0.579095 0.613855
0.350896 0.608850 0.638880
0.492882 0.684932 0.695064
0.657984 0.725368 0.723018
0.714443 0.740230 0.729824
0.753475 0.755611 0.745205
0.758450 0.759823 0.752102
0.758267 0.759396 0.751949
0.330968 0.580377 0.615717
0.330266 0.578943 0.614954
0.353033 0.610681 0.641169
0.523110 0.692134 0.701595
0.693416 0.734585 0.731899
0.748470 0.755245 0.748806
0.757748 0.759152 0.752194
0.759793 0.762387 0.755550
0.759945 0.762600 0.757595
0.051606 0.113191 0.167269
0.061036 0.123873 0.183047
0.083040 0.140475 0.225437
0.204837 0.154879 0.334661
0.304417 0.178592 0.351720
0.378485 0.199191 0.365179
0.441962 0.217136 0.377081
0.490913 0.230472 0.387701
0.520623 0.243626 0.399878
0.071962 0.152346 0.199771
0.066896 0.148775 0.201877
0.078065 0.158511 0.224063
0.163500 0.165835 0.348104
0.318212 0.191989 0.390234
0.406409 0.215732 0.400732
0.466835 0.228641 0.397009
0.524041 0.248600 0.412116
0.566949 0.268894 0.433387
0.108736 0.216556 0.267735
0.100893 0.217411 0.273930
0.095827 0.204013 0.265873
0.137331 0.206394 0.332082
0.302876 0.223545 0.449378
0.433234 0.248661 0.461433
0.512871 0.259037 0.447120
0.583703 0.289799 0.472236
0.621698 0.327459 0.503807
0.169162 0.310307 0.366674
0.170291 0.323033 0.383398
0.155306 0.320165 0.389136
0.182162 0.290715 0.377722
0.245167 0.274235 0.492561
0.410498 0.283268 0.544060
0.549523 0.303899 0.525353
0.633967 0.368750 0.555657
0.639551 0.399084 0.571160
0.223850 0.400824 0.454078
0.227268 0.415564 0.471687
0.232822 0.430274 0.491463
0.231510 0.397192 0.474189
0.237064 0.355749 0.479271
0.356970 0.353597 0.603265
0.573053 0.381765 0.607324
0.645411 0.499001 0.622919
0.654200 0.544533 0.637446
0.250187 0.456428 0.506798
0.256779 0.470710 0.523339
0.278660 0.500481 0.550072
0.293919 0.508690 0.563073
0.323888 0.515190 0.590051
0.414099 0.513848 0.625574
0.622370 0.552300 0.643183
0.672969 0.592065 0.651118
0.716030 0.691768 0.706966
0.301274 0.526604 0.568383
0.304723 0.533532 0.575128
0.311742 0.549920 0.590417
0.327428 0.571832 0.611933
0.401877 0.639185 0.663752
0.577447 0.683345 0.688838
0.698756 0.702693 0.701106
0.713466 0.683619 0.677394
0.736812 0.724453 0.719234
0.321660 0.561120 0.601068
0.319463 0.557519 0.598596
0.328496 0.573663 0.613581
0.412451 0.650538 0.673243
0.587320 0.710079 0.714595
0.684962 0.732235 0.729458
0.723690 0.741543 0.731777
0.755337 0.755337 0.746517
0.755245 0.753841 0.745480
0.318669 0.555871 0.596765
0.315953 0.552605 0.594110
0.328923 0.573754 0.613306
0.432303 0.660975 0.680842
0.664775 0.727932 0.727474
0.741146 0.753231 0.750729
0.751186 0.756344 0.751064
0.758083 0.760067 0.753323
0.759854 0.762448 0.757168
0.057191 0.129366 0.182345
0.063783 0.137514 0.193973
0.078645 0.153689 0.227909
0.163043 0.158419 0.349462
0.287633 0.178683 0.371557
0.366094 0.202335 0.389227
0.436286 0.221378 0.400824
0.491798 0.239933 0.414343
0.519463 0.252506 0.427161
0.073091 0.161166 0.211337
0.068055 0.160403 0.215702
0.071901 0.166110 0.229557
0.103853 0.165316 0.314214
0.283330 0.187716 0.406867
0.381598 0.213230 0.420508
0.460182 0.232609 0.424170
0.524010 0.259495 0.445319
0.561547 0.277501 0.464607
0.098665 0.221775 0.279149
0.089143 0.223331 0.285863
0.068086 0.206363 0.276341
0.093568 0.201266 0.295445
0.231189 0.208560 0.452628
0.380316 0.234257 0.481025
0.488045 0.260929 0.486275
0.568322 0.299992 0.515221
0.592126 0.323339 0.536309
0.162051 0.316411 0.378973
0.155062 0.323095 0.387976
0.120027 0.313787 0.386511
0.123262 0.273411 0.356420
0.165438 0.253513 0.415366
0.311696 0.259007 0.576257
0.485786 0.294835 0.579339
0.595850 0.371649 0.604669
0.598566 0.384131 0.613977
0.221073 0.405432 0.463050
0.223911 0.415625 0.474800
0.213718 0.428138 0.490669
0.188174 0.384863 0.462104
0.172229 0.324849 0.423972
0.261295 0.353094 0.587808
0.518853 0.427924 0.647456
0.631464 0.507713 0.647547
0.645167 0.545449 0.655573
0.253300 0.464790 0.518364
0.259648 0.474525 0.528099
0.278386 0.498238 0.549889
0.285679 0.492073 0.553094
0.313512 0.515267 0.592615
0.350790 0.503761 0.624796
0.552438 0.544656 0.658503
0.675624 0.625910 0.683253
0.722896 0.705165 0.722560
0.287907 0.517449 0.564569
0.291600 0.522637 0.568750
0.312718 0.545586 0.588800
0.330938 0.573480 0.617426
0.386297 0.616663 0.653986
0.471687 0.634668 0.672908
0.553704 0.631647 0.688106
0.699794 0.674769 0.703761
0.741817 0.732326 0.736904
0.310246 0.549065 0.590021
0.311254 0.549828 0.590845
0.324865 0.567071 0.607538
0.381323 0.634455 0.662165
0.494972 0.686824 0.698512
0.598901 0.713039 0.716365
0.691279 0.733455 0.731655
0.750088 0.751217 0.748287
0.755917 0.754849 0.751522
0.310155 0.549157 0.590051
0.310704 0.549645 0.590539
0.328740 0.573754 0.613489
0.432792 0.666163 0.684138
0.656153 0.726497 0.726528
0.728634 0.748440 0.746365
0.744106 0.754543 0.751949
0.756161 0.759213 0.755550
0.760006 0.762661 0.758755
0.058900 0.134157 0.187198
0.064637 0.141726 0.198459
0.078645 0.158816 0.229587
0.146563 0.160189 0.337987
0.279759 0.179080 0.380774
0.357641 0.201511 0.395941
0.432624 0.222477 0.410742
0.490608 0.243320 0.426490
0.515923 0.255222 0.439155
0.072328 0.163058 0.214603
0.067506 0.164767 0.221408
0.068940 0.169619 0.233677
0.086976 0.165347 0.307958
0.260624 0.183658 0.410712
0.366308 0.209415 0.424109
0.454383 0.233768 0.436408
0.521996 0.263615 0.461158
0.554742 0.280095 0.478492
0.091737 0.223697 0.284092
0.082429 0.225772 0.291173
0.065370 0.207156 0.277165
0.074220 0.198825 0.289830
0.184222 0.200412 0.416342
0.347372 0.225223 0.486275
0.469795 0.257420 0.499306
0.551965 0.301091 0.539513
0.566857 0.317510 0.556786
0.155154 0.318151 0.382727
0.147799 0.324102 0.390600
0.104463 0.311559 0.385809
0.087800 0.264042 0.349248
0.126070 0.245731 0.378714
0.254536 0.259617 0.570596
0.460792 0.319036 0.620783
0.585138 0.376593 0.621210
0.590906 0.388708 0.624903
0.219760 0.409400 0.469612
0.220951 0.417517 0.478462
0.204135 0.425147 0.489326
0.184680 0.381857 0.461387
0.211109 0.357259 0.466026
0.310155 0.420554 0.639902
0.553033 0.499321 0.651911
0.638911 0.542672 0.655970
0.649012 0.558389 0.660304
0.257298 0.471260 0.525139
0.264958 0.483070 0.535424
0.281102 0.495888 0.548394
0.298283 0.509087 0.572351
0.374487 0.568231 0.634363
0.518349 0.620737 0.680201
0.687358 0.677256 0.704402
0.709957 0.689815 0.713161
0.738064 0.726009 0.735500
0.291722 0.521050 0.567987
0.296635 0.525689 0.572229
0.318395 0.553979 0.596918
0.365332 0.607477 0.644587
0.492561 0.665888 0.686091
0.629297 0.698756 0.711604
0.684810 0.709438 0.722622
0.724971 0.722225 0.731258
0.744228 0.735897 0.742061
0.308568 0.547387 0.588525
0.309606 0.548150 0.589380
0.326848 0.570581 0.610834
0.396368 0.642969 0.667262
0.525322 0.689662 0.700984
0.639826 0.718166 0.720821
0.707912 0.736751 0.737331
0.745937 0.750515 0.750607
0.756161 0.755001 0.754543
0.309728 0.548882 0.589715
0.310643 0.549615 0.590509
0.330205 0.576135 0.615534
0.433951 0.666804 0.684657
0.640208 0.723293 0.724025
0.716121 0.743221 0.741329
0.732052 0.750149 0.748440
0.754604 0.760037 0.758114
0.760128 0.762844 0.760128
