lut-uploads/Kino48 BRIGHT WARM3.cube
TITLE "Generated by 3D LUT Creator (c) Oleg Sharonov"
LUT_3D_SIZE 9
0.0612 0.0433 0.0425
0.1141 0.0589 0.0468
0.2112 0.0608 0.0546
0.3644 0.0715 0.0683
0.5225 0.1207 0.0818
0.6278 0.1736 0.0632
0.6797 0.2318 0.0649
0.7581 0.2998 0.0768
0.7999 0.3200 0.0989
0.0607 0.0937 0.0630
0.1177 0.0983 0.0525
0.1979 0.1141 0.0611
0.2865 0.1452 0.0747
0.4969 0.1723 0.0922
0.6364 0.2314 0.0807
0.7062 0.2893 0.0743
0.7690 0.3318 0.0855
0.8068 0.3543 0.1137
0.0478 0.1775 0.0988
0.0638 0.1992 0.0640
0.2081 0.2020 0.0736
0.3153 0.2195 0.0863
0.4316 0.2521 0.0984
0.5841 0.2936 0.1009
0.7116 0.3419 0.0831
0.8220 0.4052 0.1185
0.8305 0.4336 0.1892
0.0531 0.2666 0.1462
0.0924 0.3095 0.0814
0.2146 0.2910 0.0872
0.3883 0.3070 0.1017
0.4936 0.3265 0.1142
0.6124 0.3668 0.1111
0.7365 0.4073 0.0911
0.8196 0.4806 0.1461
0.8211 0.4909 0.2215
0.0841 0.3740 0.2163
0.0983 0.4098 0.1426
0.2482 0.3850 0.1022
0.4229 0.4054 0.1179
0.5780 0.4261 0.1211
0.6578 0.4655 0.1084
0.7725 0.4891 0.0947
0.8193 0.5346 0.2181
0.8351 0.5401 0.2580
0.1333 0.4857 0.2905
0.1644 0.5108 0.2182
0.2590 0.5505 0.0999
0.4920 0.5055 0.1174
0.5825 0.5448 0.1160
0.7000 0.5456 0.0989
0.7952 0.5798 0.1212
0.8372 0.5894 0.2675
0.8445 0.5917 0.3163
0.2016 0.5640 0.3421
0.2027 0.6007 0.2889
0.2850 0.6745 0.1755
0.4462 0.6222 0.1272
0.6351 0.6117 0.1230
0.7229 0.6365 0.1347
0.7775 0.6568 0.2574
0.8392 0.6633 0.3429
0.8560 0.6730 0.3705
0.2239 0.6542 0.3896
0.2490 0.6539 0.4178
0.3355 0.6909 0.3793
0.5158 0.7484 0.3067
0.6520 0.7272 0.2522
0.7143 0.7251 0.2764
0.7652 0.7264 0.3516
0.8533 0.7370 0.3985
0.8739 0.7410 0.4355
0.3139 0.7173 0.5152
0.3361 0.7202 0.5232
0.3810 0.7371 0.5436
0.5607 0.7942 0.4608
0.6721 0.7887 0.4134
0.7303 0.7797 0.3857
0.7798 0.7991 0.3952
0.8490 0.8198 0.4825
0.8867 0.8191 0.5120
0.0626 0.0544 0.0822
0.1272 0.0548 0.0715
0.2216 0.0597 0.0692
0.3845 0.0801 0.0911
0.5422 0.1057 0.0738
0.6469 0.1713 0.0576
0.6812 0.1987 0.0577
0.7495 0.3039 0.0982
0.7773 0.3275 0.1527
0.0631 0.1138 0.0998
0.1081 0.1171 0.1004
0.2256 0.1086 0.0696
0.3358 0.1057 0.0714
0.5229 0.1311 0.0840
0.6402 0.2038 0.0696
0.7134 0.2696 0.0678
0.7600 0.3287 0.1112
0.7831 0.3527 0.1732
0.0485 0.1893 0.1347
0.0472 0.2038 0.1143
0.2307 0.2017 0.0759
0.3676 0.2005 0.0860
0.4888 0.2415 0.1018
0.6209 0.2914 0.0989
0.7564 0.3355 0.0832
0.8157 0.4079 0.2052
0.8192 0.4296 0.2537
0.0504 0.2718 0.1799
0.0695 0.3086 0.1625
0.1857 0.3405 0.0902
0.3922 0.3324 0.1055
0.5473 0.3514 0.1167
0.6559 0.3860 0.1051
0.7891 0.4205 0.1050
0.8158 0.4724 0.2586
0.8169 0.4860 0.2980
0.0794 0.3819 0.2481
0.0936 0.4180 0.2195
0.2187 0.4773 0.0989
0.4207 0.4555 0.1146
0.6075 0.4695 0.1146
0.7307 0.4869 0.0949
0.7985 0.5167 0.1294
0.8061 0.5188 0.2924
0.8150 0.5270 0.3235
0.1361 0.4891 0.3026
0.1417 0.4907 0.2923
0.2019 0.5590 0.2007
0.4141 0.5553 0.1096
0.6228 0.5879 0.1143
0.7507 0.5691 0.1036
0.7778 0.5873 0.2136
0.8150 0.5707 0.3277
0.8252 0.5834 0.3648
0.2030 0.5665 0.3540
0.2039 0.5783 0.3415
0.2441 0.6121 0.3240
0.4287 0.6693 0.1640
0.6680 0.6379 0.1320
0.7288 0.6796 0.1687
0.7593 0.6379 0.3140
0.8284 0.6599 0.3771
0.8516 0.6712 0.3966
0.2286 0.6547 0.4039
0.2547 0.6541 0.4325
0.3070 0.6744 0.4720
0.4646 0.7341 0.3994
0.6308 0.7297 0.3287
0.7075 0.7197 0.3131
0.7587 0.7241 0.3806
0.8486 0.7306 0.4337
0.8705 0.7398 0.4681
0.3161 0.7198 0.5254
0.3430 0.7287 0.5424
0.3885 0.7489 0.5730
0.5455 0.8075 0.5069
0.6702 0.7998 0.4483
0.7265 0.7861 0.4195
0.7773 0.8003 0.4151
0.8509 0.8200 0.5081
0.8873 0.8199 0.5366
0.0584 0.0881 0.1660
0.1003 0.0865 0.1727
0.1995 0.0765 0.1481
0.3195 0.0717 0.1221
0.5660 0.1219 0.1034
0.6703 0.1210 0.0474
0.6901 0.1761 0.0578
0.7362 0.3135 0.1847
0.7583 0.3393 0.2278
0.0579 0.1677 0.1684
0.0563 0.1104 0.2246
0.2363 0.1527 0.1679
0.3663 0.1364 0.1344
0.5619 0.1148 0.0853
0.6531 0.2040 0.0762
0.7301 0.2966 0.1033
0.7436 0.3346 0.2100
0.7633 0.3627 0.2539
0.0433 0.2183 0.2016
0.0421 0.2316 0.2336
0.2108 0.2193 0.2026
0.4163 0.2453 0.1624
0.5359 0.2523 0.1838
0.6386 0.2909 0.1781
0.7390 0.3499 0.1908
0.7949 0.4150 0.2837
0.7955 0.4303 0.3209
0.0432 0.2783 0.2532
0.0587 0.3157 0.2453
0.1013 0.3222 0.2475
0.4292 0.3557 0.1316
0.5781 0.3759 0.1802
0.6947 0.4065 0.1558
0.7685 0.4421 0.2596
0.8045 0.4808 0.3557
0.8206 0.4928 0.3803
0.0835 0.3948 0.2978
0.0906 0.4375 0.2800
0.1365 0.4749 0.3030
0.4044 0.5058 0.1216
0.6158 0.5345 0.1146
0.7463 0.5298 0.1493
0.7638 0.5094 0.3038
0.8154 0.5304 0.3819
0.8306 0.5453 0.3988
0.1498 0.5033 0.3365
0.1692 0.5139 0.3205
0.1979 0.5426 0.3486
0.3865 0.6553 0.1624
0.6416 0.6360 0.1380
0.7363 0.6153 0.2320
0.7751 0.5751 0.3477
0.8228 0.5953 0.3997
0.8404 0.6072 0.4136
0.2104 0.5807 0.3706
0.2097 0.5886 0.3670
0.2315 0.6001 0.3985
0.3317 0.6392 0.3876
0.6252 0.7056 0.2425
0.7119 0.7027 0.3111
0.7710 0.6538 0.3885
0.8328 0.6695 0.4216
0.8504 0.6776 0.4410
0.2406 0.6617 0.4363
0.2687 0.6641 0.4592
0.3138 0.6832 0.5058
0.4432 0.7273 0.4618
0.6424 0.7431 0.3961
0.7147 0.7375 0.3772
0.7635 0.7370 0.4182
0.8463 0.7399 0.4792
0.8730 0.7499 0.5050
0.3287 0.7297 0.5474
0.3559 0.7390 0.5648
0.4054 0.7623 0.5999
0.5280 0.8131 0.5864
0.6545 0.8149 0.5374
0.7301 0.7941 0.4511
0.7755 0.8076 0.4585
0.8529 0.8259 0.5442
0.8883 0.8259 0.5714
0.0621 0.1223 0.2543
0.0977 0.1209 0.2521
0.1880 0.1242 0.2266
0.2877 0.1180 0.2074
0.4633 0.1403 0.1865
0.6347 0.1528 0.1143
0.6777 0.2414 0.1726
0.7209 0.3239 0.2889
0.7461 0.3505 0.3179
0.0429 0.2301 0.2340
0.0731 0.1170 0.2906
0.1289 0.1226 0.3035
0.3234 0.1825 0.2117
0.5138 0.1697 0.1852
0.6574 0.2307 0.1825
0.7128 0.3081 0.2391
0.7310 0.3540 0.3022
0.7566 0.3809 0.3317
0.0415 0.2600 0.2602
0.0485 0.2715 0.2743
0.1602 0.2514 0.3360
0.3821 0.2871 0.2906
0.5562 0.2687 0.2699
0.6333 0.2954 0.2901
0.7208 0.3808 0.3360
0.7892 0.4358 0.3779
0.7968 0.4433 0.3920
0.0627 0.3180 0.3105
0.0694 0.3362 0.3155
0.0896 0.3526 0.3639
0.3762 0.3359 0.3192
0.5727 0.4100 0.3370
0.6627 0.4318 0.3806
0.7318 0.4553 0.4025
0.8029 0.4871 0.4240
0.8244 0.5029 0.4298
0.1062 0.4185 0.3635
0.1051 0.4517 0.3508
0.1430 0.4985 0.3578
0.2744 0.4459 0.3853
0.6019 0.5301 0.3309
0.6892 0.5210 0.3846
0.7581 0.5261 0.4069
0.8304 0.5581 0.4479
0.8522 0.5732 0.4712
0.1580 0.5216 0.4032
0.1899 0.5371 0.3675
0.2144 0.5690 0.3917
0.3051 0.6013 0.4398
0.6247 0.6267 0.3404
0.7115 0.6221 0.3834
0.7742 0.6143 0.4340
0.8471 0.6324 0.4758
0.8707 0.6410 0.4973
0.2202 0.6004 0.4105
0.2194 0.6167 0.3937
0.2592 0.6328 0.4515
0.3703 0.6609 0.4855
0.6078 0.7103 0.4160
0.7122 0.7137 0.4127
0.7894 0.6916 0.4509
0.8630 0.7044 0.5092
0.8822 0.7107 0.5285
0.2606 0.6776 0.4745
0.2879 0.6818 0.4967
0.3273 0.7006 0.5325
0.4015 0.7208 0.5747
0.5998 0.7506 0.5203
0.7231 0.7565 0.4462
0.7849 0.7778 0.4725
0.8673 0.7666 0.5482
0.8870 0.7723 0.5675
0.3504 0.7472 0.5817
0.3778 0.7568 0.6001
0.4292 0.7813 0.6335
0.5239 0.8261 0.6398
0.6446 0.8353 0.5905
0.7419 0.8205 0.5191
0.7984 0.8276 0.5186
0.8602 0.8387 0.5903
0.8936 0.8350 0.6157
0.0827 0.1107 0.3759
0.1176 0.1192 0.3362
0.1792 0.1230 0.3486
0.2805 0.1322 0.3099
0.4583 0.1735 0.2759
0.5789 0.2461 0.2802
0.6459 0.3035 0.3406
0.7281 0.3636 0.3849
0.7586 0.3851 0.4112
0.0557 0.2804 0.2952
0.0917 0.1091 0.4206
0.1676 0.1155 0.4028
0.2481 0.1322 0.3829
0.4690 0.2265 0.2853
0.5803 0.2763 0.2965
0.6985 0.3377 0.3524
0.7400 0.3855 0.3992
0.7663 0.4063 0.4206
0.0652 0.3153 0.3257
0.0608 0.3060 0.3427
0.1832 0.1987 0.4745
0.3308 0.2509 0.4383
0.5284 0.3183 0.3601
0.6454 0.3293 0.3578
0.7395 0.3997 0.4161
0.8012 0.4459 0.4437
0.8114 0.4526 0.4469
0.0974 0.3848 0.3736
0.1042 0.4031 0.3793
0.1142 0.3839 0.4530
0.3732 0.3867 0.4526
0.5621 0.4505 0.4429
0.6811 0.4302 0.4496
0.7458 0.4573 0.4693
0.8233 0.5234 0.5023
0.8468 0.5449 0.5117
0.1251 0.4769 0.4230
0.1367 0.4958 0.4173
0.1539 0.5199 0.4499
0.2850 0.5403 0.5053
0.5791 0.5158 0.4587
0.6923 0.5424 0.4826
0.7574 0.5425 0.5177
0.8445 0.5792 0.5451
0.8720 0.5973 0.5551
0.1885 0.5516 0.4612
0.2021 0.5610 0.4557
0.2308 0.5959 0.4581
0.3131 0.6246 0.5208
0.5646 0.5863 0.4913
0.7104 0.6433 0.4888
0.7764 0.6483 0.5316
0.8685 0.6647 0.5638
0.8864 0.6760 0.5858
0.2268 0.6153 0.5011
0.2379 0.6373 0.4704
0.2907 0.6653 0.5033
0.3840 0.6937 0.5805
0.5874 0.7140 0.5486
0.7216 0.7306 0.4876
0.7947 0.7312 0.5461
0.8786 0.7367 0.5980
0.8975 0.7430 0.6149
0.2871 0.6904 0.5559
0.3214 0.7076 0.5458
0.3598 0.7288 0.5819
0.4498 0.7698 0.6306
0.6275 0.7861 0.5896
0.7203 0.8001 0.5606
0.7874 0.8162 0.5668
0.8847 0.8019 0.6330
0.9034 0.8062 0.6532
0.3776 0.7704 0.6267
0.4085 0.7774 0.6421
0.4502 0.8004 0.6734
0.5220 0.8380 0.6899
0.6349 0.8496 0.6807
0.7260 0.8429 0.6432
0.8151 0.8479 0.6044
0.8835 0.8631 0.6574
0.9083 0.8551 0.6945
0.0894 0.1137 0.5055
0.1429 0.1141 0.4578
0.2183 0.1189 0.4410
0.3403 0.1266 0.4235
0.4920 0.1805 0.3971
0.5941 0.2705 0.3854
0.6722 0.3387 0.4592
0.7421 0.4003 0.5238
0.7679 0.4155 0.5312
0.0665 0.2951 0.4115
0.1004 0.1192 0.5389
0.2017 0.1212 0.4957
0.2970 0.1450 0.4841
0.4852 0.2149 0.4207
0.5979 0.3100 0.4195
0.6759 0.3682 0.4768
0.7532 0.4178 0.4971
0.7862 0.4334 0.4862
0.1020 0.3844 0.4153
0.0772 0.3364 0.4557
0.2097 0.2258 0.5823
0.3556 0.2393 0.5629
0.5392 0.3093 0.4841
0.6343 0.3723 0.4658
0.6946 0.4127 0.4850
0.8208 0.4786 0.5106
0.8295 0.4883 0.5153
0.1236 0.4568 0.4487
0.1261 0.4673 0.4627
0.1487 0.4440 0.5398
0.3618 0.3821 0.5955
0.5873 0.4456 0.5227
0.6597 0.4499 0.5074
0.7699 0.4754 0.5242
0.8453 0.5469 0.5594
0.8682 0.5675 0.5733
0.1567 0.5271 0.4877
0.1631 0.5388 0.4930
0.1846 0.5612 0.5321
0.3184 0.5650 0.5781
0.6080 0.5572 0.5547
0.7021 0.5838 0.5622
0.7846 0.5480 0.5711
0.8653 0.5988 0.6128
0.8800 0.6295 0.6356
0.2088 0.5800 0.5314
0.2131 0.5891 0.5334
0.2434 0.6218 0.5587
0.3484 0.6543 0.5914
0.5811 0.6630 0.6095
0.7144 0.6571 0.5815
0.7818 0.6844 0.6182
0.8684 0.6929 0.6668
0.8925 0.7006 0.6776
0.2418 0.6423 0.5858
0.2601 0.6569 0.5839
0.3111 0.6897 0.5945
0.4178 0.7307 0.6356
0.5957 0.7456 0.6407
0.7134 0.7209 0.6010
0.7906 0.7654 0.6359
0.8793 0.7723 0.6808
0.9040 0.7763 0.6895
0.3216 0.7154 0.6461
0.3491 0.7309 0.6375
0.3985 0.7591 0.6408
0.4728 0.8032 0.7013
0.6374 0.8247 0.6808
0.7166 0.8175 0.6740
0.7966 0.8401 0.6443
0.8934 0.8354 0.6980
0.9072 0.8368 0.7231
0.4079 0.7876 0.6991
0.4364 0.8024 0.6941
0.4749 0.8265 0.7263
0.5367 0.8562 0.7480
0.6561 0.8697 0.7371
0.7362 0.8689 0.7090
0.8179 0.8756 0.6940
0.8914 0.8878 0.7253
0.9149 0.8799 0.7681
0.0983 0.1327 0.6307
0.1690 0.1309 0.5785
0.2495 0.1281 0.5302
0.3672 0.1428 0.5489
0.5575 0.2202 0.5043
0.6556 0.3099 0.5054
0.7141 0.3829 0.5455
0.7728 0.4213 0.5848
0.7979 0.4414 0.5977
0.0717 0.3117 0.5413
0.1150 0.1467 0.6628
0.2240 0.1455 0.6187
0.3637 0.1810 0.5689
0.5491 0.2562 0.5232
0.6506 0.3443 0.5205
0.7090 0.4075 0.5513
0.7718 0.4482 0.5872
0.7965 0.4703 0.6055
0.1243 0.4448 0.5250
0.0893 0.3602 0.5780
0.2503 0.2834 0.6723
0.4216 0.2935 0.6626
0.6036 0.3477 0.5894
0.6660 0.4034 0.5546
0.7122 0.4447 0.5711
0.7806 0.4848 0.5955
0.8068 0.5098 0.6057
0.1449 0.5169 0.5389
0.1431 0.5169 0.5623
0.2065 0.4971 0.6228
0.4110 0.3880 0.7102
0.6318 0.4141 0.6446
0.6935 0.4638 0.5927
0.7380 0.4942 0.5916
0.8220 0.5436 0.5962
0.8728 0.5902 0.6310
0.1855 0.5672 0.5745
0.1946 0.5744 0.5799
0.2305 0.6037 0.6165
0.3712 0.5954 0.6517
0.6301 0.5631 0.6561
0.7142 0.6026 0.6422
0.7550 0.5735 0.6102
0.8801 0.6357 0.6738
0.8874 0.6779 0.7036
0.2233 0.6159 0.6139
0.2402 0.6293 0.6218
0.2896 0.6635 0.6392
0.3989 0.6866 0.6668
0.5763 0.6999 0.7068
0.7232 0.6894 0.6718
0.7925 0.7181 0.6901
0.8923 0.7027 0.7171
0.8984 0.7325 0.7509
0.2825 0.6812 0.6673
0.3086 0.6972 0.6646
0.3605 0.7198 0.6736
0.4396 0.7591 0.7154
0.5699 0.7912 0.7447
0.7166 0.7702 0.7301
0.7973 0.7845 0.7175
0.8760 0.8052 0.7525
0.9045 0.8060 0.7675
0.3679 0.7520 0.7166
0.3944 0.7642 0.7099
0.4279 0.7855 0.7250
0.4810 0.8293 0.7654
0.6085 0.8530 0.7802
0.7160 0.8488 0.7590
0.7892 0.8474 0.7287
0.8896 0.8581 0.7704
0.9126 0.8561 0.7985
0.4393 0.8168 0.7732
0.4588 0.8237 0.7786
0.4907 0.8485 0.7953
0.5482 0.8735 0.8204
0.6432 0.8878 0.8232
0.7482 0.8921 0.7945
0.8134 0.8920 0.7913
0.8999 0.9093 0.7891
0.9217 0.9081 0.8226
0.1245 0.1868 0.7549
0.1892 0.1554 0.7271
0.3267 0.1640 0.6663
0.5011 0.2288 0.6736
0.6426 0.2960 0.6272
0.7032 0.3648 0.6279
0.7536 0.4007 0.6318
0.8110 0.4487 0.6689
0.8287 0.4596 0.6943
0.0902 0.3630 0.6665
0.1809 0.2353 0.7606
0.3347 0.2352 0.7360
0.4930 0.2705 0.7181
0.6447 0.3358 0.6476
0.7022 0.3803 0.6328
0.7524 0.4243 0.6351
0.8058 0.4816 0.6827
0.8275 0.5013 0.6985
0.1410 0.4953 0.6459
0.1689 0.4181 0.7126
0.3163 0.3304 0.7642
0.4934 0.3402 0.7752
0.6413 0.3707 0.6818
0.6984 0.4121 0.6415
0.7479 0.4550 0.6440
0.8080 0.5148 0.6910
0.8322 0.5346 0.7034
0.1718 0.5648 0.6413
0.1901 0.5669 0.6650
0.3033 0.5213 0.7227
0.4740 0.4220 0.8221
0.6561 0.4151 0.7668
0.7243 0.4633 0.6914
0.7650 0.5143 0.6735
0.8253 0.5592 0.7067
0.8503 0.5864 0.7002
0.2185 0.6095 0.6685
0.2365 0.6280 0.6707
0.3089 0.6454 0.6896
0.4324 0.6363 0.7299
0.6337 0.5366 0.8304
0.7404 0.5778 0.7288
0.7847 0.6131 0.7107
0.8495 0.6543 0.7112
0.8739 0.6588 0.7152
0.2699 0.6684 0.6997
0.2945 0.6834 0.7016
0.3546 0.7025 0.7102
0.4364 0.7303 0.7499
0.5958 0.7357 0.7821
0.7429 0.7098 0.7506
0.8013 0.7503 0.7664
0.8972 0.7301 0.7586
0.9044 0.7701 0.8075
0.3430 0.7309 0.7445
0.3722 0.7389 0.7408
0.4134 0.7620 0.7525
0.4711 0.7999 0.7925
0.5819 0.8262 0.8201
0.6865 0.8232 0.8307
0.7994 0.8131 0.7854
0.8869 0.8317 0.8178
0.9138 0.8273 0.8322
0.4118 0.7928 0.7885
0.4335 0.8029 0.7863
0.4579 0.8235 0.8090
0.5118 0.8553 0.8394
0.5946 0.8774 0.8653
0.6753 0.8860 0.8773
0.7913 0.8742 0.8466
0.8986 0.8773 0.8486
0.9189 0.8807 0.8601
0.4751 0.8475 0.8560
0.4934 0.8585 0.8581
0.5291 0.8745 0.8696
0.5782 0.8907 0.8875
0.6385 0.9045 0.9048
0.7247 0.9135 0.8966
0.8076 0.9128 0.8848
0.9033 0.9242 0.8647
0.9277 0.9318 0.8718
0.2215 0.2826 0.8369
0.3394 0.2328 0.8052
0.5089 0.2653 0.8204
0.6014 0.3115 0.8127
0.6832 0.3662 0.7439
0.7391 0.3870 0.7262
0.7923 0.4229 0.7337
0.8490 0.4665 0.7734
0.8671 0.4796 0.7911
0.2013 0.4217 0.8136
0.2973 0.3103 0.8406
0.4787 0.2991 0.8440
0.5835 0.3324 0.8433
0.6841 0.3798 0.7533
0.7457 0.4011 0.7455
0.8005 0.4407 0.7656
0.8605 0.5016 0.7882
0.8737 0.5203 0.8083
0.2071 0.5313 0.7925
0.2937 0.4624 0.8372
0.4286 0.3886 0.8459
0.5768 0.3802 0.8638
0.6748 0.4033 0.7845
0.7474 0.4208 0.7688
0.8036 0.4740 0.7704
0.8646 0.5349 0.7950
0.8773 0.5585 0.8094
0.2370 0.6299 0.7309
0.2908 0.6201 0.7480
0.4034 0.5655 0.8070
0.5594 0.4673 0.9107
0.6671 0.4489 0.8810
0.7609 0.4522 0.8152
0.8084 0.5164 0.7786
0.8660 0.5842 0.7990
0.8810 0.6116 0.8107
0.2877 0.6757 0.7486
0.3232 0.6840 0.7466
0.3962 0.6918 0.7621
0.5124 0.6665 0.8347
0.6642 0.5847 0.9059
0.7695 0.5844 0.8430
0.8262 0.6359 0.7962
0.8737 0.6758 0.8171
0.8896 0.6976 0.8202
0.3505 0.7227 0.7755
0.3763 0.7319 0.7746
0.4194 0.7561 0.7898
0.4828 0.7823 0.8284
0.6108 0.7799 0.8598
0.7486 0.7308 0.8455
0.8354 0.7392 0.8307
0.8924 0.7607 0.8458
0.9057 0.7766 0.8483
0.4036 0.7790 0.8122
0.4249 0.7901 0.8140
0.4485 0.8108 0.8343
0.5050 0.8434 0.8646
0.5884 0.8667 0.8922
0.7001 0.8555 0.8941
0.8199 0.8316 0.8812
0.9002 0.8545 0.8837
0.9179 0.8502 0.8864
0.4647 0.8386 0.8619
0.4760 0.8472 0.8675
0.5079 0.8627 0.8805
0.5674 0.8832 0.8985
0.6366 0.8983 0.9123
0.7072 0.9066 0.9212
0.7927 0.9016 0.9286
0.9034 0.9030 0.9060
0.9256 0.9070 0.9146
0.5445 0.8885 0.9079
0.5694 0.8931 0.9082
0.6043 0.9009 0.9145
0.6452 0.9111 0.9241
0.6932 0.9212 0.9326
0.7453 0.9284 0.9428
0.8208 0.9279 0.9386
0.9096 0.9385 0.9382
0.9326 0.9428 0.9405
