lut-uploads/Kino48 BRIGHT WARM3.cube
TITLE "Generated by 3D LUT Creator (c) Oleg Sharonov"
LUT_3D_SIZE 5
0.0612 0.0433 0.0425
0.2112 0.0608 0.0546
0.5225 0.1207 0.0818
0.6797 0.2318 0.0649
0.7999 0.3200 0.0989
0.0478 0.1775 0.0988
0.2081 0.2020 0.0736
0.4316 0.2521 0.0984
0.7116 0.3419 0.0831
0.8305 0.4336 0.1892
0.0841 0.3740 0.2163
0.2482 0.3850 0.1022
0.5780 0.4261 0.1211
0.7725 0.4891 0.0947
0.8351 0.5401 0.2580
0.2016 0.5640 0.3421
0.2850 0.6745 0.1755
0.6351 0.6117 0.1230
0.7775 0.6568 0.2574
0.8560 0.6730 0.3705
0.3139 0.7173 0.5152
0.3810 0.7371 0.5436
0.6721 0.7887 0.4134
0.7798 0.7991 0.3952
0.8867 0.8191 0.5120
0.0584 0.0881 0.1660
0.1995 0.0765 0.1481
0.5660 0.1219 0.1034
0.6901 0.1761 0.0578
0.7583 0.3393 0.2278
0.0433 0.2183 0.2016
0.2108 0.2193 0.2026
0.5359 0.2523 0.1838
0.7390 0.3499 0.1908
0.7955 0.4303 0.3209
0.0835 0.3948 0.2978
0.1365 0.4749 0.3030
0.6158 0.5345 0.1146
0.7638 0.5094 0.3038
0.8306 0.5453 0.3988
0.2104 0.5807 0.3706
0.2315 0.6001 0.3985
0.6252 0.7056 0.2425
0.7710 0.6538 0.3885
0.8504 0.6776 0.4410
0.3287 0.7297 0.5474
0.4054 0.7623 0.5999
0.6545 0.8149 0.5374
0.7755 0.8076 0.4585
0.8883 0.8259 0.5714
0.0827 0.1107 0.3759
0.1792 0.1230 0.3486
0.4583 0.1735 0.2759
0.6459 0.3035 0.3406
0.7586 0.3851 0.4112
0.0652 0.3153 0.3257
0.1832 0.1987 0.4745
0.5284 0.3183 0.3601
0.7395 0.3997 0.4161
0.8114 0.4526 0.4469
0.1251 0.4769 0.4230
0.1539 0.5199 0.4499
0.5791 0.5158 0.4587
0.7574 0.5425 0.5177
0.8720 0.5973 0.5551
0.2268 0.6153 0.5011
0.2907 0.6653 0.5033
0.5874 0.7140 0.5486
0.7947 0.7312 0.5461
0.8975 0.7430 0.6149
0.3776 0.7704 0.6267
0.4502 0.8004 0.6734
0.6349 0.8496 0.6807
0.8151 0.8479 0.6044
0.9083 0.8551 0.6945
0.0983 0.1327 0.6307
0.2495 0.1281 0.5302
0.5575 0.2202 0.5043
0.7141 0.3829 0.5455
0.7979 0.4414 0.5977
0.1243 0.4448 0.5250
0.2503 0.2834 0.6723
0.6036 0.3477 0.5894
0.7122 0.4447 0.5711
0.8068 0.5098 0.6057
0.1855 0.5672 0.5745
0.2305 0.6037 0.6165
0.6301 0.5631 0.6561
0.7550 0.5735 0.6102
0.8874 0.6779 0.7036
0.2825 0.6812 0.6673
0.3605 0.7198 0.6736
0.5699 0.7912 0.7447
0.7973 0.7845 0.7175
0.9045 0.8060 0.7675
0.4393 0.8168 0.7732
0.4907 0.8485 0.7953
0.6432 0.8878 0.8232
0.8134 0.8920 0.7913
0.9217 0.9081 0.8226
0.2215 0.2826 0.8369
0.5089 0.2653 0.8204
0.6832 0.3662 0.7439
0.7923 0.4229 0.7337
0.8671 0.4796 0.7911
0.2071 0.5313 0.7925
0.4286 0.3886 0.8459
0.6748 0.4033 0.7845
0.8036 0.4740 0.7704
0.8773 0.5585 0.8094
0.2877 0.6757 0.7486
0.3962 0.6918 0.7621
0.6642 0.5847 0.9059
0.8262 0.6359 0.7962
0.8896 0.6976 0.8202
0.4036 0.7790 0.8122
0.4485 0.8108 0.8343
0.5884 0.8667 0.8922
0.8199 0.8316 0.8812
0.9179 0.8502 0.8864
0.5445 0.8885 0.9079
0.6043 0.9009 0.9145
0.6932 0.9212 0.9326
0.8208 0.9279 0.9386
0.9326 0.9428 0.9405
