lut-uploads/Kino48 BRIGHT WARM3.cube
TITLE "Generated by 3D LUT Creator (c) Oleg Sharonov"
LUT_3D_SIZE 25
0.0612 0.0433 0.0425
0.0742 0.0480 0.0433
0.0904 0.0531 0.0449
0.1141 0.0589 0.0468
0.1454 0.0615 0.0486
0.1812 0.0660 0.0518
0.2112 0.0608 0.0546
0.2516 0.0597 0.0598
0.3076 0.0631 0.0684
0.3644 0.0715 0.0683
0.4128 0.0834 0.0740
0.4673 0.1054 0.0815
0.5225 0.1207 0.0818
0.5660 0.1335 0.0771
0.6021 0.1515 0.0714
0.6278 0.1736 0.0632
0.6450 0.1912 0.0620
0.6643 0.2162 0.0640
0.6797 0.2318 0.0649
0.7011 0.2471 0.0647
0.7282 0.2601 0.0632
0.7581 0.2998 0.0768
0.7999 0.3200 0.0989
0.7999 0.3200 0.0989
0.7999 0.3200 0.0989
0.0617 0.0577 0.0495
0.0710 0.0630 0.0542
0.0886 0.0630 0.0462
0.1106 0.0683 0.0480
0.1413 0.0742 0.0502
0.1774 0.0785 0.0533
0.2042 0.0844 0.0573
0.2340 0.0823 0.0606
0.2809 0.0788 0.0646
0.3501 0.0742 0.0675
0.4039 0.0933 0.0742
0.4590 0.1134 0.0811
0.5221 0.1342 0.0849
0.5680 0.1479 0.0793
0.6013 0.1645 0.0763
0.6330 0.1914 0.0679
0.6581 0.2177 0.0660
0.6741 0.2334 0.0666
0.6908 0.2519 0.0680
0.7048 0.2637 0.0682
0.7255 0.2775 0.0674
0.7588 0.3093 0.0784
0.7983 0.3291 0.1013
0.7983 0.3291 0.1013
0.7983 0.3291 0.1013
0.0610 0.0751 0.0563
0.0605 0.0827 0.0572
0.0887 0.0837 0.0555
0.1134 0.0806 0.0498
0.1419 0.0868 0.0520
0.1756 0.0924 0.0551
0.1988 0.0999 0.0590
0.2234 0.1066 0.0629
0.2609 0.1056 0.0672
0.3204 0.1042 0.0705
0.3897 0.1085 0.0741
0.4480 0.1243 0.0808
0.5145 0.1482 0.0893
0.5710 0.1661 0.0821
0.6048 0.1844 0.0808
0.6388 0.2111 0.0739
0.6648 0.2334 0.0691
0.6850 0.2547 0.0702
0.7009 0.2704 0.0710
0.7150 0.2812 0.0709
0.7285 0.2907 0.0705
0.7609 0.3190 0.0813
0.7990 0.3389 0.1053
0.7990 0.3389 0.1053
0.7990 0.3389 0.1053
0.0607 0.0937 0.0630
0.0604 0.0964 0.0615
0.0872 0.0982 0.0591
0.1177 0.0983 0.0525
0.1476 0.1005 0.0542
0.1762 0.1064 0.0572
0.1979 0.1141 0.0611
0.2200 0.1241 0.0652
0.2460 0.1366 0.0702
0.2865 0.1452 0.0747
0.3501 0.1487 0.0782
0.4222 0.1561 0.0844
0.4969 0.1723 0.0922
0.5598 0.1909 0.0870
0.6038 0.2115 0.0877
0.6364 0.2314 0.0807
0.6643 0.2528 0.0751
0.6885 0.2746 0.0739
0.7062 0.2893 0.0743
0.7234 0.2976 0.0736
0.7451 0.3100 0.0731
0.7690 0.3318 0.0855
0.8068 0.3543 0.1137
0.8068 0.3543 0.1137
0.8068 0.3543 0.1137
0.0609 0.1188 0.0724
0.0608 0.1203 0.0711
0.0584 0.1285 0.0591
0.1085 0.1172 0.0550
0.1400 0.1302 0.0579
0.1761 0.1378 0.0613
0.2058 0.1317 0.0643
0.2258 0.1421 0.0681
0.2492 0.1572 0.0731
0.2806 0.1722 0.0778
0.3154 0.1858 0.0818
0.3842 0.1961 0.0860
0.4687 0.2069 0.0946
0.5365 0.2197 0.0971
0.5879 0.2345 0.0919
0.6243 0.2511 0.0901
0.6582 0.2698 0.0825
0.6834 0.2894 0.0774
0.7085 0.3096 0.0778
0.7419 0.3147 0.0744
0.7683 0.3336 0.0790
0.7955 0.3548 0.0961
0.8161 0.3762 0.1273
0.8161 0.3762 0.1273
0.8161 0.3762 0.1273
0.0546 0.1469 0.0840
0.0533 0.1498 0.0816
0.0470 0.1624 0.0628
0.0927 0.1514 0.0583
0.1338 0.1473 0.0597
0.1712 0.1668 0.0646
0.2064 0.1772 0.0699
0.2372 0.1688 0.0729
0.2611 0.1764 0.0770
0.2961 0.1942 0.0817
0.3325 0.2111 0.0861
0.3718 0.2225 0.0892
0.4381 0.2310 0.0955
0.5052 0.2429 0.1024
0.5634 0.2580 0.0982
0.6068 0.2732 0.0970
0.6397 0.2890 0.0919
0.6683 0.3084 0.0860
0.7062 0.3228 0.0805
0.7540 0.3332 0.0763
0.7905 0.3591 0.0865
0.8203 0.3830 0.1115
0.8287 0.4053 0.1671
0.8287 0.4053 0.1671
0.8287 0.4053 0.1671
0.0478 0.1775 0.0988
0.0478 0.1795 0.0912
0.0472 0.1891 0.0760
0.0638 0.1992 0.0640
0.1439 0.1784 0.0643
0.1822 0.1879 0.0687
0.2081 0.2020 0.0736
0.2443 0.2138 0.0792
0.2831 0.2080 0.0826
0.3153 0.2195 0.0863
0.3520 0.2346 0.0902
0.3902 0.2445 0.0930
0.4316 0.2521 0.0984
0.4785 0.2622 0.1034
0.5342 0.2778 0.1070
0.5841 0.2936 0.1009
0.6191 0.3104 0.1022
0.6574 0.3282 0.0934
0.7116 0.3419 0.0831
0.7601 0.3516 0.0789
0.7933 0.3824 0.0919
0.8220 0.4052 0.1185
0.8305 0.4336 0.1892
0.8305 0.4336 0.1892
0.8305 0.4336 0.1892
0.0471 0.2036 0.1107
0.0468 0.2078 0.0972
0.0462 0.2198 0.0796
0.0488 0.2338 0.0687
0.0991 0.2226 0.0686
0.1891 0.2109 0.0728
0.2187 0.2232 0.0778
0.2553 0.2344 0.0835
0.3045 0.2448 0.0890
0.3393 0.2480 0.0915
0.3741 0.2578 0.0943
0.4086 0.2671 0.0984
0.4517 0.2752 0.1022
0.4931 0.2865 0.1085
0.5397 0.2993 0.1092
0.5863 0.3143 0.1040
0.6241 0.3311 0.1051
0.6645 0.3518 0.0958
0.7186 0.3619 0.0856
0.7671 0.3747 0.0835
0.7972 0.4043 0.0986
0.8230 0.4363 0.1263
0.8250 0.4564 0.1979
0.8250 0.4564 0.1979
0.8250 0.4564 0.1979
0.0461 0.2326 0.1228
0.0463 0.2403 0.1008
0.0547 0.2598 0.0812
0.0689 0.2720 0.0750
0.0958 0.2717 0.0761
0.1455 0.2591 0.0759
0.2298 0.2467 0.0824
0.2661 0.2616 0.0887
0.3231 0.2714 0.0938
0.3664 0.2774 0.0967
0.3967 0.2815 0.0985
0.4291 0.2899 0.1037
0.4706 0.2986 0.1075
0.5135 0.3092 0.1123
0.5591 0.3213 0.1093
0.6009 0.3378 0.1071
0.6327 0.3574 0.1074
0.6737 0.3747 0.0971
0.7268 0.3830 0.0881
0.7715 0.3984 0.0887
0.8005 0.4316 0.1019
0.8246 0.4628 0.1351
0.8180 0.4751 0.2093
0.8180 0.4751 0.2093
0.8180 0.4751 0.2093
0.0531 0.2666 0.1462
0.0600 0.2791 0.1218
0.0693 0.2980 0.0903
0.0924 0.3095 0.0814
0.1239 0.3050 0.0820
0.1617 0.3018 0.0831
0.2146 0.2910 0.0872
0.2874 0.2925 0.0944
0.3397 0.3011 0.0990
0.3883 0.3070 0.1017
0.4219 0.3123 0.1060
0.4564 0.3158 0.1082
0.4936 0.3265 0.1142
0.5376 0.3398 0.1165
0.5805 0.3527 0.1107
0.6124 0.3668 0.1111
0.6428 0.3826 0.1087
0.6860 0.3986 0.0978
0.7365 0.4073 0.0911
0.7776 0.4288 0.0909
0.8046 0.4598 0.1052
0.8196 0.4806 0.1461
0.8211 0.4909 0.2215
0.8211 0.4909 0.2215
0.8211 0.4909 0.2215
0.0677 0.3052 0.1675
0.0709 0.3153 0.1505
0.0796 0.3330 0.1064
0.0945 0.3465 0.0866
0.1420 0.3364 0.0872
0.1880 0.3350 0.0899
0.2233 0.3368 0.0944
0.2932 0.3322 0.1005
0.3473 0.3365 0.1043
0.4027 0.3380 0.1067
0.4500 0.3455 0.1124
0.4848 0.3531 0.1165
0.5227 0.3584 0.1197
0.5628 0.3704 0.1169
0.5970 0.3830 0.1142
0.6256 0.3972 0.1153
0.6570 0.4114 0.1098
0.7019 0.4257 0.0942
0.7510 0.4354 0.0881
0.7846 0.4613 0.0933
0.8057 0.4827 0.1108
0.8181 0.5004 0.1687
0.8269 0.5073 0.2315
0.8269 0.5073 0.2315
0.8269 0.5073 0.2315
0.0763 0.3404 0.1911
0.0808 0.3480 0.1788
0.0887 0.3642 0.1460
0.0932 0.3828 0.0916
0.1468 0.3752 0.0929
0.1976 0.3625 0.0937
0.2371 0.3639 0.0988
0.2990 0.3715 0.1064
0.3604 0.3692 0.1096
0.4079 0.3761 0.1123
0.4654 0.3754 0.1171
0.5139 0.3838 0.1232
0.5515 0.3913 0.1228
0.5855 0.4007 0.1181
0.6140 0.4121 0.1180
0.6400 0.4297 0.1152
0.6762 0.4471 0.1025
0.7212 0.4573 0.0914
0.7648 0.4637 0.0898
0.7897 0.4834 0.0998
0.8114 0.5054 0.1225
0.8169 0.5188 0.1951
0.8315 0.5240 0.2436
0.8315 0.5240 0.2436
0.8315 0.5240 0.2436
0.0841 0.3740 0.2163
0.0875 0.3784 0.2055
0.0926 0.3879 0.1914
0.0983 0.4098 0.1426
0.1128 0.4308 0.0943
0.1954 0.4053 0.0991
0.2482 0.3850 0.1022
0.3025 0.3905 0.1092
0.3839 0.3997 0.1150
0.4229 0.4054 0.1179
0.4654 0.4172 0.1222
0.5323 0.4158 0.1277
0.5780 0.4261 0.1211
0.6061 0.4377 0.1167
0.6311 0.4515 0.1148
0.6578 0.4655 0.1084
0.6974 0.4747 0.0980
0.7402 0.4795 0.0936
0.7725 0.4891 0.0947
0.7956 0.5067 0.1047
0.8177 0.5316 0.1367
0.8193 0.5346 0.2181
0.8351 0.5401 0.2580
0.8351 0.5401 0.2580
0.8351 0.5401 0.2580
0.0882 0.4171 0.2445
0.0902 0.4176 0.2352
0.0937 0.4209 0.2221
0.0999 0.4294 0.2011
0.1208 0.4571 0.1242
0.1807 0.4703 0.0967
0.2683 0.4272 0.1056
0.3198 0.4162 0.1126
0.3867 0.4206 0.1161
0.4503 0.4350 0.1204
0.4835 0.4535 0.1203
0.5209 0.4673 0.1237
0.5868 0.4615 0.1178
0.6214 0.4726 0.1138
0.6470 0.4883 0.1122
0.6801 0.4969 0.1046
0.7160 0.4982 0.0957
0.7511 0.4983 0.0925
0.7801 0.5147 0.0970
0.8038 0.5341 0.1162
0.8154 0.5562 0.1675
0.8274 0.5536 0.2300
0.8392 0.5557 0.2744
0.8392 0.5557 0.2744
0.8392 0.5557 0.2744
0.1042 0.4544 0.2704
0.1073 0.4571 0.2635
0.1121 0.4599 0.2513
0.1210 0.4672 0.2276
0.1450 0.4910 0.1477
0.1840 0.5122 0.1042
0.2784 0.4842 0.1044
0.3482 0.4622 0.1107
0.4132 0.4593 0.1141
0.4709 0.4666 0.1186
0.5088 0.4842 0.1211
0.5333 0.5007 0.1212
0.5678 0.5145 0.1193
0.6250 0.5079 0.1133
0.6529 0.5194 0.1113
0.6894 0.5221 0.1017
0.7252 0.5206 0.0938
0.7610 0.5283 0.0935
0.7890 0.5424 0.1026
0.8121 0.5637 0.1319
0.8126 0.5680 0.2102
0.8349 0.5700 0.2458
0.8430 0.5692 0.2945
0.8430 0.5692 0.2945
0.8430 0.5692 0.2945
0.1333 0.4857 0.2905
0.1359 0.4859 0.2841
0.1432 0.4893 0.2768
0.1644 0.5108 0.2182
0.1859 0.5267 0.1221
0.2013 0.5308 0.0977
0.2590 0.5505 0.0999
0.3533 0.5135 0.1098
0.4400 0.4989 0.1148
0.4920 0.5055 0.1174
0.5255 0.5147 0.1202
0.5550 0.5306 0.1197
0.5825 0.5448 0.1160
0.6144 0.5562 0.1110
0.6623 0.5494 0.1082
0.7000 0.5456 0.0989
0.7365 0.5457 0.0955
0.7702 0.5588 0.1008
0.7952 0.5798 0.1212
0.8061 0.6025 0.1663
0.8176 0.5920 0.2291
0.8372 0.5894 0.2675
0.8445 0.5917 0.3163
0.8445 0.5917 0.3163
0.8445 0.5917 0.3163
0.1679 0.5111 0.3082
0.1691 0.5110 0.3020
0.1743 0.5134 0.2924
0.1831 0.5256 0.2724
0.2014 0.5688 0.1300
0.2223 0.5638 0.1001
0.2530 0.5788 0.1057
0.3301 0.5705 0.1068
0.4283 0.5529 0.1101
0.5020 0.5449 0.1156
0.5367 0.5487 0.1183
0.5728 0.5584 0.1169
0.6019 0.5710 0.1121
0.6299 0.5805 0.1115
0.6604 0.5849 0.1128
0.7122 0.5660 0.1006
0.7495 0.5743 0.1050
0.7783 0.5952 0.1196
0.7971 0.6159 0.1494
0.7994 0.6124 0.2217
0.8229 0.6102 0.2525
0.8359 0.6110 0.2967
0.8493 0.6205 0.3320
0.8493 0.6205 0.3320
0.8493 0.6205 0.3320
0.1898 0.5376 0.3252
0.1908 0.5392 0.3178
0.1929 0.5463 0.3028
0.1962 0.5607 0.2803
0.2024 0.5839 0.2423
0.2346 0.6226 0.1486
0.2711 0.6064 0.1187
0.3092 0.6039 0.1171
0.3878 0.5957 0.1164
0.4737 0.5887 0.1156
0.5523 0.5900 0.1177
0.5872 0.5888 0.1163
0.6185 0.5887 0.1147
0.6439 0.5973 0.1176
0.6741 0.5997 0.1171
0.7171 0.6023 0.1169
0.7581 0.6096 0.1247
0.7849 0.6309 0.1444
0.7847 0.6372 0.2113
0.7998 0.6331 0.2530
0.8214 0.6355 0.2819
0.8367 0.6368 0.3213
0.8530 0.6480 0.3504
0.8530 0.6480 0.3504
0.8530 0.6480 0.3504
0.2016 0.5640 0.3421
0.2028 0.5682 0.3345
0.2027 0.5813 0.3175
0.2027 0.6007 0.2889
0.2119 0.6062 0.2947
0.2324 0.6116 0.2964
0.2850 0.6745 0.1755
0.3209 0.6439 0.1400
0.3736 0.6316 0.1269
0.4462 0.6222 0.1272
0.5266 0.6180 0.1278
0.6042 0.6131 0.1244
0.6351 0.6117 0.1230
0.6579 0.6141 0.1237
0.6897 0.6229 0.1246
0.7229 0.6365 0.1347
0.7533 0.6586 0.1518
0.7681 0.6658 0.2031
0.7775 0.6568 0.2574
0.7956 0.6559 0.2884
0.8195 0.6588 0.3129
0.8392 0.6633 0.3429
0.8560 0.6730 0.3705
0.8560 0.6730 0.3705
0.8560 0.6730 0.3705
0.2075 0.5971 0.3562
0.2068 0.6024 0.3493
0.2069 0.6117 0.3400
0.2095 0.6208 0.3316
0.2237 0.6198 0.3463
0.2443 0.6210 0.3584
0.2900 0.6595 0.3123
0.3485 0.6979 0.2345
0.4045 0.6829 0.1785
0.4494 0.6613 0.1516
0.5296 0.6520 0.1456
0.6010 0.6422 0.1365
0.6484 0.6357 0.1307
0.6799 0.6388 0.1330
0.7035 0.6471 0.1413
0.7260 0.6669 0.1622
0.7396 0.6990 0.2028
0.7503 0.6904 0.2619
0.7712 0.6788 0.2941
0.7918 0.6730 0.3249
0.8234 0.6800 0.3375
0.8414 0.6859 0.3665
0.8636 0.6966 0.3862
0.8636 0.6966 0.3862
0.8636 0.6966 0.3862
0.2136 0.6281 0.3680
0.2119 0.6332 0.3596
0.2155 0.6360 0.3640
0.2253 0.6378 0.3769
0.2405 0.6378 0.3899
0.2640 0.6444 0.3888
0.3108 0.6715 0.3482
0.3653 0.7048 0.3036
0.4302 0.7253 0.2742
0.5016 0.7236 0.2410
0.5507 0.7013 0.1951
0.6212 0.6818 0.1745
0.6574 0.6717 0.1645
0.6915 0.6674 0.1605
0.7169 0.6786 0.1747
0.7288 0.7044 0.1990
0.7259 0.7116 0.2669
0.7442 0.7099 0.2988
0.7678 0.6989 0.3274
0.7947 0.6969 0.3464
0.8234 0.7042 0.3609
0.8469 0.7113 0.3835
0.8711 0.7194 0.4024
0.8711 0.7194 0.4024
0.8711 0.7194 0.4024
0.2239 0.6542 0.3896
0.2304 0.6533 0.3971
0.2383 0.6534 0.4063
0.2490 0.6539 0.4178
0.2631 0.6548 0.4288
0.2883 0.6665 0.4209
0.3355 0.6909 0.3793
0.3896 0.7177 0.3426
0.4444 0.7400 0.3280
0.5158 0.7484 0.3067
0.5721 0.7423 0.2822
0.6200 0.7343 0.2637
0.6520 0.7272 0.2522
0.6855 0.7199 0.2349
0.7075 0.7197 0.2405
0.7143 0.7251 0.2764
0.7290 0.7266 0.2967
0.7452 0.7256 0.3276
0.7652 0.7264 0.3516
0.7994 0.7249 0.3624
0.8274 0.7309 0.3785
0.8533 0.7370 0.3985
0.8739 0.7410 0.4355
0.8739 0.7410 0.4355
0.8739 0.7410 0.4355
0.2500 0.6705 0.4343
0.2577 0.6706 0.4395
0.2674 0.6719 0.4470
0.2794 0.6726 0.4547
0.2910 0.6764 0.4640
0.3056 0.6828 0.4726
0.3428 0.6982 0.4470
0.4133 0.7325 0.3888
0.4673 0.7578 0.3695
0.5311 0.7667 0.3509
0.5878 0.7628 0.3439
0.6250 0.7546 0.3402
0.6499 0.7476 0.3349
0.6715 0.7465 0.3308
0.6970 0.7432 0.3169
0.7177 0.7417 0.3170
0.7303 0.7442 0.3351
0.7495 0.7454 0.3480
0.7712 0.7485 0.3666
0.7978 0.7552 0.3803
0.8337 0.7554 0.3954
0.8568 0.7600 0.4266
0.8741 0.7693 0.4640
0.8741 0.7693 0.4640
0.8741 0.7693 0.4640
0.2821 0.6912 0.4756
0.2914 0.6924 0.4792
0.2990 0.6946 0.4840
0.3086 0.6966 0.4908
0.3196 0.6997 0.4985
0.3326 0.7046 0.5060
0.3482 0.7121 0.5125
0.4158 0.7378 0.4666
0.4777 0.7722 0.4308
0.5472 0.7810 0.4031
0.6023 0.7803 0.3905
0.6364 0.7733 0.3859
0.6620 0.7646 0.3779
0.6809 0.7596 0.3730
0.6988 0.7584 0.3705
0.7186 0.7603 0.3630
0.7389 0.7623 0.3600
0.7529 0.7678 0.3704
0.7745 0.7720 0.3795
0.8004 0.7790 0.3928
0.8255 0.7872 0.4163
0.8554 0.7865 0.4580
0.8804 0.7945 0.4887
0.8804 0.7945 0.4887
0.8804 0.7945 0.4887
0.3139 0.7173 0.5152
0.3210 0.7181 0.5173
0.3279 0.7187 0.5196
0.3361 0.7202 0.5232
0.3463 0.7232 0.5293
0.3603 0.7281 0.5368
0.3810 0.7371 0.5436
0.4242 0.7551 0.5289
0.4898 0.7849 0.4917
0.5607 0.7942 0.4608
0.6196 0.7954 0.4289
0.6481 0.7930 0.4190
0.6721 0.7887 0.4134
0.6947 0.7816 0.4012
0.7110 0.7790 0.3934
0.7303 0.7797 0.3857
0.7462 0.7831 0.3836
0.7639 0.7897 0.3881
0.7798 0.7991 0.3952
0.8063 0.8040 0.4056
0.8259 0.8120 0.4444
0.8490 0.8198 0.4825
0.8867 0.8191 0.5120
0.8867 0.8191 0.5120
0.8867 0.8191 0.5120
0.0617 0.0450 0.0492
0.0742 0.0526 0.0530
0.0939 0.0502 0.0478
0.1188 0.0496 0.0457
0.1500 0.0536 0.0477
0.1852 0.0570 0.0510
0.2125 0.0563 0.0541
0.2543 0.0608 0.0662
0.3082 0.0640 0.0743
0.3715 0.0752 0.0768
0.4236 0.0862 0.0772
0.4674 0.0973 0.0807
0.5279 0.1144 0.0791
0.5707 0.1314 0.0764
0.6062 0.1509 0.0682
0.6330 0.1750 0.0609
0.6495 0.1916 0.0613
0.6647 0.2081 0.0622
0.6794 0.2242 0.0633
0.6996 0.2365 0.0626
0.7287 0.2515 0.0615
0.7555 0.2987 0.0807
0.7952 0.3193 0.1053
0.7952 0.3193 0.1053
0.7952 0.3193 0.1053
0.0623 0.0605 0.0530
0.0702 0.0627 0.0597
0.0904 0.0643 0.0509
0.1160 0.0626 0.0474
0.1475 0.0684 0.0497
0.1831 0.0714 0.0529
0.2092 0.0776 0.0569
0.2392 0.0719 0.0597
0.2946 0.0618 0.0630
0.3603 0.0709 0.0686
0.4081 0.0823 0.0736
0.4592 0.1052 0.0803
0.5222 0.1246 0.0827
0.5667 0.1404 0.0782
0.5999 0.1592 0.0751
0.6326 0.1862 0.0657
0.6579 0.2132 0.0646
0.6733 0.2284 0.0653
0.6890 0.2439 0.0661
0.7035 0.2569 0.0665
0.7258 0.2711 0.0659
0.7564 0.3082 0.0822
0.7947 0.3274 0.1066
0.7947 0.3274 0.1066
0.7947 0.3274 0.1066
0.0616 0.0772 0.0606
0.0615 0.0828 0.0628
0.0865 0.0839 0.0673
0.1151 0.0774 0.0495
0.1448 0.0822 0.0515
0.1811 0.0873 0.0550
0.2046 0.0937 0.0588
0.2293 0.1003 0.0627
0.2682 0.0986 0.0667
0.3292 0.0921 0.0691
0.3967 0.0953 0.0734
0.4527 0.1156 0.0804
0.5155 0.1399 0.0878
0.5703 0.1589 0.0810
0.6041 0.1768 0.0790
0.6390 0.2042 0.0708
0.6651 0.2292 0.0677
0.6858 0.2515 0.0691
0.7014 0.2653 0.0694
0.7149 0.2748 0.0690
0.7286 0.2885 0.0701
0.7589 0.3177 0.0845
0.7961 0.3372 0.1115
0.7961 0.3372 0.1115
0.7961 0.3372 0.1115
0.0613 0.0956 0.0676
0.0609 0.1007 0.0670
0.0744 0.1109 0.0737
0.1120 0.1075 0.0611
0.1498 0.0996 0.0542
0.1821 0.1037 0.0575
0.2018 0.1115 0.0612
0.2231 0.1202 0.0651
0.2521 0.1290 0.0701
0.3023 0.1274 0.0731
0.3627 0.1314 0.0761
0.4363 0.1394 0.0824
0.5072 0.1587 0.0905
0.5642 0.1791 0.0844
0.6071 0.2037 0.0853
0.6404 0.2257 0.0773
0.6677 0.2471 0.0720
0.6923 0.2701 0.0725
0.7106 0.2821 0.0722
0.7253 0.2923 0.0718
0.7449 0.3094 0.0752
0.7658 0.3291 0.0887
0.8037 0.3515 0.1228
0.8037 0.3515 0.1228
0.8037 0.3515 0.1228
0.0611 0.1195 0.0772
0.0609 0.1217 0.0743
0.0580 0.1282 0.0690
0.1055 0.1237 0.0661
0.1504 0.1264 0.0581
0.1853 0.1255 0.0610
0.2115 0.1283 0.0646
0.2327 0.1381 0.0685
0.2618 0.1496 0.0736
0.2948 0.1657 0.0780
0.3284 0.1767 0.0813
0.3943 0.1815 0.0854
0.4775 0.1916 0.0936
0.5461 0.2134 0.0941
0.5974 0.2311 0.0910
0.6357 0.2448 0.0848
0.6662 0.2682 0.0787
0.6894 0.2871 0.0761
0.7141 0.3017 0.0755
0.7423 0.3090 0.0727
0.7659 0.3309 0.0812
0.7924 0.3510 0.1004
0.8095 0.3733 0.1411
0.8095 0.3733 0.1411
0.8095 0.3733 0.1411
0.0547 0.1479 0.0872
0.0536 0.1507 0.0855
0.0511 0.1568 0.0815
0.0649 0.1648 0.0635
0.1257 0.1494 0.0595
0.1752 0.1654 0.0649
0.2116 0.1701 0.0697
0.2451 0.1618 0.0731
0.2722 0.1715 0.0771
0.3069 0.1889 0.0817
0.3448 0.2062 0.0860
0.3849 0.2165 0.0888
0.4448 0.2267 0.0951
0.5192 0.2418 0.1026
0.5756 0.2560 0.0956
0.6157 0.2713 0.0964
0.6510 0.2861 0.0877
0.6785 0.3052 0.0822
0.7212 0.3164 0.0774
0.7672 0.3361 0.0775
0.7961 0.3581 0.0917
0.8167 0.3789 0.1181
0.8203 0.4022 0.1829
0.8203 0.4022 0.1829
0.8203 0.4022 0.1829
0.0479 0.1786 0.1030
0.0479 0.1806 0.1002
0.0475 0.1865 0.0931
0.0476 0.2060 0.0644
0.1215 0.1822 0.0635
0.1750 0.1855 0.0676
0.2065 0.2047 0.0738
0.2466 0.2125 0.0793
0.2925 0.2030 0.0826
0.3243 0.2138 0.0861
0.3629 0.2301 0.0900
0.4026 0.2415 0.0943
0.4481 0.2507 0.0986
0.4914 0.2627 0.1050
0.5482 0.2774 0.1045
0.5944 0.2932 0.1005
0.6301 0.3084 0.0986
0.6723 0.3258 0.0880
0.7332 0.3349 0.0793
0.7729 0.3557 0.0820
0.8042 0.3834 0.1001
0.8290 0.4069 0.1416
0.8293 0.4329 0.2177
0.8293 0.4329 0.2177
0.8293 0.4329 0.2177
0.0473 0.2038 0.1169
0.0470 0.2089 0.1143
0.0466 0.2161 0.1002
0.0459 0.2340 0.0775
0.0823 0.2363 0.0703
0.1856 0.2139 0.0729
0.2173 0.2254 0.0779
0.2513 0.2381 0.0836
0.3006 0.2503 0.0895
0.3478 0.2444 0.0914
0.3839 0.2554 0.0942
0.4218 0.2675 0.1003
0.4662 0.2762 0.1037
0.5081 0.2871 0.1089
0.5542 0.2990 0.1065
0.5973 0.3141 0.1036
0.6365 0.3317 0.1010
0.6883 0.3491 0.0875
0.7444 0.3531 0.0813
0.7789 0.3786 0.0877
0.8075 0.4051 0.1080
0.8262 0.4379 0.1557
0.8266 0.4508 0.2235
0.8266 0.4508 0.2235
0.8266 0.4508 0.2235
0.0463 0.2312 0.1320
0.0461 0.2379 0.1225
0.0513 0.2537 0.1036
0.0614 0.2769 0.0812
0.0795 0.2892 0.0779
0.1353 0.2675 0.0767
0.2280 0.2489 0.0826
0.2631 0.2648 0.0889
0.3206 0.2759 0.0943
0.3732 0.2858 0.0982
0.4076 0.2854 0.1006
0.4433 0.2920 0.1044
0.4840 0.3004 0.1095
0.5267 0.3116 0.1129
0.5719 0.3250 0.1075
0.6111 0.3404 0.1072
0.6489 0.3609 0.1026
0.6982 0.3729 0.0896
0.7526 0.3745 0.0839
0.7846 0.4026 0.0940
0.8103 0.4338 0.1134
0.8208 0.4628 0.1716
0.8210 0.4697 0.2319
0.8210 0.4697 0.2319
0.8210 0.4697 0.2319
0.0520 0.2649 0.1515
0.0590 0.2797 0.1363
0.0686 0.2960 0.1046
0.0742 0.3173 0.0816
0.1089 0.3250 0.0842
0.1405 0.3186 0.0846
0.1932 0.3019 0.0867
0.2878 0.2937 0.0946
0.3390 0.3056 0.0996
0.3931 0.3138 0.1029
0.4338 0.3202 0.1083
0.4696 0.3234 0.1107
0.5084 0.3330 0.1157
0.5514 0.3452 0.1149
0.5915 0.3579 0.1105
0.6245 0.3740 0.1118
0.6600 0.3890 0.1044
0.7094 0.3986 0.0926
0.7592 0.4050 0.0884
0.7897 0.4334 0.0966
0.8142 0.4629 0.1215
0.8150 0.4813 0.1836
0.8169 0.4853 0.2413
0.8169 0.4853 0.2413
0.8169 0.4853 0.2413
0.0667 0.3040 0.1730
0.0700 0.3124 0.1647
0.0781 0.3328 0.1320
0.0876 0.3554 0.0912
0.1329 0.3592 0.0901
0.1824 0.3549 0.0917
0.2147 0.3491 0.0946
0.2752 0.3371 0.1000
0.3509 0.3434 0.1055
0.4073 0.3458 0.1082
0.4557 0.3527 0.1136
0.4965 0.3610 0.1192
0.5341 0.3667 0.1211
0.5753 0.3773 0.1158
0.6113 0.3919 0.1150
0.6411 0.4053 0.1139
0.6785 0.4181 0.1024
0.7242 0.4266 0.0916
0.7676 0.4427 0.0885
0.7949 0.4688 0.0998
0.8128 0.4837 0.1308
0.8096 0.4964 0.1995
0.8187 0.5007 0.2500
0.8187 0.5007 0.2500
0.8187 0.5007 0.2500
