lut-uploads/REC709-4.cube
# Copyright: (C) Copyright 2010-2017 by IWLTBAP SAS
# Cannot be resold, shared or otherwise redistributed
# Website: https://luts.iwltbap.com
TITLE "IWLTBAP 8410 (Rec.709, sRGB, DCI-P3)"
LUT_3D_SIZE 9
0.008026 0.007385 0.007263
0.086376 0.023785 0.017193
0.212410 0.036797 0.021575
0.340275 0.041508 0.016167
0.464844 0.059280 0.009674
0.590839 0.100906 0.007801
0.709839 0.158722 0.017441
0.814953 0.229400 0.030407
0.904266 0.298279 0.049530
0.017052 0.082077 0.030166
0.091510 0.104240 0.040808
0.240169 0.124826 0.032564
0.384571 0.147660 0.021375
0.515518 0.177311 0.016174
0.641296 0.218522 0.019764
0.750702 0.267712 0.031749
0.841887 0.325545 0.049505
0.917759 0.386212 0.071392
0.002358 0.181526 0.051971
0.049451 0.207070 0.073233
0.261671 0.249071 0.071020
0.451463 0.277277 0.033208
0.597160 0.311413 0.021827
0.704881 0.346199 0.037405
0.789154 0.384003 0.055166
0.863220 0.424793 0.076885
0.933716 0.471763 0.100112
0.000000 0.300324 0.087605
0.025632 0.323435 0.107461
0.227854 0.362700 0.121837
0.456381 0.401617 0.094189
0.618029 0.429339 0.057506
0.728887 0.460328 0.068334
0.814087 0.489930 0.080001
0.884893 0.520281 0.100868
0.953110 0.557354 0.125641
0.000000 0.414124 0.128525
0.025009 0.425985 0.140637
0.164135 0.459202 0.163223
0.416475 0.492708 0.146351
0.597679 0.524727 0.119156
0.721470 0.553026 0.118435
0.813427 0.577633 0.130123
0.888861 0.604738 0.154966
0.952973 0.633942 0.193237
0.000000 0.513493 0.171322
0.025009 0.520951 0.174518
0.102783 0.534196 0.187969
0.370288 0.565347 0.211413
0.553905 0.599690 0.183790
0.698060 0.630738 0.184780
0.800661 0.654834 0.198018
0.882183 0.675560 0.220841
0.938453 0.699467 0.261204
0.000000 0.601883 0.210732
0.033083 0.604229 0.211672
0.107102 0.606130 0.220772
0.313708 0.623695 0.253373
0.515595 0.663494 0.254269
0.665212 0.703625 0.256592
0.780445 0.724322 0.262331
0.865565 0.742085 0.283535
0.924866 0.760696 0.321472
0.068291 0.676269 0.260051
0.139941 0.683665 0.270185
0.203888 0.686002 0.279807
0.319435 0.689913 0.293853
0.489586 0.725235 0.324770
0.666691 0.780423 0.340187
0.769894 0.810937 0.365220
0.858411 0.825235 0.361612
0.920776 0.835358 0.412258
0.192535 0.748596 0.320160
0.249458 0.760410 0.337776
0.304008 0.769577 0.356491
0.395947 0.786632 0.373161
0.528900 0.828750 0.411895
0.684502 0.873665 0.448235
0.813279 0.929917 0.496078
0.892067 0.948979 0.512879
0.953522 0.949860 0.510712
0.015843 0.022999 0.077519
0.091481 0.039446 0.092089
0.217021 0.047946 0.093628
0.343694 0.059028 0.084838
0.468761 0.079369 0.079811
0.599585 0.118923 0.090689
0.715850 0.173607 0.110914
0.820358 0.242936 0.130828
0.905952 0.308270 0.152542
0.019373 0.092182 0.098236
0.091271 0.115374 0.114746
0.233804 0.137377 0.110649
0.380215 0.156897 0.101661
0.512713 0.180726 0.093738
0.637372 0.218062 0.097176
0.748772 0.269207 0.110569
0.842154 0.330238 0.124509
0.918417 0.391143 0.143206
0.039618 0.201838 0.136423
0.097987 0.228171 0.162312
0.246429 0.267745 0.169582
0.452074 0.295107 0.146894
0.597168 0.323767 0.133620
0.702127 0.352255 0.119607
0.784347 0.385730 0.125371
0.860587 0.425822 0.142021
0.934111 0.478357 0.165157
0.040350 0.328451 0.179790
0.103536 0.344710 0.206104
0.187067 0.379226 0.209730
0.447641 0.418744 0.203414
0.618480 0.442062 0.165801
0.727017 0.468634 0.144808
0.811745 0.493762 0.150865
0.883316 0.522001 0.164274
0.952644 0.563621 0.197153
0.010620 0.436625 0.210815
0.066952 0.444092 0.227513
0.157068 0.477650 0.244316
0.397365 0.501553 0.241430
0.591438 0.538030 0.230326
0.720852 0.561377 0.200773
0.811847 0.582527 0.200243
0.887303 0.608363 0.220340
0.950028 0.640655 0.273163
0.014493 0.529865 0.252516
0.062067 0.530414 0.255538
0.138065 0.548593 0.263729
0.346010 0.571596 0.286561
0.547468 0.606732 0.271058
0.693788 0.637918 0.261265
0.798814 0.660164 0.266878
0.879938 0.681365 0.290676
0.937100 0.709075 0.353485
0.090143 0.609764 0.302058
0.137616 0.616082 0.308465
0.178770 0.622649 0.308113
0.311683 0.634665 0.319417
0.503043 0.667917 0.340257
0.664408 0.710770 0.341815
0.779290 0.731770 0.330230
0.865457 0.749868 0.355882
0.929856 0.775927 0.436428
0.180397 0.685377 0.356603
0.238486 0.700271 0.376758
0.279150 0.703522 0.383126
0.354911 0.712099 0.385707
0.485908 0.733911 0.404965
0.662515 0.786869 0.430730
0.772402 0.821416 0.457264
0.859349 0.835559 0.433114
0.923403 0.845526 0.487509
0.257885 0.760784 0.412395
0.313218 0.770492 0.433788
0.367071 0.779112 0.454060
0.434461 0.814176 0.467903
0.549721 0.859648 0.497744
0.701532 0.900887 0.531167
0.813833 0.936826 0.560319
0.891297 0.951401 0.569194
0.952465 0.952412 0.562886
0.009682 0.043640 0.171356
0.090070 0.064586 0.197096
0.227135 0.089588 0.203424
0.354581 0.088720 0.194038
0.485145 0.105908 0.190857
0.617949 0.143146 0.199451
0.721588 0.189531 0.211136
0.817642 0.249517 0.231030
0.903664 0.314117 0.250802
0.005856 0.112165 0.190447
0.073922 0.137453 0.208225
0.237151 0.172009 0.229595
0.382960 0.175873 0.213146
0.516744 0.194805 0.204965
0.641257 0.224026 0.202139
0.746708 0.269396 0.209305
0.838803 0.328280 0.222827
0.915539 0.391853 0.239463
0.023745 0.212200 0.222614
0.090194 0.243773 0.246581
0.235820 0.298926 0.293917
0.440981 0.330268 0.290192
0.589770 0.351111 0.274088
0.694545 0.366166 0.254192
0.779743 0.389420 0.242095
0.857975 0.427779 0.237542
0.932943 0.485231 0.264000
0.102600 0.371443 0.303899
0.147871 0.385938 0.319203
0.245810 0.430602 0.355201
0.421068 0.445380 0.333788
0.615481 0.470376 0.318255
0.726009 0.488658 0.297143
0.807634 0.503922 0.279092
0.879609 0.528807 0.269906
0.947782 0.576264 0.329469
0.155579 0.484581 0.345852
0.197101 0.492907 0.361815
0.267982 0.514429 0.386022
0.359892 0.517602 0.353221
0.585501 0.558253 0.357359
0.721828 0.579792 0.344851
0.812125 0.595260 0.322621
0.886296 0.615681 0.326781
0.948971 0.651642 0.409340
0.198074 0.569830 0.382488
0.236688 0.572946 0.392257
0.280553 0.577418 0.399898
0.343614 0.595095 0.385991
0.540368 0.617834 0.378069
0.691468 0.651886 0.383579
0.798812 0.670495 0.389782
0.878308 0.691398 0.409435
0.938409 0.720980 0.473021
0.257313 0.646891 0.433159
0.299924 0.652870 0.445539
0.327568 0.650172 0.443536
0.353865 0.657879 0.422214
0.494949 0.674453 0.422839
0.663443 0.717741 0.432380
0.777749 0.740754 0.435938
0.867703 0.760996 0.464554
0.933792 0.788305 0.519327
0.318907 0.716532 0.482014
0.371019 0.728403 0.502638
0.406400 0.729723 0.509416
0.436485 0.732353 0.500643
0.498111 0.751456 0.485909
0.659586 0.792077 0.502081
0.774918 0.829708 0.528242
0.860369 0.845362 0.518141
0.924719 0.853535 0.552454
0.362740 0.782165 0.516853
0.414679 0.793693 0.537559
0.467180 0.805268 0.559511
0.506887 0.833953 0.570271
0.586605 0.905983 0.590034
0.715893 0.925434 0.601972
0.815342 0.943129 0.616741
0.891561 0.954652 0.621810
0.951080 0.956398 0.614479
0.002873 0.071915 0.277253
0.080940 0.094847 0.298869
0.236064 0.126154 0.317174
0.365355 0.144717 0.308538
0.501944 0.152016 0.310328
0.632305 0.181094 0.311086
0.737038 0.229151 0.320408
0.828410 0.278416 0.331960
0.901367 0.325458 0.347576
0.000730 0.137475 0.285101
0.052892 0.164048 0.301741
0.219418 0.198138 0.336478
0.399722 0.240153 0.353067
0.534523 0.241329 0.341387
0.653378 0.261396 0.331681
0.755501 0.298995 0.335901
0.839217 0.341555 0.341964
0.912338 0.395877 0.362333
0.004580 0.232521 0.314440
0.062009 0.262924 0.339500
0.198842 0.311201 0.382535
0.427855 0.366303 0.421178
0.574699 0.370646 0.401575
0.684018 0.376207 0.374310
0.771862 0.396416 0.362440
0.848538 0.433455 0.366287
0.921592 0.494388 0.410762
0.069554 0.370137 0.383346
0.123840 0.387235 0.396476
0.240142 0.447877 0.445511
0.406754 0.480515 0.470938
0.594711 0.500651 0.463532
0.710706 0.514416 0.445864
0.792581 0.520441 0.423980
0.865861 0.539240 0.416311
0.935482 0.591107 0.480133
0.182907 0.515888 0.457853
0.224119 0.523420 0.463139
0.306228 0.555627 0.497345
0.412811 0.573687 0.508789
0.570874 0.579799 0.481088
0.716176 0.603068 0.483470
0.807227 0.615775 0.468333
0.882081 0.630648 0.466739
0.946344 0.667513 0.527025
0.271145 0.618064 0.505886
0.303836 0.619314 0.508572
0.352682 0.626797 0.521870
0.428555 0.640628 0.532932
0.519980 0.629099 0.487990
0.688779 0.668214 0.493416
0.798024 0.685007 0.501564
0.876862 0.702959 0.513162
0.941064 0.731231 0.557326
0.321997 0.680131 0.528838
0.366124 0.689514 0.544566
0.396478 0.688501 0.546875
0.447711 0.693128 0.550946
0.505382 0.693599 0.520540
0.659897 0.724035 0.516495
0.777332 0.750263 0.520258
0.870337 0.771082 0.546407
0.937052 0.798336 0.587732
0.379362 0.745029 0.566475
0.424639 0.755944 0.583682
0.456318 0.757559 0.589206
0.499674 0.761772 0.596139
0.546341 0.775558 0.585079
0.655227 0.796238 0.566141
0.776251 0.835991 0.590399
0.866540 0.859386 0.590986
0.933619 0.868192 0.617025
0.425507 0.810722 0.599175
0.468293 0.823716 0.616416
0.515346 0.839685 0.637856
0.567038 0.860290 0.655648
0.628595 0.941387 0.680113
0.716300 0.935050 0.656133
0.816223 0.948914 0.669535
0.891687 0.958239 0.673353
0.950176 0.960281 0.669941
0.002655 0.106384 0.382827
0.073090 0.128593 0.398132
0.229618 0.157429 0.416912
0.411890 0.214920 0.442392
0.525787 0.219772 0.432541
0.639545 0.227550 0.428371
0.745407 0.258492 0.428688
0.830784 0.311628 0.445770
0.899903 0.359558 0.467240
0.002645 0.170454 0.385929
0.051938 0.195095 0.398347
0.205454 0.229499 0.434987
0.423722 0.299857 0.487147
0.554970 0.314011 0.476047
0.660827 0.308131 0.458154
0.754868 0.332147 0.452347
0.833585 0.377802 0.465643
0.901827 0.422177 0.488920
0.000000 0.260563 0.411316
0.040734 0.288773 0.432735
0.174167 0.334701 0.467690
0.388254 0.380470 0.512125
0.572855 0.425816 0.524967
0.675403 0.413754 0.500607
0.761137 0.424221 0.487695
0.837424 0.451540 0.491497
0.908012 0.501514 0.528248
0.048685 0.384128 0.467564
0.104706 0.398536 0.477765
0.220757 0.448363 0.509693
0.363660 0.476982 0.536366
0.576595 0.523396 0.566091
0.686773 0.524939 0.552774
0.772899 0.525534 0.533903
0.848009 0.545375 0.534703
0.921900 0.598127 0.582585
0.158440 0.508614 0.520775
0.203014 0.517428 0.527600
0.293865 0.552658 0.552479
0.407442 0.589525 0.586989
0.563503 0.608242 0.599251
0.702792 0.625524 0.597408
0.796390 0.636948 0.591232
0.870641 0.645234 0.584866
0.940582 0.681793 0.623566
0.290077 0.631319 0.581615
0.330785 0.637564 0.585749
0.383499 0.648751 0.598775
0.472912 0.679035 0.630783
0.564393 0.676393 0.622636
0.686494 0.686301 0.597806
0.797943 0.704851 0.606037
0.877956 0.718550 0.608386
0.943895 0.744438 0.636620
0.391991 0.721878 0.629456
0.432807 0.730108 0.638521
0.465606 0.731420 0.644195
0.516736 0.741698 0.654544
0.573019 0.739792 0.648622
0.650064 0.728209 0.603729
0.777978 0.763588 0.603697
0.872998 0.780578 0.619777
0.941391 0.806400 0.650711
0.432155 0.778322 0.648243
0.479245 0.793659 0.668375
0.514862 0.799074 0.678260
0.554655 0.805048 0.684403
0.607054 0.819256 0.689796
0.644639 0.800490 0.627766
0.772012 0.837844 0.646069
0.871514 0.870120 0.655765
0.943522 0.882696 0.680084
0.469467 0.845093 0.674820
0.511881 0.857820 0.693035
0.559116 0.874111 0.716469
0.613314 0.901258 0.738827
0.697288 0.965370 0.781723
0.712036 0.942616 0.709083
0.812817 0.954536 0.721073
0.888615 0.961174 0.727154
0.950149 0.962967 0.731872
0.012516 0.145172 0.478424
0.085791 0.166298 0.492689
0.230145 0.194930 0.510782
0.415962 0.247346 0.545470
0.547705 0.287460 0.542767
0.658148 0.294872 0.538964
0.749767 0.312588 0.540099
0.828476 0.344725 0.545923
0.891205 0.381546 0.559010
0.010849 0.201056 0.469145
0.072346 0.230911 0.492328
0.205878 0.271761 0.534467
0.392939 0.317264 0.574569
0.574339 0.384950 0.591590
0.670766 0.375853 0.571108
0.752606 0.381273 0.562790
0.826400 0.408246 0.565147
0.889584 0.448160 0.585996
0.002849 0.293812 0.506288
0.046525 0.317529 0.521111
0.169797 0.359072 0.546609
0.351974 0.393168 0.585479
0.579564 0.470045 0.626701
0.678354 0.471690 0.607689
0.753845 0.463339 0.591954
0.825897 0.477762 0.590531
0.894215 0.522362 0.620378
0.045842 0.405469 0.548365
0.105309 0.417740 0.555752
0.213056 0.455369 0.576638
0.332251 0.481923 0.597530
0.541240 0.524773 0.634893
0.683448 0.564486 0.648196
0.759271 0.552954 0.632272
0.830206 0.559032 0.626622
0.904213 0.600394 0.656450
0.158009 0.515926 0.589243
0.200236 0.522294 0.594332
0.282482 0.550403 0.610075
0.385972 0.585131 0.635491
0.523773 0.599014 0.650286
0.694220 0.643160 0.679589
0.777356 0.640812 0.670753
0.850693 0.643831 0.662946
0.924856 0.682482 0.693350
0.275102 0.623263 0.631779
0.315568 0.629552 0.637272
0.375634 0.645070 0.646829
0.462498 0.674798 0.674492
0.569558 0.697752 0.696164
0.689385 0.709536 0.698704
0.797186 0.724988 0.698183
0.877621 0.735287 0.698669
0.946282 0.761588 0.720609
0.393459 0.722821 0.679578
0.439536 0.734703 0.690269
0.476661 0.739749 0.696219
0.536943 0.759829 0.717450
0.604560 0.782916 0.740798
0.686058 0.767624 0.717226
0.780216 0.781419 0.695442
0.877590 0.796432 0.702153
0.947467 0.817002 0.720731
0.478889 0.812853 0.729740
0.522004 0.828780 0.746387
0.553875 0.833435 0.755318
0.604967 0.853330 0.775806
0.655833 0.870269 0.788822
0.692675 0.841609 0.741409
0.758555 0.835762 0.704872
0.871924 0.877669 0.723722
0.949463 0.890333 0.736914
0.514190 0.879845 0.755505
0.558343 0.895248 0.776893
0.607768 0.914692 0.803748
0.684367 0.965932 0.850772
0.729046 0.978558 0.858105
0.747683 0.963521 0.800500
0.796104 0.954870 0.768411
0.881085 0.960644 0.781230
0.949451 0.964623 0.792954
0.052986 0.177764 0.549743
0.128304 0.205620 0.579059
0.241743 0.235634 0.595968
0.398574 0.271626 0.620670
0.587517 0.358135 0.652664
0.664976 0.352870 0.627382
0.756235 0.374935 0.634153
0.823863 0.395418 0.639512
0.882538 0.424652 0.653167
0.054596 0.237357 0.551613
0.123574 0.275648 0.591243
0.221572 0.310359 0.620401
0.380545 0.343065 0.647223
0.574163 0.410254 0.673911
0.670517 0.432670 0.658328
0.755468 0.441306 0.654640
0.820356 0.456877 0.659315
0.881548 0.491509 0.681538
0.055708 0.332889 0.599582
0.103929 0.351331 0.606850
0.190058 0.379448 0.617632
0.330195 0.410763 0.648504
0.543995 0.467093 0.687984
0.683467 0.522221 0.693664
0.757536 0.522788 0.688767
0.820773 0.531288 0.691249
0.887389 0.567621 0.718546
0.072496 0.427684 0.619913
0.126888 0.437711 0.625185
0.216683 0.465351 0.638542
0.314454 0.492758 0.655313
0.501717 0.523262 0.690381
0.700409 0.600858 0.730564
0.765420 0.599940 0.721994
0.827628 0.603698 0.723347
0.899455 0.636107 0.748412
0.175644 0.529698 0.653622
0.214547 0.533980 0.657373
0.285147 0.555488 0.668143
0.374844 0.585032 0.686671
0.487751 0.595240 0.699305
0.682386 0.647881 0.744619
0.782122 0.674687 0.755324
0.842547 0.672430 0.751752
0.911118 0.694977 0.765430
0.280467 0.627970 0.689423
0.318836 0.633198 0.694875
0.373560 0.646681 0.702541
0.451224 0.671579 0.720432
0.542216 0.690657 0.738471
0.659722 0.701161 0.748239
0.796540 0.743506 0.777843
0.862492 0.738596 0.768937
0.931050 0.762739 0.784991
0.378134 0.715515 0.723685
0.420000 0.725177 0.733927
0.465843 0.735766 0.740898
0.527874 0.757561 0.760501
0.601195 0.785035 0.787913
0.708001 0.803952 0.802097
0.789358 0.802522 0.788118
0.879684 0.815436 0.786548
0.948715 0.833288 0.797621
0.459382 0.802796 0.765738
0.502038 0.818323 0.780909
0.540794 0.829575 0.793048
0.597708 0.855217 0.818457
0.659685 0.885078 0.846213
0.741968 0.893230 0.848804
0.777793 0.864093 0.796129
0.872286 0.887984 0.800602
0.955181 0.898281 0.800217
0.531501 0.895378 0.817528
0.566375 0.905158 0.828832
0.609043 0.924927 0.853369
0.682812 0.970405 0.897481
0.726261 0.974808 0.903705
0.791286 0.973434 0.891350
0.808363 0.963753 0.842133
0.869401 0.961384 0.830564
0.947960 0.964355 0.844513
0.115517 0.213230 0.615848
0.181700 0.248126 0.659279
0.270110 0.280156 0.680922
0.407193 0.309998 0.696568
0.581093 0.376063 0.721079
0.690296 0.424396 0.720774
0.755895 0.425091 0.709712
0.820312 0.454004 0.725872
0.875046 0.473931 0.735844
0.123424 0.286896 0.645949
0.182393 0.319673 0.679092
0.258810 0.344802 0.694337
0.376493 0.372302 0.712458
0.548646 0.417930 0.731084
0.693398 0.494827 0.743336
0.752463 0.490435 0.729522
0.819395 0.512018 0.743929
0.876552 0.536846 0.760725
0.132575 0.370923 0.679223
0.168249 0.386273 0.682066
0.235751 0.407200 0.688085
0.330424 0.434961 0.707693
0.517098 0.477020 0.742453
0.697688 0.552161 0.766805
0.764064 0.562338 0.760644
0.824512 0.574060 0.767810
0.889999 0.607658 0.794844
0.122127 0.451389 0.685605
0.165777 0.462181 0.691126
0.237449 0.482154 0.698868
0.321612 0.506503 0.712591
0.479923 0.533319 0.746085
0.687109 0.601733 0.789911
0.788917 0.637647 0.798366
0.840604 0.642595 0.798944
0.908022 0.676313 0.826961
0.201719 0.545450 0.712799
0.241572 0.551233 0.718739
0.302858 0.568432 0.727788
0.383508 0.593904 0.744488
0.477083 0.608131 0.758102
0.666119 0.651183 0.803472
0.815903 0.712254 0.837032
0.862517 0.712517 0.831592
0.921404 0.740267 0.851770
0.293481 0.636334 0.746692
0.330044 0.641041 0.753131
0.381084 0.654465 0.760923
0.454545 0.678553 0.777587
0.539740 0.701441 0.796076
0.641005 0.701979 0.802587
0.806151 0.759327 0.845005
0.873866 0.776225 0.852859
0.933136 0.796425 0.867507
0.377740 0.720020 0.779493
0.414437 0.726947 0.787763
0.459712 0.738495 0.795423
0.521333 0.759593 0.810531
0.591662 0.786482 0.835219
0.681747 0.790249 0.838544
0.779563 0.802297 0.844495
0.882638 0.835112 0.865163
0.941920 0.841737 0.865848
0.445118 0.797157 0.809319
0.484608 0.809795 0.823088
0.529336 0.825821 0.836902
0.586535 0.850746 0.858020
0.644705 0.877697 0.883436
0.727942 0.890203 0.891385
0.826141 0.908627 0.903135
0.885269 0.909294 0.888300
0.958903 0.914069 0.879552
0.502357 0.878613 0.847794
0.538521 0.889366 0.859937
0.589968 0.914854 0.884624
0.662566 0.960630 0.928436
0.708029 0.965193 0.933332
0.783453 0.968229 0.931605
0.848230 0.970230 0.927204
0.884706 0.966371 0.901955
0.948997 0.966324 0.902054
0.179352 0.259735 0.693878
0.247261 0.302185 0.745739
0.318603 0.329872 0.762237
0.426792 0.357315 0.769940
0.570175 0.396698 0.781143
0.705883 0.473259 0.793369
0.772507 0.489731 0.794182
0.821933 0.496475 0.792950
0.875854 0.515778 0.805725
0.194714 0.341713 0.740269
0.247339 0.364837 0.757137
0.307980 0.383845 0.765220
0.389340 0.409609 0.777086
0.536554 0.440496 0.788121
0.698314 0.513753 0.807206
0.780091 0.549542 0.814211
0.824785 0.549107 0.809684
0.883976 0.571865 0.827713
0.196404 0.410202 0.749802
0.233731 0.424689 0.753929
0.293102 0.441269 0.759577
0.371298 0.466266 0.774997
0.511143 0.499390 0.801269
0.686651 0.558183 0.825578
0.800737 0.615200 0.844416
0.850109 0.618000 0.845778
0.904961 0.640190 0.862267
0.195400 0.482975 0.754849
0.237705 0.495958 0.762337
0.291264 0.510246 0.767621
0.363807 0.531246 0.779197
0.492466 0.560974 0.807796
0.686541 0.620759 0.852128
0.820714 0.679239 0.879226
0.881153 0.695813 0.887226
0.925892 0.707916 0.894135
0.231445 0.562531 0.770905
0.276022 0.572037 0.780146
0.336475 0.591663 0.791405
0.419886 0.622335 0.811716
0.517563 0.640953 0.828781
0.695475 0.686012 0.874876
0.829170 0.738254 0.901459
0.901373 0.767838 0.916777
0.941437 0.771805 0.918579
0.308944 0.646011 0.799984
0.348500 0.653390 0.809193
0.412939 0.677585 0.825527
0.494208 0.711439 0.850117
0.581570 0.730785 0.867333
0.676188 0.732717 0.871931
0.815321 0.779702 0.903993
0.905996 0.820708 0.930008
0.950016 0.829281 0.934319
0.379204 0.724029 0.830688
0.417569 0.732283 0.839456
0.475166 0.754280 0.855488
0.541287 0.782218 0.877019
0.620133 0.812027 0.900807
0.697106 0.807590 0.898586
0.778086 0.810566 0.897862
0.888982 0.852811 0.925102
0.953384 0.875595 0.941734
0.439281 0.799347 0.860810
0.475910 0.808175 0.869996
0.527857 0.831365 0.888987
0.584947 0.855294 0.905819
0.644096 0.880907 0.928005
0.723033 0.885654 0.929673
0.807381 0.893238 0.932507
0.891250 0.910237 0.942783
0.959758 0.926381 0.949921
0.491974 0.875885 0.891571
0.528370 0.886967 0.903900
0.578118 0.909096 0.920921
0.650547 0.953666 0.961067
0.696473 0.959626 0.965836
0.769169 0.961163 0.963917
0.841438 0.964203 0.962319
0.909325 0.968140 0.962322
0.954407 0.970154 0.953308
