lut-uploads/REC709-8.cube
# Copyright: (C) Copyright 2010-2017 by IWLTBAP SAS
# Cannot be resold, shared or otherwise redistributed
# Website: https://luts.iwltbap.com
TITLE "IWLTBAP 9440 (Rec.709, sRGB, DCI-P3)"
LUT_3D_SIZE 5
0.043335 0.048004 0.065704
0.220524 0.049988 0.083105
0.567425 0.051034 0.089628
0.875009 0.059824 0.100873
0.953583 0.066193 0.115295
0.044841 0.208441 0.145731
0.149639 0.239169 0.065850
0.513513 0.281747 0.053964
0.864764 0.324640 0.063976
0.955156 0.370101 0.077485
0.051026 0.463533 0.298128
0.103295 0.483123 0.258879
0.287244 0.539400 0.059224
0.759938 0.571497 0.058929
0.897278 0.603678 0.066193
0.168229 0.731426 0.508781
0.256782 0.731716 0.511619
0.407302 0.775698 0.400116
0.622302 0.789521 0.304714
0.790625 0.801542 0.292893
0.327240 0.851990 0.585632
0.386821 0.851776 0.586634
0.493632 0.872264 0.529594
0.659651 0.880636 0.416141
0.792053 0.881836 0.408936
0.054519 0.058891 0.191655
0.200033 0.051436 0.235519
0.550842 0.051026 0.291996
0.881531 0.058929 0.329818
0.955614 0.066223 0.365762
0.043075 0.227760 0.312125
0.243410 0.263447 0.268213
0.617793 0.262058 0.298127
0.889150 0.290721 0.293713
0.961571 0.349877 0.323867
0.061648 0.466543 0.496182
0.191114 0.501524 0.483005
0.488149 0.546261 0.315187
0.855324 0.575304 0.205973
0.957261 0.607575 0.255617
0.159735 0.723257 0.628425
0.294136 0.743651 0.659700
0.495927 0.782910 0.551614
0.698513 0.801541 0.432509
0.851942 0.813407 0.414161
0.344428 0.850773 0.667168
0.417268 0.858481 0.692345
0.548266 0.884535 0.616625
0.721842 0.894178 0.519756
0.837022 0.894746 0.499443
0.051026 0.083494 0.377659
0.157809 0.068445 0.438078
0.497991 0.051361 0.498688
0.858078 0.135280 0.566359
0.952595 0.240316 0.604337
0.051026 0.237455 0.443721
0.174790 0.263729 0.460635
0.547928 0.221726 0.524793
0.871384 0.319585 0.582780
0.961346 0.380885 0.621894
0.065062 0.468623 0.622814
0.156963 0.496741 0.629515
0.588221 0.544965 0.564075
0.880482 0.573056 0.578796
0.968052 0.607342 0.611556
0.211340 0.706718 0.732245
0.344882 0.726896 0.742908
0.600700 0.774419 0.717484
0.792216 0.803661 0.617734
0.929538 0.820697 0.611144
0.368545 0.834275 0.755951
0.450867 0.845704 0.765362
0.647494 0.879597 0.760003
0.815644 0.908457 0.688496
0.915635 0.909498 0.665060
0.058929 0.117016 0.613814
0.115306 0.112496 0.676451
0.493031 0.069327 0.741832
0.821148 0.113536 0.781048
0.929813 0.243640 0.793443
0.058929 0.190535 0.611402
0.112338 0.202931 0.686863
0.507584 0.180714 0.762119
0.834857 0.233564 0.795616
0.938370 0.323105 0.805284
0.059793 0.483795 0.748447
0.118396 0.511382 0.769546
0.558058 0.546898 0.760330
0.861761 0.550798 0.803404
0.955995 0.609337 0.818424
0.241975 0.698358 0.801826
0.367761 0.718314 0.811118
0.617450 0.755078 0.823206
0.863014 0.792647 0.806795
0.964699 0.812016 0.818883
0.401010 0.833668 0.818021
0.478383 0.846115 0.829050
0.662147 0.872688 0.841020
0.875858 0.911098 0.834490
0.962958 0.914102 0.826516
0.066193 0.166687 0.788055
0.167214 0.176347 0.829686
0.555921 0.209745 0.884447
0.830539 0.226569 0.884390
0.927887 0.274200 0.883820
0.066193 0.238412 0.788439
0.162656 0.257825 0.834712
0.577576 0.296633 0.896123
0.844977 0.313808 0.896317
0.934537 0.352667 0.893599
0.089654 0.508749 0.863484
0.215555 0.543832 0.884653
0.609862 0.586581 0.881552
0.873342 0.584828 0.906188
0.961167 0.602400 0.906432
0.338737 0.723412 0.891237
0.433701 0.743453 0.902819
0.650684 0.778459 0.911666
0.875744 0.806267 0.912547
0.964445 0.808562 0.914413
0.429718 0.841553 0.892883
0.501760 0.854343 0.903635
0.666186 0.878556 0.913752
0.877938 0.909932 0.913749
0.975281 0.924225 0.923767
