lut-uploads/REC709-4.cube
# Copyright: (C) Copyright 2010-2017 by IWLTBAP SAS
# Cannot be resold, shared or otherwise redistributed
# Website: https://luts.iwltbap.com
TITLE "IWLTBAP 8410 (Rec.709, sRGB, DCI-P3)"
LUT_3D_SIZE 33
0.008026 0.007385 0.007263
0.015418 0.009041 0.009629
0.036913 0.014387 0.012909
0.060262 0.019331 0.014948
0.086376 0.023785 0.017193
0.115352 0.027315 0.018800
0.145973 0.031037 0.020233
0.178959 0.034320 0.021128
0.212410 0.036797 0.021575
0.245869 0.038656 0.021514
0.279251 0.039804 0.020762
0.311117 0.041262 0.018965
0.340275 0.041508 0.016167
0.371103 0.042939 0.013867
0.402670 0.045818 0.012024
0.433683 0.051331 0.010569
0.464844 0.059280 0.009674
0.495403 0.067917 0.008636
0.525883 0.077411 0.007393
0.557775 0.088303 0.006862
0.590839 0.100906 0.007801
0.623749 0.114653 0.010047
0.654846 0.128857 0.012483
0.683134 0.143547 0.014820
0.709839 0.158722 0.017441
0.735987 0.175014 0.020750
0.762410 0.192627 0.024735
0.789499 0.211065 0.027394
0.814953 0.229400 0.030407
0.839351 0.247364 0.033890
0.863110 0.265173 0.038261
0.884518 0.282255 0.044268
0.904266 0.298279 0.049530
0.010421 0.022640 0.012821
0.018270 0.025327 0.016218
0.038672 0.029930 0.019088
0.062108 0.034983 0.021043
0.090334 0.040463 0.022222
0.121355 0.045034 0.023454
0.154006 0.048827 0.024461
0.187640 0.052041 0.025197
0.221117 0.055326 0.025116
0.253965 0.058351 0.024268
0.285957 0.060581 0.022441
0.318033 0.062817 0.020014
0.349222 0.064683 0.017323
0.380475 0.067805 0.015097
0.412456 0.073003 0.013206
0.443462 0.079420 0.011234
0.473713 0.087086 0.009615
0.504819 0.096172 0.008976
0.536939 0.106382 0.009444
0.569509 0.117294 0.010648
0.601457 0.128741 0.012236
0.631922 0.141018 0.014212
0.661110 0.153947 0.016619
0.688645 0.167909 0.019701
0.714850 0.182883 0.022991
0.742002 0.199278 0.025554
0.771286 0.217804 0.027837
0.798548 0.236056 0.030328
0.823298 0.253606 0.034117
0.846885 0.271166 0.039432
0.868243 0.287512 0.044476
0.888597 0.303546 0.050107
0.908316 0.319713 0.054940
0.013673 0.040384 0.018693
0.021538 0.042495 0.022040
0.040483 0.048664 0.026021
0.063075 0.052894 0.026416
0.094471 0.058260 0.026540
0.127122 0.063606 0.027493
0.160230 0.068841 0.028297
0.193279 0.073584 0.028522
0.226297 0.077388 0.027691
0.259074 0.080604 0.026596
0.290584 0.083204 0.024884
0.324152 0.086669 0.022620
0.358651 0.091097 0.019903
0.391725 0.096412 0.017252
0.423858 0.102668 0.015088
0.455493 0.109548 0.013177
0.486945 0.117565 0.011744
0.518534 0.126571 0.011126
0.549846 0.136082 0.011675
0.580679 0.146170 0.013389
0.610804 0.156643 0.015612
0.639811 0.167937 0.018323
0.668114 0.180309 0.021231
0.696255 0.194007 0.023615
0.724868 0.209698 0.025330
0.753666 0.226607 0.027086
0.781941 0.244371 0.030153
0.807716 0.261726 0.034648
0.830476 0.278123 0.039612
0.851915 0.294207 0.044680
0.873012 0.310624 0.048967
0.893268 0.326437 0.054642
0.911823 0.341804 0.061152
0.017481 0.058820 0.024384
0.025265 0.061103 0.027698
0.040690 0.067904 0.032660
0.063423 0.075322 0.034992
0.095990 0.079752 0.032397
0.130977 0.085341 0.031430
0.165263 0.090471 0.031586
0.199508 0.095556 0.030872
0.232874 0.100391 0.030053
0.267842 0.105194 0.028504
0.301122 0.109702 0.026592
0.336309 0.114713 0.023978
0.371094 0.119866 0.021138
0.404021 0.125331 0.018467
0.436434 0.131795 0.016356
0.468672 0.138893 0.014699
0.500627 0.146945 0.013836
0.531942 0.155982 0.014086
0.562365 0.165313 0.015384
0.592127 0.175048 0.017520
0.622181 0.185595 0.019440
0.652580 0.197214 0.020945
0.681663 0.209878 0.022804
0.710326 0.223734 0.024575
0.738130 0.238703 0.027016
0.765814 0.254667 0.030864
0.791701 0.270516 0.035567
0.814235 0.285837 0.040406
0.836136 0.301661 0.044966
0.857155 0.317357 0.049822
0.877345 0.333056 0.054861
0.896575 0.348501 0.061635
0.914731 0.364057 0.066864
0.017052 0.082077 0.030166
0.025111 0.084539 0.033814
0.039190 0.089396 0.038906
0.059360 0.097645 0.042685
0.091510 0.104240 0.040808
0.131129 0.108743 0.037267
0.168874 0.113894 0.035484
0.205183 0.119554 0.034122
0.240169 0.124826 0.032564
0.276302 0.130281 0.030301
0.312236 0.135938 0.027662
0.348818 0.141583 0.024610
0.384571 0.147660 0.021375
0.418108 0.154065 0.018841
0.450997 0.161174 0.017345
0.483545 0.168962 0.016443
0.515518 0.177311 0.016174
0.547703 0.186897 0.016374
0.580031 0.197356 0.016988
0.611277 0.207801 0.018277
0.641296 0.218522 0.019764
0.670533 0.229675 0.021304
0.698379 0.241535 0.023717
0.725381 0.254485 0.027550
0.750702 0.267712 0.031749
0.775315 0.281592 0.036201
0.799159 0.296077 0.040288
0.820616 0.310357 0.044837
0.841887 0.325545 0.049505
0.861890 0.340825 0.055856
0.881005 0.355646 0.061760
0.899895 0.370993 0.067265
0.917759 0.386212 0.071392
0.014723 0.105667 0.035729
0.023322 0.108748 0.039949
0.036189 0.113315 0.045112
0.053071 0.120513 0.048556
0.081584 0.127496 0.049291
0.124387 0.133627 0.045489
0.168481 0.138984 0.041481
0.208848 0.144472 0.038515
0.246688 0.150716 0.035755
0.283703 0.156476 0.033095
0.323060 0.163136 0.029385
0.361346 0.169362 0.025537
0.398234 0.175808 0.021814
0.433177 0.183198 0.019534
0.468448 0.192057 0.018411
0.504371 0.201772 0.016818
0.538673 0.211461 0.015745
0.571062 0.221191 0.016071
0.602439 0.231179 0.017102
0.632832 0.241281 0.018711
0.661496 0.251515 0.021414
0.688205 0.262015 0.025123
0.713248 0.272634 0.028634
0.737151 0.283931 0.032341
0.760970 0.295967 0.036220
0.784277 0.308671 0.040470
0.806658 0.322203 0.044740
0.826993 0.335834 0.050255
0.846852 0.349966 0.056308
0.866491 0.364929 0.062460
0.885232 0.379622 0.066481
0.903393 0.393319 0.072754
0.921345 0.407737 0.078990
0.009973 0.131138 0.041332
0.018473 0.134402 0.045288
0.029625 0.137716 0.049615
0.045888 0.144016 0.054077
0.071053 0.151056 0.056454
0.111978 0.158852 0.055936
0.161913 0.165799 0.051257
0.209682 0.172318 0.045769
0.251693 0.177833 0.040841
0.291466 0.183693 0.036271
0.333467 0.191091 0.031905
0.374936 0.199451 0.027773
0.415070 0.208031 0.024233
0.454183 0.217308 0.021150
0.492185 0.226949 0.018629
0.529481 0.236637 0.015942
0.564026 0.246327 0.015052
0.594717 0.255460 0.016249
0.623506 0.264348 0.018733
0.651313 0.273633 0.022737
0.677648 0.283173 0.026723
0.702472 0.293089 0.030605
0.726130 0.303241 0.034122
0.748797 0.313717 0.037454
0.771425 0.325048 0.041526
0.793155 0.336829 0.046421
0.813380 0.349090 0.051813
0.833161 0.362207 0.057688
0.852450 0.375603 0.063331
0.871359 0.389259 0.068334
0.889675 0.402418 0.073793
0.907357 0.415089 0.080376
0.925308 0.429369 0.086764
0.003679 0.155880 0.046306
0.011049 0.158376 0.049555
0.019759 0.161129 0.053017
0.036450 0.167318 0.058774
0.060368 0.175794 0.063226
0.100469 0.185046 0.066016
0.153018 0.196188 0.066789
0.208465 0.205383 0.060954
0.258790 0.212297 0.053379
0.304836 0.218506 0.045515
0.349870 0.225524 0.038512
0.393571 0.234430 0.032654
0.435654 0.243692 0.027699
0.476920 0.253196 0.023179
0.514535 0.262100 0.019409
0.549340 0.270517 0.016405
0.582143 0.279189 0.016509
0.611969 0.287809 0.019933
0.640411 0.296476 0.024001
0.667606 0.305484 0.028154
0.692513 0.314645 0.032160
0.715900 0.324138 0.035777
0.737763 0.334037 0.039428
0.759187 0.344020 0.043241
0.780466 0.354428 0.048244
0.800972 0.365467 0.053316
0.820108 0.376834 0.058892
0.839196 0.388726 0.064565
0.857879 0.400501 0.070363
0.876131 0.412392 0.076117
0.894153 0.424844 0.081722
0.911593 0.436878 0.087846
0.929400 0.450372 0.094265
0.002358 0.181526 0.051971
0.009135 0.184113 0.055290
0.016134 0.187143 0.058809
0.026653 0.195401 0.065598
0.049451 0.207070 0.073233
0.087307 0.215584 0.077110
0.143866 0.227386 0.080471
0.203272 0.239480 0.078447
0.261671 0.249071 0.071020
0.316028 0.256350 0.061194
0.364636 0.262565 0.050918
0.409300 0.269400 0.041556
0.451463 0.277277 0.033208
0.491586 0.285728 0.026220
0.528579 0.294200 0.021988
0.563328 0.302666 0.020788
0.597160 0.311413 0.021827
0.627631 0.320059 0.025278
0.655242 0.328575 0.029707
0.681507 0.337366 0.033539
0.704881 0.346199 0.037405
0.726882 0.355203 0.040995
0.747975 0.364653 0.044843
0.768792 0.374332 0.049699
0.789154 0.384003 0.055166
0.808137 0.393514 0.060028
0.826585 0.403446 0.065375
0.844894 0.413714 0.071464
0.863220 0.424793 0.076885
0.881063 0.435836 0.082556
0.898749 0.447036 0.088455
0.916014 0.458445 0.094355
0.933716 0.471763 0.100112
0.000678 0.211439 0.060604
0.007317 0.213875 0.063791
0.013960 0.216912 0.067343
0.023117 0.225451 0.073939
0.038402 0.238278 0.082922
0.073757 0.247365 0.087938
0.132978 0.257127 0.091215
0.195438 0.269329 0.092139
0.255287 0.280475 0.087174
0.317405 0.290824 0.078361
0.371393 0.297751 0.067633
0.418250 0.303127 0.055496
0.462026 0.309734 0.042895
0.502367 0.317272 0.032873
0.539245 0.325423 0.027819
0.573853 0.333915 0.027540
0.607144 0.342672 0.029562
0.637499 0.351339 0.033051
0.665383 0.360075 0.036658
0.692154 0.369253 0.039281
0.715570 0.378045 0.042951
0.736487 0.386302 0.047145
0.757349 0.394569 0.050886
0.777803 0.403258 0.055380
0.797073 0.411756 0.060620
0.815012 0.420210 0.065941
0.832970 0.429489 0.071012
0.850798 0.438981 0.076946
0.868592 0.448730 0.082930
0.886207 0.459118 0.088535
0.903759 0.469819 0.094162
0.920951 0.480805 0.100085
0.938355 0.493097 0.105932
0.000000 0.240536 0.068966
0.006358 0.243786 0.072598
0.012745 0.247537 0.076602
0.020652 0.254939 0.082846
0.030448 0.267438 0.091305
0.058533 0.278931 0.098020
0.117724 0.286751 0.101080
0.185670 0.297307 0.103055
0.247216 0.309299 0.100121
0.308939 0.320543 0.093530
0.367929 0.329417 0.084359
0.419263 0.335928 0.072468
0.465150 0.341719 0.057771
0.506800 0.348229 0.044582
0.544606 0.355828 0.037364
0.580019 0.364243 0.035820
0.613140 0.373191 0.037879
0.643694 0.382062 0.041561
0.672287 0.390633 0.044652
0.699077 0.399212 0.046995
0.722506 0.407294 0.050400
0.743284 0.414866 0.054231
0.765424 0.423069 0.056622
0.786542 0.431472 0.059795
0.804628 0.439215 0.065236
0.821849 0.446767 0.071441
0.839451 0.455094 0.076714
0.856913 0.463956 0.082483
0.874314 0.472976 0.088421
0.891740 0.482738 0.094032
0.909010 0.492579 0.099847
0.925917 0.502639 0.105238
0.943253 0.514605 0.111170
0.000000 0.270182 0.078052
0.006238 0.273867 0.081866
0.012974 0.277831 0.086306
0.020159 0.284309 0.092194
0.027227 0.295709 0.099357
0.044675 0.308313 0.106428
0.099349 0.316735 0.110424
0.172426 0.325374 0.112988
0.238463 0.336862 0.110908
0.298676 0.348163 0.105239
0.357372 0.358059 0.098825
0.413020 0.366380 0.089612
0.462722 0.373149 0.076013
0.506646 0.379316 0.060715
0.546104 0.385939 0.050048
0.582818 0.393551 0.045746
0.616974 0.401756 0.046942
0.648078 0.410194 0.050940
0.676637 0.418638 0.054313
0.702922 0.426887 0.056640
0.726766 0.434894 0.058785
0.749135 0.442469 0.061278
0.771550 0.450140 0.063662
0.792427 0.457850 0.066840
0.810167 0.465078 0.072108
0.827361 0.472382 0.077916
0.845681 0.480512 0.082343
0.863152 0.488797 0.087494
0.880098 0.496994 0.094207
0.896972 0.505585 0.099943
0.914299 0.514912 0.105299
0.931004 0.524341 0.109960
0.948319 0.535956 0.117309
0.000000 0.300324 0.087605
0.006238 0.304001 0.091592
0.012773 0.307592 0.095869
0.019362 0.313296 0.101231
0.025632 0.323435 0.107461
0.037824 0.335723 0.113661
0.079661 0.345866 0.119255
0.155560 0.352944 0.122452
0.227854 0.362700 0.121837
0.290591 0.373873 0.115947
0.346288 0.383850 0.111054
0.402548 0.393231 0.105002
0.456381 0.401617 0.094189
0.503750 0.408588 0.079145
0.545362 0.415162 0.066042
0.583071 0.422011 0.058985
0.618029 0.429339 0.057506
0.649859 0.437067 0.059754
0.678439 0.444890 0.063397
0.704503 0.452651 0.066301
0.728887 0.460328 0.068334
0.752517 0.467938 0.070696
0.774745 0.475343 0.073394
0.795223 0.482725 0.076403
0.814087 0.489930 0.080001
0.831651 0.496898 0.084925
0.850088 0.504546 0.089322
0.868239 0.512450 0.094159
0.884893 0.520281 0.100868
0.901576 0.528234 0.106179
0.919007 0.536893 0.111176
0.936111 0.545869 0.116617
0.953110 0.557354 0.125641
0.000000 0.330143 0.097493
0.006238 0.333738 0.101480
0.012505 0.337043 0.105381
0.018744 0.342033 0.110139
0.025009 0.350724 0.115842
0.034526 0.361761 0.120642
0.062041 0.373063 0.126885
0.135718 0.379614 0.131403
0.214246 0.387875 0.133133
0.282296 0.398266 0.127836
0.338291 0.408248 0.121832
0.391583 0.417777 0.118073
0.446396 0.426929 0.110672
0.497471 0.435003 0.097851
0.541903 0.442069 0.084306
0.580842 0.448760 0.075207
0.616127 0.455634 0.071320
0.648441 0.462738 0.071116
0.677472 0.469940 0.073063
0.703862 0.477220 0.075502
0.729073 0.484520 0.077959
0.753425 0.491859 0.080635
0.775737 0.499018 0.083453
0.795931 0.505985 0.086414
0.815492 0.513093 0.089672
0.834036 0.520219 0.094133
0.852300 0.527551 0.098877
0.870779 0.535067 0.103184
0.888078 0.542603 0.108506
0.904605 0.550218 0.114859
0.922001 0.558580 0.121030
0.939463 0.567222 0.128083
0.956127 0.578050 0.138978
0.000000 0.359241 0.107668
0.006238 0.362440 0.111188
0.012505 0.365356 0.114726
0.018744 0.369553 0.118902
0.025009 0.376489 0.124114
0.032107 0.386603 0.127949
0.050629 0.397915 0.133648
0.116146 0.405273 0.140034
0.198352 0.412518 0.143816
0.271368 0.421518 0.140963
0.330873 0.431469 0.133729
0.382819 0.441219 0.129136
0.434828 0.450582 0.125280
0.487177 0.459277 0.116041
0.534852 0.466615 0.102392
0.576220 0.473598 0.091626
0.612293 0.480587 0.086774
0.644591 0.487296 0.085413
0.674038 0.493970 0.085307
0.701258 0.500711 0.086226
0.727633 0.507658 0.088187
0.752592 0.514663 0.090790
0.774944 0.521600 0.094267
0.795530 0.528421 0.097672
0.815235 0.535190 0.101249
0.834533 0.542324 0.105058
0.852959 0.549493 0.109959
0.871227 0.556713 0.114954
0.888963 0.564058 0.120877
0.906127 0.571554 0.128042
0.923380 0.579662 0.135856
0.940584 0.587981 0.144775
0.956541 0.597829 0.157419
0.000000 0.387108 0.118013
0.006238 0.389878 0.120875
0.012505 0.392222 0.123879
0.018744 0.395879 0.127618
0.025009 0.401388 0.132308
0.031251 0.410363 0.135710
0.042492 0.420722 0.140145
0.097634 0.429717 0.148048
0.181066 0.436533 0.153917
0.257835 0.444028 0.154315
0.321441 0.453279 0.147762
0.375296 0.462993 0.139983
0.424599 0.472396 0.136511
0.474631 0.481512 0.131711
0.523591 0.489182 0.120546
0.568018 0.496349 0.108703
0.606262 0.503795 0.102610
0.639127 0.510754 0.101026
0.669041 0.517256 0.100338
0.697464 0.523746 0.100368
0.724906 0.530317 0.101540
0.750286 0.536842 0.103397
0.772901 0.543378 0.106660
0.794372 0.550131 0.110383
0.814653 0.556795 0.114535
0.834113 0.563627 0.118820
0.852818 0.570547 0.124128
0.871112 0.577532 0.130139
0.888915 0.584714 0.137077
0.906554 0.592198 0.144956
0.923735 0.600015 0.154204
0.940452 0.607638 0.163580
0.955316 0.616485 0.176130
0.000000 0.414124 0.128525
0.006238 0.416533 0.130890
0.012505 0.418270 0.133198
0.018744 0.421533 0.136541
0.025009 0.425985 0.140637
0.031251 0.433218 0.143736
0.038345 0.442842 0.146814
0.081592 0.452193 0.154937
0.164135 0.459202 0.163223
0.243129 0.466045 0.166643
0.309732 0.474132 0.162560
0.366544 0.483382 0.153241
0.416475 0.492708 0.146351
0.463491 0.501779 0.143471
0.510529 0.509897 0.137360
0.556376 0.517150 0.126898
0.597679 0.524727 0.119156
0.632845 0.532504 0.117071
0.663806 0.539670 0.117046
0.693389 0.546480 0.117278
0.721470 0.553026 0.118435
0.746846 0.558997 0.119956
0.770091 0.564900 0.122422
0.792270 0.571146 0.125895
0.813427 0.577633 0.130123
0.833361 0.584254 0.135135
0.852437 0.590958 0.140679
0.870905 0.597824 0.147635
0.888861 0.604738 0.154966
0.906244 0.611767 0.163115
0.923171 0.619116 0.172371
0.939388 0.626093 0.181338
0.952973 0.633942 0.193237
0.000000 0.440381 0.139065
0.006238 0.442513 0.141211
0.012505 0.443913 0.142912
0.018744 0.446595 0.145632
0.025009 0.450330 0.149159
0.031251 0.455969 0.152120
0.037858 0.464364 0.153812
0.069865 0.472490 0.160923
0.147325 0.479807 0.171146
0.227144 0.487232 0.177592
0.296342 0.494580 0.177050
0.355847 0.502986 0.169047
0.408268 0.512015 0.158605
0.455057 0.520954 0.153132
0.499459 0.529468 0.150399
0.543567 0.536875 0.144354
0.586214 0.544078 0.136946
0.624574 0.552182 0.133609
0.658144 0.560421 0.133795
0.689146 0.568004 0.134532
0.717523 0.574678 0.135858
0.742724 0.580388 0.137775
0.766557 0.585974 0.140130
0.789283 0.591820 0.143486
0.811128 0.597912 0.147518
0.831909 0.604181 0.152394
0.851607 0.610584 0.157951
0.870183 0.617146 0.165100
0.888077 0.623741 0.172573
0.905289 0.630354 0.180332
0.921802 0.637009 0.188829
0.937445 0.643466 0.197962
0.949556 0.650511 0.210459
0.000000 0.465639 0.149897
0.006238 0.467812 0.151840
0.012505 0.469135 0.153039
0.018744 0.471108 0.154912
0.025009 0.474265 0.157792
0.031251 0.478648 0.160576
0.037554 0.485140 0.161075
0.061993 0.491722 0.166752
0.130695 0.498613 0.177335
0.209733 0.506760 0.186877
0.281656 0.514585 0.190551
0.343226 0.522199 0.185878
0.398027 0.530454 0.174424
0.447028 0.539130 0.164478
0.490952 0.547866 0.160708
0.532383 0.555936 0.158816
0.573137 0.562971 0.154780
0.612823 0.570389 0.150962
0.650090 0.579099 0.150097
0.683639 0.587656 0.151080
0.712520 0.594660 0.152590
0.738050 0.600507 0.154646
0.762476 0.606204 0.157271
0.785774 0.611874 0.160722
0.808072 0.617533 0.164886
0.829483 0.623318 0.169526
0.849760 0.629349 0.175093
0.868752 0.635487 0.181452
0.886605 0.641573 0.188462
0.903739 0.647865 0.196348
0.919811 0.654080 0.205323
0.934646 0.660136 0.214798
0.945793 0.666840 0.228045
0.000000 0.489898 0.160841
0.006238 0.492324 0.162357
0.012505 0.493668 0.163050
0.018744 0.495202 0.164190
0.025009 0.497624 0.166243
0.031251 0.501080 0.168499
0.037940 0.506149 0.168825
0.055840 0.510913 0.173190
0.115694 0.516342 0.182355
0.192468 0.524295 0.193706
0.265468 0.533188 0.201756
0.328694 0.540838 0.201928
0.385417 0.548285 0.192885
0.436903 0.556294 0.180282
0.482695 0.564892 0.172325
0.523735 0.573833 0.170697
0.562115 0.581804 0.170282
0.599886 0.588682 0.168261
0.638589 0.596597 0.166637
0.675426 0.605549 0.167080
0.706095 0.613230 0.168940
0.732612 0.619568 0.171254
0.757731 0.625516 0.174126
0.781840 0.631169 0.177437
0.804663 0.636430 0.181325
0.826497 0.641707 0.185747
0.847147 0.647234 0.191139
0.866585 0.653017 0.197406
0.884742 0.658696 0.204360
0.901881 0.664552 0.212448
0.917479 0.670701 0.222260
0.931202 0.676770 0.231952
0.942152 0.683408 0.245219
0.000000 0.513493 0.171322
0.006238 0.515984 0.172272
0.012505 0.517573 0.172524
0.018744 0.519118 0.173123
0.025009 0.520951 0.174518
0.031251 0.523499 0.176219
0.038540 0.527230 0.177214
0.051228 0.530445 0.180825
0.102783 0.534196 0.187969
0.176401 0.540205 0.198468
0.247704 0.549082 0.209560
0.312152 0.557769 0.215058
0.370288 0.565347 0.211413
0.423855 0.573069 0.199974
0.472492 0.581352 0.188488
0.515386 0.590352 0.183451
0.553905 0.599690 0.183790
0.589769 0.607637 0.184735
0.626561 0.614780 0.184129
0.664432 0.622805 0.183582
0.698060 0.630738 0.184780
0.726569 0.637681 0.187411
0.752265 0.643756 0.190704
0.777091 0.649564 0.194152
0.800661 0.654834 0.198018
0.822892 0.659758 0.202412
0.843976 0.664758 0.207528
0.863615 0.670031 0.213839
0.882183 0.675560 0.220841
0.899524 0.681346 0.229184
0.914873 0.687576 0.239167
0.927607 0.693487 0.248676
0.938453 0.699467 0.261204
0.000000 0.537075 0.181609
0.006238 0.539381 0.181926
0.012505 0.541173 0.181731
0.018744 0.542546 0.181719
0.025009 0.543701 0.182641
0.031251 0.545177 0.184137
0.039400 0.547598 0.185901
0.050974 0.549889 0.189348
0.095918 0.552295 0.194873
0.164198 0.555368 0.203048
0.230707 0.562733 0.214576
0.294732 0.572884 0.224581
0.353727 0.581591 0.227322
0.408299 0.589246 0.220638
0.459527 0.597433 0.208707
0.505579 0.606340 0.199415
0.546264 0.616061 0.197329
0.582860 0.625870 0.199858
0.617924 0.634312 0.201976
0.653328 0.641448 0.202331
0.687820 0.648531 0.202518
0.719354 0.655636 0.204131
0.746730 0.661876 0.207498
0.771569 0.667333 0.211343
0.795544 0.672653 0.215363
0.818196 0.677692 0.219959
0.839727 0.682567 0.224869
0.859781 0.687543 0.230908
0.878772 0.692761 0.237476
0.896417 0.698215 0.245593
0.911478 0.703958 0.255141
0.923610 0.709264 0.264227
0.934422 0.714336 0.275757
0.000000 0.559885 0.191542
0.006238 0.562136 0.191338
0.012505 0.563866 0.190869
0.018744 0.564737 0.190405
0.025009 0.565099 0.190894
0.032056 0.565684 0.192229
0.041810 0.566855 0.194436
0.053272 0.568293 0.197806
0.096416 0.569874 0.202344
0.158237 0.571865 0.208953
0.218629 0.576764 0.218986
0.279940 0.586539 0.230912
0.337942 0.596622 0.239203
0.391958 0.604911 0.239112
0.444374 0.613132 0.230717
0.493811 0.622169 0.219482
0.537855 0.631975 0.213018
0.576161 0.642487 0.213870
0.611484 0.653053 0.218245
0.645100 0.661591 0.221604
0.677090 0.667659 0.222458
0.709604 0.673824 0.222488
0.740251 0.680074 0.224000
0.766276 0.685208 0.227554
0.789821 0.689863 0.231852
0.812518 0.694826 0.236666
0.834561 0.699868 0.241702
0.855133 0.704720 0.247465
0.874497 0.709481 0.253533
0.892527 0.714272 0.260819
0.907139 0.719153 0.269583
0.919266 0.724100 0.278622
0.930504 0.728947 0.289986
0.000000 0.581425 0.200958
0.006238 0.583495 0.200765
0.012505 0.584835 0.200594
0.019343 0.585099 0.200252
0.026594 0.584776 0.200445
0.035724 0.584780 0.201485
0.046392 0.585386 0.203702
0.057425 0.586454 0.206821
0.099543 0.587707 0.210588
0.155567 0.589131 0.216157
0.211511 0.592111 0.224618
0.268516 0.599844 0.235928
0.324318 0.610651 0.247432
0.377539 0.620167 0.253202
0.429425 0.628419 0.250529
0.479892 0.637486 0.241546
0.527160 0.647853 0.232441
0.568768 0.658847 0.229417
0.605532 0.669858 0.232772
0.639267 0.679605 0.237899
0.669611 0.686556 0.241274
0.699292 0.691614 0.242352
0.730720 0.696838 0.242051
0.760485 0.702324 0.243073
0.785156 0.706731 0.246748
0.807160 0.710760 0.251236
0.829034 0.715536 0.256376
0.850067 0.720556 0.262281
0.869746 0.725268 0.268339
0.888197 0.730023 0.275530
0.902493 0.734535 0.284166
0.915167 0.739527 0.293248
0.927359 0.744285 0.304337
0.000000 0.601883 0.210732
0.006238 0.603723 0.211041
0.013685 0.604705 0.211259
0.022900 0.604690 0.211453
0.033083 0.604229 0.211672
0.043079 0.603958 0.212640
0.053159 0.604329 0.214724
0.067083 0.605216 0.217632
0.107102 0.606130 0.220772
0.157758 0.607101 0.225251
0.208796 0.609044 0.232271
0.260757 0.614136 0.241669
0.313708 0.623695 0.253373
0.366262 0.634495 0.263322
0.417406 0.643756 0.266560
0.467257 0.652818 0.262332
0.515595 0.663494 0.254269
0.560227 0.674860 0.247904
0.599654 0.685239 0.246827
0.634395 0.694734 0.250619
0.665212 0.703625 0.256592
0.693466 0.710426 0.261299
0.721691 0.714736 0.262317
0.751783 0.719129 0.261430
0.780445 0.724322 0.262331
0.803627 0.728412 0.266184
0.824768 0.732297 0.270850
0.845482 0.737035 0.276865
0.865565 0.742085 0.283535
0.884385 0.747068 0.290869
0.898747 0.751335 0.299089
0.912035 0.756062 0.308124
0.924866 0.760696 0.321472
0.000160 0.620841 0.221153
0.007717 0.622502 0.222152
0.019166 0.623477 0.222698
0.031064 0.623679 0.223344
0.043239 0.623585 0.224188
0.054551 0.623414 0.225263
0.065669 0.623603 0.227207
0.086220 0.624346 0.230031
0.124173 0.625287 0.233116
0.167355 0.626232 0.236766
0.212000 0.627356 0.242169
0.258602 0.630169 0.249606
0.306420 0.637003 0.259561
0.356812 0.647944 0.271210
0.408283 0.659233 0.279606
0.458318 0.669072 0.280652
0.506242 0.679136 0.275535
0.551460 0.689537 0.267634
0.593455 0.699825 0.262396
0.631157 0.710409 0.264384
0.663432 0.720536 0.271443
0.691878 0.729358 0.278964
0.718616 0.735710 0.283890
0.745220 0.739473 0.284837
0.773648 0.743530 0.284119
0.800805 0.748681 0.285022
0.823682 0.752998 0.288813
0.844152 0.756963 0.293727
0.863774 0.761371 0.300149
0.882402 0.766190 0.307336
0.897205 0.770527 0.315275
0.911611 0.775464 0.326174
0.925382 0.780725 0.347461
0.006151 0.639358 0.233177
0.019551 0.641306 0.235008
0.033190 0.642572 0.236080
0.045885 0.642959 0.236704
0.060900 0.643312 0.238093
0.076295 0.643442 0.239535
0.094037 0.643661 0.241548
0.115593 0.644210 0.244261
0.147452 0.644961 0.247124
0.183138 0.645752 0.250059
0.222429 0.646476 0.254188
0.262559 0.647626 0.259908
0.303958 0.651739 0.267716
0.351231 0.661791 0.279000
0.401922 0.674558 0.290657
0.451379 0.685465 0.296209
0.498538 0.694212 0.293855
0.543626 0.703304 0.287165
0.587265 0.714484 0.281346
0.628323 0.726921 0.281345
0.663526 0.738708 0.287772
0.693291 0.749129 0.296557
0.720906 0.758204 0.304630
