lut-uploads/REC709-8.cube
# Copyright: (C) Copyright 2010-2017 by IWLTBAP SAS
# Cannot be resold, shared or otherwise redistributed
# Website: https://luts.iwltbap.com
TITLE "IWLTBAP 9440 (Rec.709, sRGB, DCI-P3)"
LUT_3D_SIZE 33
0.043335 0.048004 0.065704
0.053804 0.050225 0.064167
0.065336 0.052382 0.064349
0.077625 0.054068 0.065930
0.095097 0.055036 0.069980
0.118328 0.055962 0.074278
0.147523 0.055545 0.078699
0.182049 0.053478 0.081717
0.220524 0.049988 0.083105
0.261123 0.046955 0.085129
0.302864 0.045850 0.086652
0.345983 0.046248 0.086683
0.389570 0.047058 0.086521
0.432964 0.047958 0.087012
0.476936 0.048950 0.087963
0.521781 0.049989 0.088766
0.567425 0.051034 0.089628
0.613736 0.052055 0.091113
0.660726 0.053061 0.093178
0.708086 0.054067 0.095146
0.754770 0.055095 0.096186
0.799821 0.056368 0.096725
0.837811 0.057877 0.097828
0.861145 0.058996 0.099263
0.875009 0.059824 0.100873
0.886460 0.060498 0.102741
0.898125 0.061185 0.104763
0.910055 0.061872 0.106716
0.921923 0.062675 0.108605
0.931186 0.063550 0.110432
0.938570 0.064451 0.112139
0.946073 0.065322 0.113731
0.953583 0.066193 0.115295
0.045770 0.063057 0.072514
0.054397 0.063591 0.068197
0.065653 0.065840 0.066831
0.078370 0.067903 0.066672
0.096947 0.069366 0.069026
0.120160 0.070241 0.073201
0.148991 0.070336 0.077639
0.183689 0.068395 0.080354
0.222831 0.064611 0.081390
0.264445 0.059658 0.082417
0.306324 0.057271 0.083392
0.348374 0.056930 0.083628
0.391634 0.057223 0.083244
0.435387 0.057851 0.083284
0.479539 0.058493 0.084254
0.524423 0.059013 0.085458
0.570268 0.059514 0.086667
0.616807 0.059957 0.088300
0.663541 0.060587 0.090611
0.710198 0.061458 0.093007
0.756118 0.062319 0.094442
0.800454 0.063442 0.095328
0.838007 0.064723 0.096715
0.861037 0.065771 0.098462
0.874925 0.066545 0.100230
0.886434 0.067164 0.102140
0.898069 0.067793 0.104083
0.910026 0.068444 0.106013
0.921934 0.069242 0.107927
0.931250 0.070270 0.109757
0.938667 0.071285 0.111502
0.946204 0.072411 0.113127
0.953800 0.073443 0.114685
0.048391 0.078787 0.080834
0.057064 0.079330 0.076388
0.066463 0.080087 0.071886
0.079787 0.082409 0.070271
0.098973 0.084596 0.069739
0.121873 0.085998 0.072224
0.151077 0.086311 0.076218
0.185920 0.085120 0.078942
0.224422 0.082179 0.079919
0.265504 0.077443 0.080323
0.307836 0.073302 0.080438
0.350130 0.071643 0.080323
0.393344 0.071218 0.079841
0.437072 0.071328 0.079760
0.481210 0.071688 0.080569
0.525884 0.072010 0.081815
0.571421 0.072261 0.083121
0.617936 0.072426 0.084572
0.664731 0.072457 0.086535
0.711172 0.072387 0.088776
0.756793 0.072249 0.090313
0.800778 0.072245 0.091435
0.837984 0.072779 0.093241
0.861007 0.073466 0.095298
0.874689 0.073885 0.097336
0.886170 0.073964 0.099308
0.897861 0.074200 0.101377
0.909959 0.074792 0.103510
0.921977 0.076010 0.105661
0.931686 0.079114 0.107616
0.939501 0.082130 0.109447
0.947122 0.083935 0.111019
0.954759 0.085662 0.112471
0.050262 0.095893 0.089942
0.059687 0.096470 0.086011
0.069273 0.097087 0.081151
0.083322 0.097698 0.076892
0.101831 0.099741 0.073045
0.123330 0.102021 0.072737
0.151777 0.103423 0.074718
0.186792 0.103243 0.076542
0.225270 0.101624 0.076802
0.265555 0.098785 0.076641
0.307715 0.093751 0.076475
0.350347 0.089238 0.076387
0.393525 0.086972 0.076051
0.437147 0.085986 0.076142
0.481481 0.085910 0.076986
0.526426 0.086309 0.078128
0.571514 0.086696 0.079297
0.617098 0.086985 0.080510
0.663157 0.087105 0.081890
0.709083 0.087073 0.083594
0.754395 0.086932 0.085278
0.797942 0.086759 0.086585
0.835184 0.086568 0.088085
0.859512 0.086284 0.089938
0.874228 0.085675 0.091978
0.885917 0.084797 0.094187
0.897772 0.085009 0.096495
0.909939 0.086211 0.098690
0.921992 0.088212 0.100635
0.931758 0.092398 0.102420
0.939889 0.097850 0.103961
0.947976 0.103947 0.105208
0.955919 0.114364 0.106383
0.051183 0.113570 0.100378
0.060953 0.114391 0.096422
0.071578 0.114997 0.091056
0.086059 0.115335 0.085682
0.104288 0.115904 0.079391
0.124479 0.119169 0.075693
0.150849 0.122223 0.074209
0.183921 0.124150 0.073209
0.222213 0.124669 0.071449
0.262936 0.124321 0.070543
0.305028 0.122467 0.070404
0.347574 0.118510 0.070759
0.390392 0.114560 0.071265
0.433813 0.111048 0.071869
0.478146 0.107453 0.072749
0.523205 0.105100 0.073909
0.568319 0.103717 0.075251
0.613781 0.102717 0.076481
0.659659 0.102551 0.077499
0.705402 0.102831 0.078850
0.750679 0.103283 0.080414
0.794006 0.107790 0.081544
0.831471 0.116035 0.082810
0.857491 0.117167 0.084448
0.873570 0.118557 0.086275
0.885590 0.120783 0.088331
0.897683 0.123938 0.090510
0.910032 0.127811 0.092569
0.922303 0.131187 0.094430
0.931977 0.138315 0.096295
0.939921 0.148549 0.097995
0.947861 0.161414 0.099292
0.955881 0.175788 0.100469
0.051286 0.133475 0.111521
0.060974 0.134317 0.109327
0.071792 0.135257 0.103694
0.086570 0.135975 0.096104
0.105811 0.136981 0.089024
0.124335 0.139107 0.082410
0.146303 0.143884 0.075434
0.175560 0.147876 0.070106
0.214199 0.151060 0.066403
0.255754 0.153215 0.064881
0.297579 0.154005 0.064764
0.340153 0.153507 0.065235
0.382902 0.151503 0.065933
0.426154 0.148808 0.066744
0.470407 0.144960 0.067664
0.515693 0.141220 0.068718
0.560988 0.138056 0.069936
0.606336 0.133599 0.071160
0.652062 0.129974 0.072195
0.697794 0.128705 0.073326
0.743344 0.129379 0.074716
0.787276 0.137905 0.076007
0.826310 0.153883 0.077336
0.854922 0.165658 0.078876
0.872756 0.170823 0.080577
0.885042 0.176418 0.082529
0.897226 0.183658 0.084621
0.909697 0.190958 0.086619
0.921999 0.198336 0.088476
0.931718 0.207477 0.090251
0.939586 0.216548 0.091849
0.947496 0.226903 0.093171
0.955638 0.238366 0.094421
0.050952 0.155342 0.121751
0.060509 0.155842 0.121523
0.070348 0.156727 0.118494
0.084107 0.158152 0.109777
0.103232 0.160295 0.100201
0.121555 0.163129 0.091113
0.138174 0.167926 0.080585
0.162478 0.173215 0.070739
0.197435 0.178480 0.063583
0.239489 0.183298 0.060310
0.282729 0.187023 0.059527
0.326661 0.189548 0.059711
0.370278 0.191101 0.060235
0.413960 0.191734 0.060984
0.458220 0.191380 0.061851
0.503178 0.190977 0.062799
0.548865 0.190083 0.063841
0.594886 0.187527 0.064937
0.641136 0.184933 0.066089
0.687585 0.184644 0.067355
0.733415 0.188128 0.068707
0.777716 0.197158 0.070079
0.818365 0.210042 0.071528
0.850325 0.221490 0.073098
0.871152 0.229067 0.074796
0.884087 0.234451 0.076725
0.896663 0.240855 0.078840
0.909557 0.248234 0.080842
0.921965 0.256465 0.082711
0.931544 0.264106 0.084407
0.939119 0.271234 0.085975
0.946801 0.279534 0.087326
0.954625 0.288942 0.088569
0.048116 0.180724 0.132924
0.057168 0.181145 0.133291
0.066329 0.181764 0.132310
0.077320 0.182956 0.126710
0.095608 0.186575 0.115068
0.114565 0.190885 0.102224
0.129563 0.195960 0.088376
0.146216 0.201464 0.074332
0.175297 0.207267 0.063429
0.214317 0.212824 0.057699
0.259671 0.218113 0.055586
0.306751 0.223640 0.054925
0.352357 0.228434 0.054951
0.396771 0.232229 0.055366
0.441349 0.235149 0.056068
0.486786 0.237480 0.056984
0.532957 0.239497 0.058018
0.579782 0.240892 0.059108
0.627404 0.242317 0.060279
0.675234 0.244967 0.061559
0.721913 0.249264 0.062875
0.766704 0.255860 0.064255
0.808879 0.264451 0.065743
0.844242 0.273337 0.067295
0.868048 0.280703 0.068932
0.882573 0.285964 0.070781
0.895993 0.291649 0.072905
0.909641 0.297986 0.074960
0.922946 0.304818 0.076870
0.932729 0.311183 0.078617
0.940029 0.317725 0.080203
0.947347 0.324549 0.081631
0.954451 0.332095 0.082935
0.044841 0.208441 0.145731
0.053108 0.208867 0.146170
0.061546 0.209304 0.146295
0.070251 0.209937 0.143544
0.084121 0.212746 0.133542
0.102746 0.219613 0.117199
0.117484 0.226313 0.098972
0.129223 0.233146 0.080526
0.149639 0.239169 0.065850
0.186210 0.244806 0.057825
0.230166 0.250053 0.053697
0.278208 0.256225 0.051839
0.327206 0.263304 0.051146
0.373680 0.269311 0.051180
0.419560 0.274145 0.051808
0.466153 0.278294 0.052805
0.513513 0.281747 0.053964
0.561526 0.285107 0.055120
0.610220 0.288874 0.056241
0.659059 0.292812 0.057388
0.706624 0.297125 0.058569
0.752925 0.302939 0.059825
0.797030 0.310330 0.061197
0.836345 0.317805 0.062564
0.864764 0.324640 0.063976
0.881115 0.329342 0.065599
0.894850 0.334113 0.067587
0.908623 0.339338 0.069573
0.922379 0.345485 0.071422
0.932507 0.351292 0.073157
0.940126 0.357259 0.074720
0.947775 0.363396 0.076152
0.955156 0.370101 0.077485
0.044006 0.238820 0.160791
0.051724 0.239374 0.161239
0.059534 0.239865 0.161647
0.067403 0.240234 0.161023
0.076367 0.241879 0.154962
0.089479 0.247833 0.137896
0.105545 0.256855 0.115181
0.116959 0.265779 0.092058
0.129416 0.272988 0.073544
0.157574 0.278438 0.061725
0.198916 0.283281 0.055312
0.245973 0.288618 0.051624
0.295183 0.295031 0.049859
0.344962 0.302124 0.049359
0.394314 0.308810 0.049655
0.443311 0.314658 0.050546
0.492134 0.319442 0.051642
0.541157 0.323581 0.052723
0.590641 0.328010 0.053805
0.640083 0.332676 0.054904
0.689108 0.337363 0.056016
0.736976 0.342965 0.057172
0.782643 0.349935 0.058408
0.824881 0.357018 0.059652
0.858185 0.363111 0.060900
0.878772 0.367600 0.062271
0.892948 0.371941 0.063865
0.906684 0.376648 0.065515
0.920356 0.381849 0.067092
0.931148 0.386880 0.068586
0.939228 0.392223 0.070039
0.947424 0.397725 0.071360
0.955458 0.403766 0.072667
0.044750 0.269511 0.176520
0.052322 0.270304 0.176970
0.059672 0.271070 0.177419
0.067037 0.271499 0.177643
0.074136 0.272648 0.174747
0.082501 0.276876 0.162274
0.095513 0.286272 0.136379
0.108122 0.297296 0.108960
0.119538 0.306808 0.083963
0.137276 0.313427 0.068282
0.166080 0.317933 0.059325
0.210291 0.322471 0.053987
0.261285 0.327829 0.050783
0.313218 0.333681 0.049389
0.365318 0.340248 0.049334
0.417881 0.347326 0.050043
0.469792 0.353818 0.051054
0.520459 0.359033 0.052081
0.570461 0.363627 0.053108
0.620126 0.368346 0.054142
0.670102 0.373464 0.055165
0.719464 0.379241 0.056187
0.766531 0.385496 0.057241
0.810406 0.392330 0.058288
0.847623 0.398349 0.059317
0.873251 0.402895 0.060389
0.888375 0.406496 0.061548
0.902208 0.410329 0.062803
0.916094 0.414840 0.064018
0.928265 0.419469 0.065221
0.937012 0.424115 0.066470
0.945475 0.429138 0.067702
0.953829 0.434540 0.068947
0.045808 0.300621 0.193808
0.053339 0.301521 0.194278
0.060520 0.302397 0.194716
0.067475 0.303001 0.195020
0.074088 0.303892 0.194405
0.080992 0.307457 0.185242
0.090870 0.316205 0.161853
0.103668 0.328674 0.131993
0.115087 0.339685 0.099574
0.127375 0.347951 0.076976
0.144715 0.353098 0.065091
0.174295 0.356856 0.057854
0.223737 0.361331 0.053200
0.279595 0.366298 0.050589
0.334010 0.371459 0.049737
0.388504 0.377617 0.050147
0.443790 0.384833 0.051053
0.498464 0.391556 0.052055
0.550950 0.396880 0.053061
0.601616 0.401561 0.054067
0.651636 0.406661 0.055054
0.701642 0.412495 0.056026
0.749771 0.418444 0.057009
0.794178 0.424572 0.057973
0.833539 0.430587 0.058929
0.862442 0.435467 0.059889
0.878905 0.438809 0.060853
0.892911 0.442228 0.061855
0.907131 0.446119 0.062835
0.920703 0.450236 0.063797
0.931620 0.454480 0.064820
0.940544 0.459150 0.065816
0.949273 0.463936 0.066841
0.046864 0.332763 0.213677
0.054338 0.333664 0.214188
0.061491 0.334463 0.214587
0.068269 0.335122 0.214864
0.074695 0.335794 0.215064
0.081196 0.338075 0.209668
0.089503 0.345690 0.189021
0.101014 0.358785 0.157668
0.112766 0.371449 0.123260
0.123481 0.380943 0.091105
0.135929 0.387457 0.072812
0.153705 0.391497 0.063202
0.190821 0.395043 0.056735
0.244339 0.399293 0.052731
0.301718 0.403711 0.050751
0.358068 0.408341 0.050399
0.414667 0.414097 0.051078
0.472554 0.420972 0.052055
0.529950 0.427674 0.053061
0.584107 0.433066 0.054067
0.635096 0.437809 0.055054
0.685110 0.443323 0.056026
0.733416 0.449180 0.057007
0.778001 0.454739 0.057968
0.818178 0.460527 0.058929
0.848664 0.465622 0.059884
0.866522 0.469257 0.060817
0.880746 0.472599 0.061752
0.894780 0.476025 0.062672
0.908766 0.479738 0.063554
0.921954 0.483770 0.064487
0.932658 0.488095 0.065364
0.941925 0.492485 0.066265
0.047916 0.365151 0.234218
0.055330 0.365869 0.234867
0.062440 0.366580 0.235225
0.069142 0.367238 0.235535
0.075510 0.367810 0.235852
0.081642 0.368826 0.234455
0.088909 0.374127 0.218590
0.098868 0.387235 0.186422
0.110097 0.401355 0.152206
0.120697 0.412721 0.114213
0.131943 0.420525 0.085848
0.145289 0.425644 0.070658
0.170563 0.429186 0.061930
0.213504 0.432464 0.055942
0.267680 0.436298 0.052478
0.326067 0.440325 0.051118
0.384742 0.444516 0.051202
0.443657 0.449532 0.052055
0.504250 0.455898 0.053061
0.563960 0.462554 0.054067
0.619012 0.467960 0.055054
0.669528 0.473034 0.056026
0.717896 0.478496 0.057007
0.763176 0.483598 0.057968
0.803724 0.488795 0.058929
0.834922 0.493784 0.059884
0.853789 0.497829 0.060817
0.868321 0.501497 0.061752
0.882030 0.504915 0.062672
0.895664 0.508559 0.063551
0.909324 0.512496 0.064463
0.922066 0.516532 0.065334
0.933098 0.520546 0.066213
0.048950 0.397676 0.254696
0.056329 0.398166 0.255408
0.063352 0.398724 0.255797
0.070015 0.399371 0.256184
0.076311 0.399931 0.256673
0.082262 0.400547 0.256926
0.088487 0.403239 0.249306
0.097179 0.414303 0.220715
0.107516 0.429207 0.184805
0.118102 0.442616 0.146092
0.128953 0.452066 0.108315
0.140575 0.458165 0.084266
0.159544 0.462502 0.071135
0.191308 0.465817 0.061675
0.235707 0.468876 0.055304
0.292139 0.472325 0.052358
0.354391 0.475993 0.051640
0.415645 0.479548 0.052110
0.476366 0.483797 0.053061
0.538533 0.489794 0.054067
0.598949 0.496380 0.055054
0.652887 0.501856 0.056026
0.702103 0.506780 0.057007
0.748370 0.511524 0.057968
0.789617 0.516109 0.058929
0.821756 0.520788 0.059884
0.841357 0.524944 0.060817
0.856062 0.528877 0.061752
0.869835 0.532763 0.062672
0.883182 0.536521 0.063550
0.896430 0.540463 0.064451
0.909756 0.544440 0.065322
0.922465 0.548452 0.066193
0.049981 0.430474 0.275764
0.057311 0.430855 0.276292
0.064275 0.431219 0.276698
0.070881 0.431777 0.277098
0.077114 0.432368 0.277700
0.083006 0.432946 0.278179
0.088604 0.434407 0.275609
0.095645 0.441682 0.257039
0.105256 0.455820 0.221717
0.115724 0.470605 0.183298
0.126278 0.481806 0.142344
0.137137 0.489151 0.108804
0.151825 0.494281 0.087306
0.176232 0.498396 0.071861
0.209612 0.501660 0.060788
0.257071 0.504449 0.054732
0.320754 0.507503 0.052474
0.387536 0.510699 0.052358
0.449493 0.513727 0.053085
0.511058 0.517710 0.054067
0.573377 0.523489 0.055054
0.632406 0.529633 0.056026
0.685091 0.534787 0.057007
0.732771 0.539274 0.057968
0.775136 0.543526 0.058929
0.808447 0.547978 0.059884
0.829072 0.552157 0.060817
0.843779 0.556072 0.061752
0.857566 0.560063 0.062672
0.871067 0.563835 0.063550
0.884069 0.567791 0.064451
0.897074 0.571877 0.065322
0.910065 0.576098 0.066193
0.051026 0.463533 0.298128
0.058282 0.463855 0.298468
0.065199 0.464172 0.298840
0.071740 0.464592 0.299212
0.077908 0.465120 0.299768
0.083745 0.465605 0.300343
0.089208 0.466585 0.299400
0.095015 0.471312 0.288823
0.103295 0.483123 0.258879
0.113256 0.498023 0.221891
0.124336 0.510583 0.183839
0.136590 0.519354 0.145380
0.147438 0.525459 0.114093
0.166843 0.530207 0.091380
0.194055 0.534215 0.074843
0.230574 0.537167 0.064358
0.287244 0.539400 0.059224
0.357177 0.541920 0.056194
0.424081 0.544870 0.054175
0.485726 0.547904 0.054143
0.546692 0.551661 0.055054
0.607524 0.556792 0.056026
0.664738 0.562240 0.057007
0.715847 0.567105 0.057968
0.759938 0.571497 0.058929
0.794594 0.575907 0.059884
0.816670 0.580106 0.060817
0.831289 0.583904 0.061752
0.844667 0.587625 0.062672
0.858298 0.591420 0.063550
0.871547 0.595295 0.064451
0.884422 0.599428 0.065322
0.897278 0.603678 0.066193
0.052055 0.497289 0.321993
0.059252 0.497555 0.322454
0.066101 0.497944 0.322898
0.072584 0.498310 0.323289
0.078692 0.498708 0.323715
0.084466 0.499035 0.324236
0.089871 0.499451 0.324397
0.095290 0.502349 0.318329
0.102672 0.511853 0.294738
0.114863 0.525839 0.260850
0.128463 0.539185 0.226795
0.140892 0.549349 0.190314
0.148984 0.556714 0.154261
0.161204 0.562172 0.125190
0.187040 0.566672 0.103384
0.220072 0.570243 0.087453
0.265749 0.572384 0.077374
0.330936 0.573972 0.069066
0.400168 0.576372 0.060096
0.462734 0.579361 0.055415
0.522892 0.582256 0.056166
0.582099 0.585414 0.057242
0.640139 0.589442 0.057659
0.694989 0.594506 0.058160
0.742232 0.599461 0.058929
0.779354 0.603931 0.059884
0.804304 0.608128 0.060817
0.819191 0.611847 0.061752
0.832095 0.615555 0.062672
0.845439 0.619440 0.063550
0.858730 0.623365 0.064451
0.871649 0.627567 0.065322
0.884448 0.631641 0.066193
0.053061 0.531825 0.347349
0.060208 0.532103 0.348034
0.066990 0.532551 0.348714
0.073413 0.532939 0.349170
0.079475 0.533278 0.349508
0.085181 0.533480 0.349829
0.090542 0.533640 0.350202
0.095692 0.534482 0.348700
0.102534 0.540335 0.334687
0.118512 0.552635 0.305686
0.137084 0.567335 0.271607
0.149496 0.579296 0.238594
0.157709 0.588092 0.204084
0.162746 0.594464 0.171086
0.183404 0.599361 0.144051
0.218094 0.603228 0.122915
0.259200 0.605750 0.107461
0.314781 0.607140 0.094626
0.379393 0.608643 0.080213
0.441603 0.611106 0.070030
0.501718 0.613900 0.068637
0.559428 0.616252 0.068049
0.615666 0.618607 0.065229
0.670528 0.622154 0.061823
0.720105 0.626785 0.059265
0.760738 0.631478 0.059884
0.789491 0.635750 0.060817
0.805898 0.639541 0.061752
0.819065 0.643397 0.062672
0.832490 0.647335 0.063550
0.845627 0.651437 0.064451
0.858796 0.655817 0.065323
0.871935 0.659899 0.066208
0.054089 0.566783 0.374458
0.061179 0.567144 0.375228
0.068015 0.567622 0.376084
0.074394 0.568007 0.376574
0.080375 0.568311 0.376888
0.085995 0.568467 0.377069
0.091276 0.568610 0.377301
0.096243 0.568689 0.377577
0.102177 0.570434 0.373784
0.117244 0.579155 0.353846
0.141453 0.594372 0.320032
0.163567 0.608137 0.287350
0.179121 0.618168 0.256748
0.185065 0.625453 0.223873
0.191415 0.631104 0.192507
0.218817 0.635345 0.167485
0.261405 0.638222 0.149121
0.309916 0.640028 0.134325
0.366690 0.641218 0.119916
0.425554 0.642762 0.108275
0.482730 0.645007 0.102698
0.539441 0.647430 0.098057
0.594495 0.649759 0.088349
0.647025 0.651983 0.075095
0.695748 0.655022 0.064268
0.738140 0.659014 0.062444
0.769970 0.663188 0.064035
0.788831 0.667110 0.066196
0.803069 0.671059 0.068311
0.816967 0.674905 0.069038
0.830462 0.678863 0.067951
0.844147 0.683157 0.069209
0.858005 0.687394 0.070747
0.055620 0.601959 0.402813
0.062656 0.602383 0.403635
0.070114 0.602821 0.404464
0.079135 0.603167 0.404886
0.087734 0.603441 0.405180
0.093825 0.603610 0.405360
0.098988 0.603756 0.405520
0.103819 0.603890 0.405713
0.109327 0.604480 0.404701
0.121518 0.609199 0.393684
0.147094 0.620896 0.367319
0.181328 0.634564 0.336045
0.211252 0.645752 0.308398
0.227764 0.654164 0.279366
0.222759 0.660940 0.247473
0.229978 0.666191 0.218957
0.266991 0.669692 0.198436
0.314628 0.671972 0.183219
0.365619 0.673543 0.170034
0.418140 0.674746 0.159346
0.469415 0.676141 0.151182
0.522640 0.678104 0.143038
0.575597 0.680712 0.129415
0.626532 0.683337 0.110446
0.673538 0.685425 0.094612
0.714924 0.687667 0.088862
0.748428 0.691090 0.089326
0.769591 0.694976 0.091824
0.784568 0.698869 0.095384
0.798676 0.702588 0.096509
0.812599 0.706233 0.092862
0.826537 0.710062 0.092935
0.840591 0.713955 0.092941
0.059118 0.636633 0.430997
0.066106 0.636967 0.431745
0.074547 0.637310 0.432466
0.090193 0.637609 0.432820
0.105712 0.637858 0.433079
0.116366 0.638073 0.433282
0.125134 0.638257 0.433473
0.132140 0.638432 0.433651
0.138027 0.638724 0.433451
0.148470 0.640994 0.427901
0.168573 0.647658 0.411609
0.200678 0.659000 0.385737
0.238262 0.671642 0.357980
0.268204 0.681430 0.332311
0.272061 0.688946 0.304041
0.265549 0.695336 0.273853
0.283756 0.699736 0.249604
0.326514 0.702648 0.232584
0.373329 0.705052 0.219400
0.419009 0.706693 0.209286
0.465113 0.707611 0.201049
0.511848 0.708634 0.192754
0.560413 0.710753 0.182824
0.609032 0.713548 0.170390
0.654405 0.715820 0.158548
0.694677 0.717525 0.151153
0.728372 0.719900 0.147356
0.751635 0.723342 0.146332
0.767024 0.726917 0.148409
0.781260 0.730617 0.150514
0.795397 0.734070 0.148788
0.809113 0.737472 0.147795
0.823099 0.740853 0.145489
0.074127 0.670151 0.458356
0.081063 0.670251 0.458872
0.089624 0.670429 0.459395
0.107465 0.670635 0.459742
0.126551 0.670828 0.459973
0.144019 0.671053 0.460210
0.160350 0.671270 0.460435
0.173447 0.671463 0.460637
0.182777 0.671611 0.460815
0.191593 0.671759 0.460660
0.204755 0.674605 0.453407
0.226197 0.682812 0.434035
0.257755 0.694914 0.407226
0.293963 0.706184 0.381545
0.317701 0.714949 0.356958
0.321541 0.722183 0.328998
0.327046 0.727701 0.301904
0.351441 0.731502 0.281223
0.387580 0.734630 0.266231
0.427037 0.736979 0.255130
0.467940 0.738077 0.247361
0.509249 0.738732 0.241801
0.552011 0.739942 0.235835
0.596388 0.742174 0.229238
0.638833 0.744473 0.222255
0.677711 0.746512 0.215678
0.711472 0.748690 0.210656
0.737127 0.751395 0.207328
0.753553 0.754487 0.207823
0.767342 0.757693 0.210023
0.781236 0.760769 0.211027
0.794752 0.763791 0.213280
0.808531 0.766583 0.214348
0.115254 0.702303 0.484886
0.123202 0.702331 0.485351
0.131514 0.702268 0.485673
0.144556 0.702264 0.486006
0.159630 0.702345 0.486268
0.174976 0.702477 0.486534
0.190804 0.702657 0.486796
0.206469 0.702836 0.487013
0.220738 0.702964 0.487155
0.231667 0.702943 0.487146
0.240954 0.703594 0.484694
0.253951 0.707488 0.474317
0.277072 0.716470 0.453452
0.310372 0.728123 0.428159
0.344342 0.738564 0.404493
0.365685 0.746981 0.380248
0.374036 0.753504 0.353849
0.385064 0.758171 0.329492
0.408372 0.761577 0.311076
0.440189 0.763990 0.298360
0.475672 0.765381 0.289184
0.512580 0.766136 0.283064
0.550931 0.767024 0.279099
0.589828 0.768126 0.274700
0.628467 0.769696 0.270515
0.664753 0.771513 0.265939
0.697199 0.773671 0.261555
0.725130 0.775740 0.257862
0.743104 0.778166 0.258422
0.756814 0.780678 0.260566
0.770654 0.783088 0.261661
0.784401 0.785447 0.262886
0.797990 0.787326 0.263719
0.168229 0.731426 0.508781
0.179420 0.731600 0.509464
0.188973 0.731604 0.509895
0.200333 0.731624 0.510289
0.211289 0.731611 0.510625
0.222023 0.731581 0.510905
0.232776 0.731573 0.511172
0.244581 0.731631 0.511416
0.256782 0.731716 0.511619
0.266676 0.731670 0.511686
0.274888 0.731650 0.511339
0.284439 0.733282 0.506814
0.299828 0.738673 0.493167
0.326191 0.748080 0.470727
0.360049 0.759026 0.446078
0.390010 0.768658 0.423423
0.407302 0.775698 0.400116
0.416098 0.780752 0.374513
0.430106 0.784185 0.351418
0.454667 0.786061 0.335335
0.484769 0.787224 0.324196
0.517881 0.787920 0.315557
0.552836 0.788576 0.310794
0.588005 0.789332 0.307922
0.622302 0.789521 0.304714
0.655350 0.790169 0.300663
0.686553 0.791771 0.296547
0.714233 0.793408 0.293070
0.734886 0.794975 0.291649
0.749428 0.796773 0.292304
0.763120 0.798394 0.292699
0.777026 0.799961 0.292752
0.790625 0.801542 0.292893
0.207005 0.756853 0.528553
0.219759 0.757173 0.529364
0.230819 0.757378 0.530008
0.241101 0.757600 0.530628
0.251116 0.757780 0.531144
0.261001 0.757809 0.531505
0.270521 0.757806 0.531794
0.279667 0.757767 0.532036
0.288365 0.757774 0.532332
0.296265 0.757738 0.532670
0.303703 0.757654 0.532972
0.311060 0.757601 0.533088
0.321078 0.760075 0.526419
0.342147 0.767574 0.506871
0.373411 0.777838 0.481326
0.405631 0.787288 0.458100
0.428674 0.794047 0.435698
0.439844 0.798252 0.410655
0.448811 0.800758 0.384670
0.465855 0.801922 0.363577
0.491313 0.802424 0.349406
0.521333 0.802758 0.338471
0.553669 0.803027 0.331375
0.586703 0.803691 0.328408
0.618681 0.803880 0.326488
0.648420 0.803426 0.322990
0.678172 0.804262 0.318908
0.705425 0.805563 0.315466
0.728350 0.806565 0.312478
0.744200 0.807820 0.312136
0.757516 0.809181 0.312433
0.771357 0.810529 0.312238
0.785486 0.811838 0.311687
0.237166 0.777821 0.543406
0.249003 0.778081 0.544082
0.259561 0.778264 0.544621
0.269135 0.778570 0.545345
0.278104 0.778917 0.545993
0.286698 0.779211 0.546613
0.295199 0.779393 0.547097
0.303713 0.779467 0.547463
0.311836 0.779499 0.547752
0.319275 0.779505 0.548067
0.326464 0.779484 0.548499
0.333615 0.779527 0.548806
0.342338 0.781336 0.544388
0.359037 0.786531 0.530291
0.384967 0.794063 0.508887
0.414687 0.801771 0.485246
0.439578 0.807696 0.461012
0.454119 0.810930 0.435861
0.462456 0.812667 0.409530
0.475176 0.813748 0.385651
0.497381 0.814018 0.368563
0.525297 0.814185 0.356268
0.555720 0.814342 0.347324
