lut-uploads/REC709-4.cube
# Copyright: (C) Copyright 2010-2017 by IWLTBAP SAS
# Cannot be resold, shared or otherwise redistributed
# Website: https://luts.iwltbap.com
TITLE "IWLTBAP 8410 (Rec.709, sRGB, DCI-P3)"
LUT_3D_SIZE 5
0.008026 0.007385 0.007263
0.212410 0.036797 0.021575
0.464844 0.059280 0.009674
0.709839 0.158722 0.017441
0.904266 0.298279 0.049530
0.002358 0.181526 0.051971
0.261671 0.249071 0.071020
0.597160 0.311413 0.021827
0.789154 0.384003 0.055166
0.933716 0.471763 0.100112
0.000000 0.414124 0.128525
0.164135 0.459202 0.163223
0.597679 0.524727 0.119156
0.813427 0.577633 0.130123
0.952973 0.633942 0.193237
0.000000 0.601883 0.210732
0.107102 0.606130 0.220772
0.515595 0.663494 0.254269
0.780445 0.724322 0.262331
0.924866 0.760696 0.321472
0.192535 0.748596 0.320160
0.304008 0.769577 0.356491
0.528900 0.828750 0.411895
0.813279 0.929917 0.496078
0.953522 0.949860 0.510712
0.009682 0.043640 0.171356
0.227135 0.089588 0.203424
0.485145 0.105908 0.190857
0.721588 0.189531 0.211136
0.903664 0.314117 0.250802
0.023745 0.212200 0.222614
0.235820 0.298926 0.293917
0.589770 0.351111 0.274088
0.779743 0.389420 0.242095
0.932943 0.485231 0.264000
0.155579 0.484581 0.345852
0.267982 0.514429 0.386022
0.585501 0.558253 0.357359
0.812125 0.595260 0.322621
0.948971 0.651642 0.409340
0.257313 0.646891 0.433159
0.327568 0.650172 0.443536
0.494949 0.674453 0.422839
0.777749 0.740754 0.435938
0.933792 0.788305 0.519327
0.362740 0.782165 0.516853
0.467180 0.805268 0.559511
0.586605 0.905983 0.590034
0.815342 0.943129 0.616741
0.951080 0.956398 0.614479
0.002655 0.106384 0.382827
0.229618 0.157429 0.416912
0.525787 0.219772 0.432541
0.745407 0.258492 0.428688
0.899903 0.359558 0.467240
0.000000 0.260563 0.411316
0.174167 0.334701 0.467690
0.572855 0.425816 0.524967
0.761137 0.424221 0.487695
0.908012 0.501514 0.528248
0.158440 0.508614 0.520775
0.293865 0.552658 0.552479
0.563503 0.608242 0.599251
0.796390 0.636948 0.591232
0.940582 0.681793 0.623566
0.391991 0.721878 0.629456
0.465606 0.731420 0.644195
0.573019 0.739792 0.648622
0.777978 0.763588 0.603697
0.941391 0.806400 0.650711
0.469467 0.845093 0.674820
0.559116 0.874111 0.716469
0.697288 0.965370 0.781723
0.812817 0.954536 0.721073
0.950149 0.962967 0.731872
0.052986 0.177764 0.549743
0.241743 0.235634 0.595968
0.587517 0.358135 0.652664
0.756235 0.374935 0.634153
0.882538 0.424652 0.653167
0.055708 0.332889 0.599582
0.190058 0.379448 0.617632
0.543995 0.467093 0.687984
0.757536 0.522788 0.688767
0.887389 0.567621 0.718546
0.175644 0.529698 0.653622
0.285147 0.555488 0.668143
0.487751 0.595240 0.699305
0.782122 0.674687 0.755324
0.911118 0.694977 0.765430
0.378134 0.715515 0.723685
0.465843 0.735766 0.740898
0.601195 0.785035 0.787913
0.789358 0.802522 0.788118
0.948715 0.833288 0.797621
0.531501 0.895378 0.817528
0.609043 0.924927 0.853369
0.726261 0.974808 0.903705
0.808363 0.963753 0.842133
0.947960 0.964355 0.844513
0.179352 0.259735 0.693878
0.318603 0.329872 0.762237
0.570175 0.396698 0.781143
0.772507 0.489731 0.794182
0.875854 0.515778 0.805725
0.196404 0.410202 0.749802
0.293102 0.441269 0.759577
0.511143 0.499390 0.801269
0.800737 0.615200 0.844416
0.904961 0.640190 0.862267
0.231445 0.562531 0.770905
0.336475 0.591663 0.791405
0.517563 0.640953 0.828781
0.829170 0.738254 0.901459
0.941437 0.771805 0.918579
0.379204 0.724029 0.830688
0.475166 0.754280 0.855488
0.620133 0.812027 0.900807
0.778086 0.810566 0.897862
0.953384 0.875595 0.941734
0.491974 0.875885 0.891571
0.578118 0.909096 0.920921
0.696473 0.959626 0.965836
0.841438 0.964203 0.962319
0.954407 0.970154 0.953308
