lut-uploads/REC709-8.cube
# Copyright: (C) Copyright 2010-2017 by IWLTBAP SAS
# Cannot be resold, shared or otherwise redistributed
# Website: https://luts.iwltbap.com
TITLE "IWLTBAP 9440 (Rec.709, sRGB, DCI-P3)"
LUT_3D_SIZE 9
0.043335 0.048004 0.065704
0.095097 0.055036 0.069980
0.220524 0.049988 0.083105
0.389570 0.047058 0.086521
0.567425 0.051034 0.089628
0.754770 0.055095 0.096186
0.875009 0.059824 0.100873
0.921923 0.062675 0.108605
0.953583 0.066193 0.115295
0.051183 0.113570 0.100378
0.104288 0.115904 0.079391
0.222213 0.124669 0.071449
0.390392 0.114560 0.071265
0.568319 0.103717 0.075251
0.750679 0.103283 0.080414
0.873570 0.118557 0.086275
0.922303 0.131187 0.094430
0.955881 0.175788 0.100469
0.044841 0.208441 0.145731
0.084121 0.212746 0.133542
0.149639 0.239169 0.065850
0.327206 0.263304 0.051146
0.513513 0.281747 0.053964
0.706624 0.297125 0.058569
0.864764 0.324640 0.063976
0.922379 0.345485 0.071422
0.955156 0.370101 0.077485
0.046864 0.332763 0.213677
0.074695 0.335794 0.215064
0.112766 0.371449 0.123260
0.190821 0.395043 0.056735
0.414667 0.414097 0.051078
0.635096 0.437809 0.055054
0.818178 0.460527 0.058929
0.894780 0.476025 0.062672
0.941925 0.492485 0.066265
0.051026 0.463533 0.298128
0.077908 0.465120 0.299768
0.103295 0.483123 0.258879
0.147438 0.525459 0.114093
0.287244 0.539400 0.059224
0.546692 0.551661 0.055054
0.759938 0.571497 0.058929
0.844667 0.587625 0.062672
0.897278 0.603678 0.066193
0.055620 0.601959 0.402813
0.087734 0.603441 0.405180
0.109327 0.604480 0.404701
0.211252 0.645752 0.308398
0.266991 0.669692 0.198436
0.469415 0.676141 0.151182
0.673538 0.685425 0.094612
0.784568 0.698869 0.095384
0.840591 0.713955 0.092941
0.168229 0.731426 0.508781
0.211289 0.731611 0.510625
0.256782 0.731716 0.511619
0.299828 0.738673 0.493167
0.407302 0.775698 0.400116
0.484769 0.787224 0.324196
0.622302 0.789521 0.304714
0.734886 0.794975 0.291649
0.790625 0.801542 0.292893
0.271574 0.804133 0.557618
0.307725 0.804692 0.559542
0.337869 0.805715 0.561723
0.365072 0.805785 0.563168
0.454758 0.828340 0.494642
0.516488 0.836044 0.397968
0.627795 0.837283 0.369308
0.721946 0.836316 0.358961
0.785639 0.841294 0.357734
0.327240 0.851990 0.585632
0.359706 0.851776 0.586456
0.386821 0.851776 0.586634
0.411712 0.851807 0.587601
0.493632 0.872264 0.529594
0.557582 0.880047 0.440399
0.659651 0.880636 0.416141
0.740504 0.880459 0.415919
0.792053 0.881836 0.408936
0.051171 0.052491 0.117441
0.091502 0.051327 0.119551
0.206899 0.051039 0.147513
0.379845 0.046864 0.165601
0.576146 0.051026 0.174779
0.764484 0.055057 0.172029
0.882344 0.059741 0.169435
0.924509 0.062675 0.192154
0.953802 0.066193 0.206009
0.049046 0.117224 0.155457
0.106045 0.129641 0.135582
0.234920 0.133820 0.154577
0.418837 0.107200 0.162672
0.603535 0.102398 0.162781
0.783328 0.102996 0.152333
0.885507 0.109115 0.150722
0.927445 0.116582 0.171762
0.957085 0.148642 0.185716
0.042843 0.219799 0.232594
0.087796 0.235199 0.232682
0.220794 0.248082 0.161033
0.391204 0.265959 0.121984
0.573324 0.272133 0.120303
0.755699 0.285469 0.120776
0.879266 0.313785 0.124824
0.928864 0.336112 0.132819
0.958512 0.362588 0.138688
0.047664 0.343325 0.310447
0.079344 0.357588 0.333162
0.177607 0.379832 0.238637
0.281221 0.402576 0.139628
0.495411 0.420220 0.103206
0.702346 0.437651 0.103616
0.864187 0.458346 0.107149
0.924137 0.473876 0.114300
0.957717 0.491212 0.120246
0.051194 0.465213 0.369494
0.081374 0.479782 0.395599
0.124124 0.495366 0.345898
0.205408 0.535014 0.228232
0.364823 0.548227 0.131523
0.608005 0.558905 0.093556
0.807272 0.575918 0.091513
0.884807 0.590497 0.096967
0.934846 0.606382 0.103447
0.056222 0.601562 0.452158
0.096631 0.617769 0.472094
0.121446 0.619945 0.471074
0.250028 0.658452 0.374686
0.323686 0.682742 0.272002
0.498304 0.688932 0.218647
0.694834 0.696837 0.160006
0.802394 0.708663 0.146475
0.863024 0.723154 0.152500
0.174310 0.730374 0.548788
0.243352 0.743522 0.563718
0.282658 0.744093 0.565042
0.318008 0.750007 0.547312
0.436078 0.785270 0.451827
0.509428 0.795012 0.371186
0.638535 0.797588 0.352833
0.740710 0.802303 0.340825
0.795710 0.808109 0.339211
0.280072 0.805606 0.597337
0.324796 0.811065 0.604909
0.353208 0.811422 0.606375
0.378605 0.811449 0.607330
0.469392 0.836116 0.525582
0.539169 0.842024 0.434952
0.646185 0.843111 0.409033
0.733903 0.842588 0.400094
0.792200 0.847691 0.398406
0.331771 0.853337 0.618679
0.370666 0.858496 0.625329
0.395662 0.858803 0.626479
0.419554 0.858899 0.627142
0.508371 0.879409 0.555236
0.578519 0.885435 0.471797
0.677286 0.886392 0.452450
0.752403 0.886941 0.452732
0.799569 0.887424 0.446555
0.054519 0.058891 0.191655
0.092023 0.057813 0.202075
0.200033 0.051436 0.235519
0.365905 0.046880 0.269734
0.550842 0.051026 0.291996
0.745557 0.055054 0.314341
0.881531 0.058929 0.329818
0.924131 0.062672 0.347254
0.955614 0.066223 0.365762
0.046846 0.123122 0.221378
0.094418 0.134470 0.218059
0.220732 0.122652 0.248175
0.393389 0.101233 0.281558
0.581260 0.093813 0.301094
0.772171 0.092316 0.318582
0.886989 0.091810 0.333058
0.928975 0.101246 0.354165
0.959116 0.134598 0.371552
0.043075 0.227760 0.312125
0.079922 0.241931 0.316596
0.243410 0.263447 0.268213
0.430426 0.271664 0.290472
0.617793 0.262058 0.298127
0.792457 0.266140 0.293977
0.889150 0.290721 0.293713
0.930658 0.318097 0.310126
0.961571 0.349877 0.323867
0.053119 0.347592 0.413979
0.085137 0.361332 0.432664
0.252519 0.387121 0.363022
0.394278 0.405891 0.302659
0.580226 0.416716 0.263082
0.759821 0.431108 0.243706
0.882387 0.449172 0.240725
0.930114 0.465412 0.261588
0.961464 0.486040 0.281135
0.061648 0.466543 0.496182
0.092742 0.480869 0.515689
0.191114 0.501524 0.483005
0.384493 0.529123 0.401052
0.488149 0.546261 0.315187
0.695527 0.558655 0.228140
0.855324 0.575304 0.205973
0.916535 0.590232 0.226420
0.957261 0.607575 0.255617
0.064886 0.596001 0.572300
0.100396 0.610844 0.590738
0.172788 0.624314 0.604784
0.370196 0.648487 0.516629
0.476728 0.676150 0.444513
0.595818 0.686388 0.359026
0.775495 0.695765 0.271852
0.863630 0.710699 0.271742
0.914026 0.726233 0.300676
0.159735 0.723257 0.628425
0.234089 0.734049 0.646310
0.294136 0.743651 0.659700
0.353343 0.750286 0.642293
0.495927 0.782910 0.551614
0.583359 0.798204 0.479978
0.698513 0.801541 0.432509
0.797906 0.806863 0.409261
0.851942 0.813407 0.414161
0.293315 0.803788 0.646924
0.336895 0.807898 0.659717
0.372085 0.811827 0.671867
0.398447 0.812314 0.673018
0.508808 0.840050 0.589288
0.593749 0.847105 0.512068
0.694970 0.850031 0.478993
0.776675 0.850224 0.455461
0.836265 0.855213 0.458274
0.344428 0.850773 0.667168
0.384772 0.854783 0.680803
0.417268 0.858481 0.692345
0.442662 0.859244 0.692390
0.548266 0.884535 0.616625
0.629638 0.891383 0.545041
0.721842 0.894178 0.519756
0.791870 0.894564 0.506672
0.837022 0.894746 0.499443
0.047409 0.071247 0.285417
0.079186 0.069145 0.298164
0.189471 0.058279 0.338585
0.344935 0.047187 0.367691
0.522176 0.051026 0.400341
0.717886 0.055054 0.427223
0.872253 0.072906 0.455210
0.922988 0.103332 0.474643
0.954219 0.148852 0.493614
0.046912 0.113784 0.288089
0.079540 0.120647 0.305479
0.196856 0.107066 0.349650
0.355618 0.082175 0.380068
0.537289 0.081853 0.413599
0.734314 0.093111 0.441732
0.878514 0.133568 0.469770
0.929194 0.165827 0.488294
0.957597 0.207101 0.505515
0.046873 0.238428 0.384162
0.078898 0.252554 0.392307
0.219865 0.270928 0.363893
0.399166 0.259263 0.397032
0.586725 0.269212 0.422641
0.776105 0.284211 0.441690
0.886238 0.296019 0.456116
0.930976 0.322426 0.475293
0.962072 0.353685 0.493614
0.052095 0.349714 0.480735
0.083826 0.363267 0.497458
0.230374 0.385749 0.434085
0.419940 0.407104 0.416679
0.605810 0.418118 0.433674
0.786699 0.426837 0.434920
0.889415 0.440927 0.436922
0.933922 0.458989 0.453501
0.966061 0.480980 0.467877
0.066113 0.468178 0.567783
0.096957 0.481313 0.583602
0.193668 0.499336 0.561938
0.440376 0.527997 0.498494
0.559629 0.546147 0.445169
0.744416 0.558603 0.407567
0.875627 0.574050 0.404866
0.926159 0.589801 0.420843
0.964736 0.608330 0.439832
0.075372 0.593383 0.648464
0.132902 0.607406 0.662073
0.195846 0.620667 0.673671
0.421886 0.648783 0.611164
0.544087 0.674240 0.551028
0.655763 0.687807 0.473181
0.820496 0.698362 0.411515
0.894178 0.713232 0.424075
0.940982 0.729223 0.448077
0.172574 0.712376 0.699508
0.263499 0.723407 0.707867
0.323871 0.733932 0.714242
0.397061 0.747298 0.712060
0.554118 0.779445 0.642265
0.647937 0.799662 0.581212
0.747932 0.802689 0.526286
0.836364 0.809187 0.502266
0.889438 0.816539 0.506859
0.295308 0.790569 0.718481
0.346921 0.796734 0.724351
0.388072 0.802813 0.728449
0.428010 0.807154 0.730804
0.573315 0.836330 0.679765
0.669780 0.853383 0.620932
0.751331 0.855746 0.575063
0.822437 0.855094 0.544263
0.877167 0.860152 0.545914
0.352077 0.839002 0.730852
0.397103 0.844074 0.735673
0.434203 0.849515 0.739847
0.474843 0.855214 0.742987
0.605230 0.883011 0.696824
0.697996 0.898734 0.642113
0.773870 0.900258 0.606751
0.835551 0.901933 0.586932
0.878412 0.902218 0.579695
0.051026 0.083494 0.377659
0.077932 0.081559 0.390893
0.157809 0.068445 0.438078
0.333199 0.051092 0.472651
0.497991 0.051361 0.498688
0.690850 0.055054 0.535701
0.858078 0.135280 0.566359
0.914429 0.193732 0.584787
0.952595 0.240316 0.604337
0.051026 0.121941 0.378230
0.080868 0.125882 0.398508
0.156846 0.113930 0.449968
0.339923 0.088604 0.485324
0.508980 0.081218 0.512414
0.704933 0.089052 0.549816
0.864075 0.197514 0.579953
0.917486 0.247944 0.598199
0.955008 0.288898 0.618340
0.051026 0.237455 0.443721
0.080999 0.251177 0.459535
0.174790 0.263729 0.460635
0.373549 0.248981 0.497217
0.547928 0.221726 0.524793
0.739656 0.258025 0.556149
0.871384 0.319585 0.582780
0.921920 0.347714 0.602270
0.961346 0.380885 0.621894
0.052537 0.359178 0.541809
0.082814 0.372057 0.557012
0.189292 0.392801 0.506805
0.400327 0.411050 0.513128
0.575296 0.401780 0.542372
0.762716 0.434652 0.567412
0.876567 0.456103 0.587021
0.926295 0.474327 0.606170
0.966209 0.494974 0.623847
0.065062 0.468623 0.622814
0.095842 0.482285 0.636852
0.156963 0.496741 0.629515
0.433227 0.523613 0.563894
0.588221 0.544965 0.564075
0.770108 0.560320 0.572773
0.880482 0.573056 0.578796
0.927832 0.589586 0.595393
0.968052 0.607342 0.611556
0.079550 0.591442 0.701552
0.149184 0.604570 0.713140
0.209409 0.617496 0.722877
0.434813 0.639795 0.678514
0.592721 0.670868 0.638505
0.710135 0.688906 0.583478
0.856212 0.701122 0.560265
0.916379 0.715271 0.576459
0.961109 0.730182 0.595860
0.211340 0.706718 0.732245
0.289092 0.716583 0.738702
0.344882 0.726896 0.742908
0.411784 0.739371 0.746723
0.600700 0.774419 0.717484
0.703526 0.797365 0.670027
0.792216 0.803661 0.617734
0.877217 0.811214 0.601018
0.929538 0.820697 0.611144
0.317094 0.786300 0.745470
0.368018 0.793025 0.751058
0.409861 0.797568 0.754273
0.450882 0.803173 0.757646
0.618579 0.832104 0.748239
0.722472 0.856216 0.703808
0.795880 0.863169 0.663769
0.861988 0.862430 0.638819
0.914380 0.867571 0.640560
0.368545 0.834275 0.755951
0.413759 0.840384 0.760995
0.450867 0.845704 0.765362
0.491449 0.851489 0.769160
0.647494 0.879597 0.760003
0.748000 0.901885 0.721781
0.815644 0.908457 0.688496
0.873363 0.909183 0.671637
0.915635 0.909498 0.665060
0.055054 0.097239 0.487486
0.081001 0.096142 0.496044
0.125345 0.084921 0.552468
0.319956 0.058296 0.595841
0.494308 0.055237 0.623324
0.670268 0.055348 0.647643
0.837194 0.122477 0.677693
0.897568 0.196275 0.694289
0.941197 0.252721 0.709354
0.055054 0.136630 0.488971
0.083793 0.141544 0.507035
0.126076 0.133224 0.563432
0.321705 0.107542 0.606904
0.502777 0.085661 0.636909
0.682860 0.084983 0.661929
0.845794 0.183217 0.691594
0.900514 0.245929 0.705618
0.945600 0.295304 0.720780
0.055054 0.205677 0.509725
0.083903 0.216059 0.526447
0.126161 0.218487 0.569547
0.326646 0.201667 0.613944
0.514305 0.158140 0.646946
0.697343 0.146184 0.674448
0.853966 0.256276 0.702243
0.906780 0.300643 0.716477
0.952264 0.343688 0.731020
0.055079 0.361448 0.602262
0.083978 0.373656 0.619417
0.136557 0.389558 0.593976
0.364642 0.400908 0.620831
0.551847 0.390870 0.655929
0.730646 0.388217 0.681546
0.862998 0.440285 0.704123
0.913340 0.471351 0.720533
0.959359 0.502969 0.736633
0.062670 0.478457 0.685767
0.092233 0.492164 0.699785
0.132124 0.505449 0.699191
0.395365 0.529728 0.645075
0.567959 0.544998 0.664422
0.741872 0.541921 0.691397
0.864735 0.576631 0.709956
0.912757 0.597798 0.725858
0.959201 0.619578 0.741495
0.090246 0.590191 0.746835
0.159505 0.602868 0.756116
0.217054 0.614700 0.763832
0.415139 0.633995 0.739388
0.597856 0.661467 0.705353
0.744925 0.683551 0.703741
0.868050 0.698084 0.710822
0.918510 0.711716 0.723669
0.963817 0.725666 0.736494
0.229113 0.701419 0.763950
0.305888 0.710678 0.769427
0.358869 0.721010 0.774512
0.415377 0.731908 0.780389
0.621054 0.760895 0.777998
0.744890 0.789005 0.750300
0.836950 0.798354 0.715667
0.914347 0.805723 0.715351
0.959432 0.815115 0.727866
0.336096 0.783023 0.775390
0.389393 0.789712 0.781074
0.430348 0.795602 0.785491
0.468976 0.802745 0.789474
0.635775 0.826190 0.797094
0.761067 0.852898 0.779005
0.836954 0.866065 0.752845
0.897791 0.865402 0.733670
0.952014 0.873267 0.737223
0.383774 0.832621 0.784091
0.428698 0.838850 0.790319
0.465590 0.844245 0.795320
0.499294 0.850121 0.799405
0.661196 0.873857 0.807152
0.781428 0.898790 0.792852
0.853150 0.911448 0.771005
0.908104 0.911584 0.757642
0.948353 0.913171 0.751894
0.058929 0.117016 0.613814
0.083912 0.116875 0.617040
0.115306 0.112496 0.676451
0.302826 0.092267 0.712511
0.493031 0.069327 0.741832
0.665417 0.062159 0.764814
0.821148 0.113536 0.781048
0.886350 0.189507 0.790525
0.929813 0.243640 0.793443
0.058929 0.156000 0.612724
0.086554 0.163111 0.629006
0.115186 0.162325 0.685714
0.306742 0.148694 0.723199
0.503889 0.127520 0.752979
0.678683 0.122525 0.777675
0.830127 0.180271 0.788461
0.890340 0.238848 0.796674
0.933306 0.287154 0.798913
0.058929 0.190535 0.611402
0.086655 0.197619 0.626891
0.112338 0.202931 0.686863
0.295173 0.194157 0.730795
0.507584 0.180714 0.762119
0.687683 0.182204 0.787823
0.834857 0.233564 0.795616
0.894950 0.280452 0.802270
0.938370 0.323105 0.805284
0.058929 0.337775 0.670085
0.086655 0.351135 0.686694
0.115145 0.365098 0.692196
0.327851 0.376478 0.729432
0.538934 0.369078 0.763291
0.714232 0.359849 0.790011
0.854185 0.378638 0.802175
0.907813 0.413402 0.808299
0.951619 0.454543 0.811770
0.059793 0.483795 0.748447
0.088030 0.497491 0.762743
0.118396 0.511382 0.769546
0.352660 0.531305 0.734452
0.558058 0.546898 0.760330
0.728100 0.539675 0.789412
0.861761 0.550798 0.803404
0.910676 0.580249 0.810175
0.955995 0.609337 0.818424
0.101443 0.599229 0.796404
0.166608 0.611761 0.802772
0.245906 0.624020 0.808765
0.389719 0.641185 0.800799
0.582534 0.668756 0.774434
0.737150 0.687018 0.788297
0.859090 0.688288 0.803183
0.912269 0.709802 0.812351
0.959722 0.730309 0.821230
0.241975 0.698358 0.801826
0.315555 0.707993 0.805799
0.367761 0.718314 0.811118
0.414262 0.729002 0.816753
0.617450 0.755078 0.823206
0.754843 0.777996 0.807451
0.863014 0.792647 0.806795
0.919615 0.802227 0.810948
0.964699 0.812016 0.818883
0.350484 0.780337 0.810776
0.401892 0.788042 0.815444
0.442171 0.795269 0.820735
0.477588 0.802604 0.825855
0.634396 0.822229 0.831888
0.776209 0.844753 0.833768
0.863374 0.862874 0.820055
0.919150 0.864270 0.813588
0.964905 0.871300 0.818869
0.401010 0.833668 0.818021
0.443089 0.840153 0.823741
0.478383 0.846115 0.829050
0.510164 0.851468 0.834067
0.662147 0.872688 0.841020
0.793589 0.893947 0.844226
0.875858 0.911098 0.834490
0.925481 0.913771 0.830044
0.962958 0.914102 0.826516
0.062672 0.144205 0.724191
0.086675 0.142833 0.725076
0.112458 0.145213 0.768372
0.329643 0.142659 0.803527
0.516826 0.144223 0.829428
0.678150 0.150023 0.837871
0.818277 0.164343 0.835303
0.876637 0.203280 0.835851
0.928172 0.247534 0.843162
0.062672 0.183062 0.722250
0.089199 0.188710 0.731321
0.114017 0.192559 0.774940
0.337806 0.194435 0.810492
0.530044 0.200625 0.837837
0.691944 0.204867 0.843804
0.826073 0.220687 0.841235
0.880765 0.252523 0.841433
0.932081 0.292882 0.847492
0.062672 0.217494 0.722305
0.089294 0.222236 0.731567
0.111845 0.230527 0.774189
0.331696 0.235283 0.814574
0.536577 0.243599 0.844413
0.701877 0.248703 0.849602
0.832202 0.264343 0.847195
0.885468 0.292211 0.847364
0.936138 0.328858 0.852471
0.062672 0.308529 0.738989
0.089294 0.321551 0.753030
0.110672 0.337583 0.767550
0.345219 0.359736 0.810405
0.554463 0.363185 0.842762
0.721167 0.363650 0.855181
0.849259 0.369502 0.852841
0.899748 0.388710 0.854576
0.948572 0.432780 0.858254
0.062712 0.489991 0.808426
0.092584 0.506006 0.821922
0.131861 0.521152 0.832225
0.359813 0.540148 0.807139
0.574568 0.561028 0.829911
0.740700 0.560860 0.857450
0.862149 0.556419 0.858744
0.914286 0.569558 0.860149
0.957443 0.600707 0.863423
0.124883 0.612334 0.844135
0.219529 0.624541 0.850281
0.287994 0.637540 0.855635
0.408658 0.655933 0.855520
0.591078 0.682200 0.836194
0.747004 0.699945 0.851558
0.863520 0.694212 0.864917
0.915751 0.701201 0.867663
0.959744 0.722819 0.871527
0.284322 0.708080 0.846541
0.347486 0.718933 0.852180
0.394581 0.729224 0.857202
0.439183 0.739781 0.862225
0.628261 0.765246 0.867772
0.758601 0.785894 0.856150
0.864799 0.794949 0.865643
0.916903 0.796270 0.867246
0.962272 0.811530 0.872264
0.363335 0.780039 0.848268
0.412645 0.788240 0.854061
0.451774 0.795972 0.858772
0.485813 0.803185 0.864167
0.629409 0.821505 0.870072
0.774965 0.843665 0.872892
0.866248 0.858199 0.867176
0.926578 0.865045 0.871978
0.970402 0.871751 0.878283
0.416128 0.836811 0.855022
0.456470 0.843847 0.860200
0.489056 0.850198 0.865423
0.519590 0.855671 0.870642
0.662110 0.874246 0.876083
0.794852 0.894698 0.881476
0.878916 0.909009 0.876913
0.932788 0.916209 0.880173
0.969258 0.916712 0.879609
0.066193 0.166687 0.788055
0.089335 0.167111 0.791484
0.167214 0.176347 0.829686
0.386943 0.188746 0.862004
0.555921 0.209745 0.884447
0.704066 0.218029 0.887630
0.830539 0.226569 0.884390
0.881436 0.245903 0.883514
0.927887 0.274200 0.883820
0.066193 0.204796 0.787332
0.091659 0.211051 0.795370
0.178300 0.221662 0.835091
0.396353 0.235874 0.866824
0.569459 0.257371 0.890430
0.718999 0.265664 0.894040
0.838093 0.274764 0.890123
0.886202 0.291548 0.888628
0.931019 0.317798 0.888366
0.066193 0.238412 0.788439
0.091750 0.243856 0.795721
0.162656 0.257825 0.834712
0.394970 0.273541 0.870445
0.577576 0.296633 0.896123
0.729978 0.304908 0.900072
0.844977 0.313808 0.896317
0.891618 0.328848 0.895068
0.934537 0.352667 0.893599
0.066193 0.305227 0.800117
0.094608 0.332822 0.813154
0.146611 0.361883 0.827168
0.406643 0.400465 0.864543
0.596504 0.415961 0.893885
0.749468 0.415590 0.903621
0.860899 0.410929 0.901285
0.906243 0.420159 0.902422
0.946733 0.438270 0.901307
0.089654 0.508749 0.863484
0.151097 0.526924 0.875376
0.215555 0.543832 0.884653
0.403801 0.560566 0.859262
0.609862 0.586581 0.881552
0.766337 0.589784 0.905135
0.873342 0.584828 0.906188
0.919916 0.589768 0.905722
0.961167 0.602400 0.906432
0.226294 0.631795 0.890815
0.300522 0.644176 0.897034
0.354221 0.656694 0.903246
0.454194 0.675131 0.904091
0.619116 0.699337 0.887222
0.767206 0.716965 0.900428
0.874870 0.712985 0.912431
0.922948 0.713709 0.911901
0.962131 0.720622 0.912477
0.338737 0.723412 0.891237
0.391998 0.733108 0.897045
0.433701 0.743453 0.902819
0.476710 0.753823 0.907472
0.650684 0.778459 0.911666
0.772642 0.797369 0.903361
0.875744 0.806267 0.912547
0.925803 0.804792 0.914662
0.964445 0.808562 0.914413
0.396795 0.790435 0.892324
0.441561 0.799184 0.898239
0.477029 0.807473 0.903635
0.509378 0.813889 0.908615
0.656772 0.833682 0.912680
0.786696 0.854350 0.915083
0.875267 0.864416 0.912810
0.930369 0.871294 0.917392
0.967871 0.872804 0.917172
0.429718 0.841553 0.892883
0.469986 0.847693 0.898239
0.501760 0.854343 0.903635
0.530711 0.860451 0.908615
0.666186 0.878556 0.913752
0.794939 0.898860 0.918229
0.877938 0.909932 0.913749
0.933716 0.918167 0.918254
0.975281 0.924225 0.923767
