lut-uploads/W-9520-STD.cube
# Copyright: (C) Copyright 2016 by IWLTBAP
# Cannot be resold, shared or otherwise redistributed
# Website: http://luts.iwltbap.com
TITLE "IWLTBAP 9520 (Rec.709)"
LUT_3D_SIZE 5
DOMAIN_MIN 0.000000 0.000000 0.000000
DOMAIN_MAX 0.903226 0.903226 0.903226
0.061340 0.065826 0.093811
0.277434 0.065368 0.081064
0.490995 0.065534 0.080352
0.729309 0.070533 0.084672
0.928057 0.092127 0.108218
0.032478 0.269000 0.051539
0.247511 0.258879 0.059796
0.498461 0.257150 0.067911
0.708447 0.241850 0.078503
0.892909 0.269165 0.105681
0.038720 0.492460 0.051507
0.201260 0.469279 0.053176
0.444572 0.457303 0.052745
0.708648 0.453935 0.061559
0.830911 0.421873 0.087154
0.046496 0.737887 0.057908
0.201188 0.710769 0.058972
0.410203 0.683218 0.058308
0.679772 0.688476 0.067421
0.890652 0.697466 0.073616
0.051356 0.933036 0.070306
0.201807 0.918136 0.082943
0.373394 0.895444 0.071963
0.636132 0.864673 0.065220
0.866199 0.874098 0.069451
0.063599 0.069190 0.380073
0.263742 0.058530 0.359309
0.484819 0.061565 0.391825
0.708363 0.067070 0.401418
0.914859 0.086655 0.418176
0.032426 0.258965 0.290883
0.220089 0.289135 0.318770
0.584439 0.251999 0.254569
0.692959 0.272653 0.317415
0.889190 0.286227 0.335936
0.038720 0.477691 0.235102
0.114477 0.525379 0.285949
0.460842 0.480095 0.229187
0.727845 0.475370 0.246727
0.842054 0.437917 0.264492
0.046477 0.729262 0.201518
0.116118 0.772203 0.239461
0.422866 0.708724 0.225667
0.702927 0.712711 0.225695
0.902823 0.719174 0.243827
0.051793 0.929519 0.234361
0.168638 0.942516 0.260620
0.348880 0.918066 0.244806
0.655294 0.876643 0.224579
0.876436 0.884320 0.221392
0.065850 0.076824 0.631113
0.227074 0.069631 0.626172
0.447214 0.056030 0.643634
0.703687 0.060997 0.673263
0.910987 0.079912 0.684079
0.038720 0.275731 0.599841
0.144527 0.313765 0.648265
0.351040 0.287022 0.629073
0.690442 0.258781 0.639822
0.916700 0.271713 0.635462
0.038848 0.465200 0.512946
0.107087 0.514010 0.560864
0.421066 0.505873 0.530509
0.761330 0.485236 0.493544
0.855572 0.468942 0.506743
0.044967 0.711191 0.492608
0.109443 0.755227 0.531801
0.306593 0.759621 0.522827
0.710349 0.726409 0.460105
0.910688 0.730342 0.475654
0.053826 0.916899 0.486157
0.167148 0.929608 0.507066
0.345942 0.923400 0.484984
0.664171 0.880056 0.404466
0.883637 0.891556 0.395068
0.071004 0.091624 0.821394
0.207642 0.086318 0.836194
0.411740 0.074068 0.801174
0.696033 0.058082 0.834456
0.915682 0.078634 0.856426
0.046765 0.263824 0.778047
0.151575 0.296458 0.807376
0.314038 0.274217 0.779363
0.680510 0.256391 0.829536
0.930536 0.271952 0.852633
0.045013 0.484107 0.770997
0.118240 0.530377 0.807677
0.282064 0.541644 0.815862
0.663664 0.491592 0.792497
0.853336 0.454606 0.755282
0.045576 0.706125 0.740279
0.111898 0.750055 0.777814
0.318267 0.754879 0.777785
0.715548 0.752572 0.764416
0.915499 0.753876 0.767895
0.051698 0.920435 0.739231
0.167261 0.932519 0.756260
0.394703 0.912618 0.734781
0.656679 0.884953 0.691001
0.882817 0.892472 0.682345
0.076415 0.110567 0.941917
0.206901 0.109218 0.939584
0.419209 0.098306 0.898911
0.711901 0.082498 0.928810
0.917995 0.080850 0.942010
0.053946 0.287217 0.892791
0.166711 0.317862 0.892906
0.338085 0.292731 0.867206
0.704392 0.272662 0.921165
0.935253 0.274554 0.947559
0.050835 0.476839 0.887302
0.137247 0.525680 0.901184
0.312422 0.515342 0.888799
0.622095 0.443484 0.858468
0.856950 0.455892 0.884888
0.052268 0.735388 0.932094
0.139446 0.771918 0.946641
0.354938 0.770848 0.946931
0.664383 0.746347 0.928773
0.916577 0.736583 0.923632
0.051171 0.917919 0.926360
0.172404 0.928357 0.933197
0.398424 0.907961 0.910799
0.680415 0.904144 0.904905
0.908581 0.915914 0.917081
