lut-uploads/W-9520-STD.cube
# Copyright: (C) Copyright 2016 by IWLTBAP
# Cannot be resold, shared or otherwise redistributed
# Website: http://luts.iwltbap.com
TITLE "IWLTBAP 9520 (Rec.709)"
LUT_3D_SIZE 32
0.061340 0.065826 0.093811
0.104199 0.063488 0.087210
0.144292 0.062111 0.079489
0.186757 0.059604 0.071240
0.230960 0.055648 0.065169
0.258763 0.055988 0.066446
0.256857 0.063405 0.077210
0.277434 0.065368 0.081064
0.306383 0.065068 0.080829
0.337511 0.064209 0.079616
0.368116 0.064311 0.079508
0.398290 0.064455 0.079592
0.428718 0.064683 0.079809
0.459485 0.064921 0.079885
0.490995 0.065534 0.080352
0.523999 0.066234 0.080989
0.558294 0.066837 0.081500
0.595172 0.067364 0.081776
0.633156 0.067848 0.082069
0.667313 0.068462 0.082744
0.698353 0.069326 0.083558
0.729309 0.070533 0.084672
0.760545 0.072161 0.086221
0.791391 0.074202 0.088194
0.821359 0.076693 0.090623
0.849918 0.079765 0.093657
0.877376 0.083522 0.097509
0.903772 0.087702 0.102677
0.928057 0.092127 0.108218
0.946362 0.096863 0.114124
0.954271 0.101788 0.120353
0.960999 0.106995 0.126923
0.058541 0.090579 0.084148
0.088135 0.088099 0.081724
0.138792 0.084168 0.071303
0.184325 0.080875 0.067763
0.230292 0.076773 0.064007
0.275273 0.072436 0.059876
0.310222 0.070725 0.059335
0.308175 0.078418 0.071024
0.316714 0.083547 0.078759
0.346019 0.082867 0.078280
0.376146 0.083009 0.078521
0.407987 0.082984 0.078374
0.440005 0.083568 0.078608
0.472143 0.084233 0.078967
0.504267 0.085144 0.079624
0.538277 0.086016 0.080359
0.573441 0.086947 0.081136
0.610141 0.087769 0.081849
0.646549 0.088678 0.082621
0.678972 0.089716 0.083554
0.708671 0.091098 0.084595
0.738577 0.092761 0.085946
0.768642 0.094800 0.087836
0.798310 0.097241 0.090190
0.827137 0.100241 0.092923
0.854655 0.103823 0.096021
0.881173 0.107948 0.099766
0.906963 0.112362 0.104633
0.930152 0.117077 0.109948
0.946664 0.122139 0.115339
0.954454 0.127654 0.120886
0.961185 0.133213 0.127254
0.055752 0.116676 0.075133
0.079334 0.115712 0.074993
0.114152 0.112144 0.072373
0.170904 0.106934 0.064264
0.222970 0.101752 0.062490
0.272260 0.096682 0.059856
0.312140 0.093844 0.058691
0.320604 0.099128 0.068750
0.325048 0.105783 0.078958
0.354114 0.105532 0.079287
0.384357 0.104974 0.079059
0.415955 0.104348 0.078387
0.447564 0.104639 0.078291
0.479190 0.105589 0.078798
0.511534 0.106604 0.079570
0.545183 0.107645 0.080467
0.579796 0.108728 0.081405
0.615979 0.109945 0.082186
0.651793 0.111236 0.083018
0.683726 0.112581 0.083971
0.713160 0.114188 0.085067
0.742666 0.116081 0.086454
0.772375 0.118408 0.088350
0.801635 0.121200 0.090766
0.830055 0.124387 0.093635
0.857233 0.128086 0.097028
0.883560 0.132209 0.101052
0.909052 0.136824 0.105604
0.931720 0.141941 0.110406
0.946993 0.147210 0.115527
0.954609 0.152820 0.120857
0.961371 0.158515 0.126982
0.052930 0.143268 0.071428
0.073598 0.143252 0.071491
0.103621 0.141096 0.071473
0.138775 0.137997 0.069545
0.191287 0.133909 0.063971
0.249217 0.127300 0.061280
0.303615 0.121179 0.057359
0.321374 0.124330 0.066777
0.330414 0.130143 0.076404
0.362586 0.129515 0.078211
0.394147 0.129095 0.078760
0.425657 0.128476 0.077780
0.456831 0.127910 0.077143
0.487687 0.128281 0.077655
0.518665 0.129307 0.078555
0.550698 0.130426 0.079507
0.584162 0.131910 0.080450
0.619412 0.133172 0.081350
0.653960 0.134550 0.082328
0.685288 0.136075 0.083412
0.714625 0.137871 0.084626
0.744119 0.140019 0.086110
0.773744 0.142448 0.088040
0.802828 0.145270 0.090554
0.831013 0.148565 0.093491
0.857995 0.152429 0.096954
0.884291 0.156652 0.101021
0.909838 0.161338 0.105515
0.932467 0.166409 0.110342
0.947148 0.171623 0.115428
0.954690 0.177310 0.120807
0.961481 0.182833 0.126789
0.047896 0.171124 0.067885
0.067226 0.171634 0.067871
0.094814 0.170164 0.069406
0.127225 0.168328 0.069138
0.163049 0.165947 0.067948
0.209866 0.163854 0.064902
0.266482 0.158502 0.061144
0.306255 0.157008 0.062485
0.323497 0.161285 0.070878
0.357371 0.160822 0.072356
0.389712 0.160386 0.073771
0.422903 0.159178 0.074215
0.455728 0.157841 0.074728
0.488172 0.156387 0.075414
0.520601 0.155049 0.076391
0.553082 0.155219 0.077466
0.586771 0.155438 0.078458
0.621894 0.156412 0.079470
0.655485 0.157855 0.080514
0.685812 0.159559 0.081743
0.715205 0.161461 0.083173
0.744627 0.163703 0.084893
0.774082 0.166139 0.087002
0.802666 0.169024 0.089562
0.830629 0.172289 0.092620
0.857540 0.176085 0.096163
0.883759 0.180384 0.100279
0.909342 0.185223 0.104916
0.931899 0.190399 0.109905
0.945445 0.196037 0.115056
0.951135 0.202205 0.120358
0.955850 0.208500 0.125968
0.040955 0.201692 0.062921
0.060301 0.202755 0.063331
0.087722 0.200600 0.066093
0.116155 0.199976 0.066919
0.150992 0.198424 0.066535
0.188455 0.196384 0.066001
0.229960 0.196150 0.066614
0.271558 0.195493 0.067386
0.311894 0.194645 0.068236
0.348466 0.194188 0.068982
0.383027 0.193639 0.069779
0.415502 0.193302 0.070639
0.447125 0.192481 0.071587
0.478575 0.191020 0.072557
0.510840 0.188943 0.073665
0.543744 0.186694 0.074795
0.576886 0.183374 0.075934
0.611735 0.181360 0.077060
0.646124 0.182163 0.078290
0.678358 0.183994 0.079691
0.708825 0.185955 0.081211
0.739521 0.187960 0.083002
0.770109 0.190188 0.085253
0.799227 0.192942 0.088050
0.827264 0.196024 0.091241
0.853828 0.200025 0.094898
0.879101 0.204706 0.099176
0.902989 0.210088 0.103912
0.922780 0.216304 0.108932
0.934386 0.222697 0.114139
0.938268 0.229435 0.119445
0.941434 0.236104 0.125028
0.034168 0.234786 0.057257
0.052679 0.236616 0.058159
0.082795 0.232910 0.063132
0.109258 0.232504 0.064592
0.139271 0.232127 0.064514
0.177494 0.230177 0.064007
0.217002 0.227825 0.063437
0.259300 0.227299 0.064263
0.300180 0.227029 0.065284
0.339365 0.226417 0.066117
0.375534 0.226136 0.066950
0.409239 0.225958 0.067740
0.441081 0.225822 0.068643
0.472303 0.225213 0.069618
0.503704 0.224135 0.070739
0.535249 0.222292 0.071981
0.567261 0.219148 0.073242
0.599241 0.214276 0.074458
0.630427 0.210661 0.075833
0.661244 0.210330 0.077371
0.693055 0.212265 0.078984
0.725065 0.214544 0.080855
0.756866 0.216833 0.083213
0.785925 0.219611 0.086169
0.813448 0.223137 0.089498
0.839233 0.227307 0.093284
0.863098 0.232385 0.097656
0.886396 0.237753 0.102409
0.906977 0.243541 0.107450
0.919839 0.249565 0.112690
0.924050 0.256023 0.118064
0.927602 0.262481 0.123687
0.032478 0.269000 0.051539
0.045277 0.271284 0.052828
0.077915 0.266524 0.059858
0.106035 0.264886 0.061871
0.131448 0.265853 0.061737
0.167234 0.264147 0.061272
0.207582 0.261594 0.060507
0.247511 0.258879 0.059796
0.288444 0.258505 0.061060
0.327466 0.258154 0.062906
0.365583 0.257645 0.063919
0.401168 0.257305 0.064859
0.434665 0.257261 0.065778
0.466820 0.257398 0.066777
0.498461 0.257150 0.067911
0.530352 0.256342 0.069182
0.561990 0.254484 0.070484
0.592872 0.250309 0.071795
0.621829 0.244496 0.073198
0.649466 0.239903 0.074769
0.677774 0.239284 0.076495
0.708447 0.241850 0.078503
0.739241 0.244454 0.080998
0.768505 0.246973 0.084053
0.797033 0.249964 0.087578
0.823469 0.253829 0.091507
0.847996 0.258514 0.095903
0.871510 0.263634 0.100660
0.892909 0.269165 0.105681
0.907174 0.274962 0.110952
0.912185 0.280911 0.116315
0.916303 0.287005 0.121948
0.033108 0.302919 0.047640
0.041029 0.305568 0.048890
0.073158 0.299850 0.056307
0.103718 0.296693 0.059827
0.129081 0.297340 0.058935
0.157543 0.297224 0.058425
0.198774 0.294265 0.057670
0.239125 0.291635 0.056865
0.277621 0.289006 0.056316
0.316399 0.288615 0.058475
0.354057 0.288511 0.060641
0.390760 0.288164 0.061821
0.426021 0.288029 0.062917
0.459837 0.287918 0.064000
0.492622 0.288027 0.065210
0.525249 0.287870 0.066501
0.558155 0.286908 0.067778
0.590605 0.284402 0.069070
0.621148 0.279474 0.070518
0.646679 0.272949 0.072162
0.669188 0.267404 0.073981
0.695087 0.266785 0.076108
0.725202 0.269586 0.078705
0.754203 0.272214 0.081869
0.782643 0.275050 0.085455
0.809277 0.278802 0.089446
0.834297 0.283084 0.093825
0.858333 0.287903 0.098599
0.880872 0.292968 0.103651
0.896914 0.298449 0.108915
0.902412 0.304120 0.114278
0.906925 0.310032 0.119902
0.034069 0.335579 0.048052
0.041123 0.338594 0.048509
0.068061 0.332491 0.053092
0.101507 0.327678 0.058502
0.128212 0.327193 0.057595
0.154412 0.327862 0.056543
0.190188 0.325603 0.055919
0.230904 0.323005 0.055210
0.269287 0.320541 0.054422
0.306277 0.318081 0.053996
0.343860 0.317811 0.056285
0.380274 0.317807 0.058698
0.416380 0.317589 0.060015
0.451592 0.317467 0.061232
0.485977 0.317362 0.062495
0.519752 0.317424 0.063814
0.553386 0.317164 0.065077
0.587391 0.315633 0.066390
0.620715 0.312515 0.067846
0.649417 0.307190 0.069515
0.670004 0.299712 0.071423
0.687372 0.292600 0.073652
0.713611 0.293018 0.076368
0.742073 0.295745 0.079651
0.770261 0.298582 0.083243
0.797026 0.302104 0.087238
0.822238 0.306304 0.091650
0.846545 0.310819 0.096397
0.869888 0.315760 0.101429
0.887544 0.320957 0.106634
0.893577 0.326434 0.111975
0.898476 0.332054 0.117465
0.034999 0.367582 0.047868
0.041840 0.370918 0.047891
0.064379 0.364732 0.051572
0.097373 0.358795 0.056060
0.127207 0.356394 0.057178
0.153195 0.356266 0.055363
0.182575 0.355984 0.054739
0.222679 0.353277 0.054146
0.262574 0.351014 0.053527
0.298983 0.348761 0.052847
0.334541 0.346517 0.052659
0.370725 0.346387 0.054909
0.406631 0.346364 0.057093
0.442552 0.346157 0.058356
0.478241 0.345950 0.059807
0.513522 0.345900 0.061216
0.548296 0.345873 0.062544
0.583247 0.344991 0.063866
0.618168 0.342761 0.065326
0.650940 0.339160 0.067012
0.675759 0.333532 0.068940
0.692468 0.325440 0.071247
0.707451 0.316780 0.073991
0.731974 0.318131 0.077257
0.759281 0.321048 0.080868
0.785959 0.324474 0.084875
0.811214 0.328548 0.089269
0.835502 0.332980 0.093981
0.859273 0.337741 0.098936
0.878975 0.342663 0.104126
0.885629 0.348098 0.109426
0.890867 0.353444 0.114801
0.035929 0.398644 0.048716
0.042621 0.402437 0.048716
0.057879 0.396812 0.050382
0.094163 0.388606 0.054552
0.125932 0.385288 0.056472
0.152472 0.384576 0.055151
0.178718 0.384499 0.053798
0.213892 0.382469 0.053249
0.255828 0.380264 0.052633
0.293344 0.378361 0.052196
0.328218 0.376250 0.051771
0.361244 0.374262 0.052318
0.396772 0.374197 0.054089
0.432947 0.374266 0.055357
0.469355 0.374123 0.056858
0.505898 0.374080 0.058626
0.542228 0.374025 0.060158
0.578457 0.373536 0.061602
0.614391 0.371969 0.063089
0.649490 0.369241 0.064735
0.679604 0.365466 0.066611
0.701020 0.360027 0.068793
0.715351 0.350842 0.071517
0.727937 0.341193 0.074748
0.751617 0.342463 0.078356
0.776317 0.346015 0.082336
0.801357 0.350104 0.086724
0.825606 0.354508 0.091409
0.849630 0.359133 0.096382
0.870403 0.364028 0.101451
0.879174 0.369197 0.106605
0.885037 0.374295 0.111866
0.036859 0.429601 0.049646
0.043511 0.433733 0.049646
0.054620 0.428506 0.049748
0.088779 0.419551 0.052791
0.124570 0.414172 0.055432
0.151703 0.413065 0.055027
0.177224 0.412655 0.053242
0.207081 0.411295 0.052106
0.248567 0.409027 0.051513
0.287635 0.407268 0.051031
0.323178 0.405462 0.050634
0.355728 0.403522 0.050986
0.387916 0.401749 0.051737
0.423600 0.401781 0.052772
0.460348 0.401913 0.054255
0.497507 0.401947 0.056082
0.534965 0.402062 0.057897
0.572673 0.401859 0.059431
0.609787 0.400851 0.061120
0.646244 0.398690 0.062725
0.679989 0.395816 0.064433
0.706187 0.392382 0.066342
0.725193 0.386754 0.068896
0.735865 0.374516 0.072097
0.748969 0.366098 0.075631
0.770361 0.367154 0.079584
0.794224 0.370958 0.083944
0.818505 0.375362 0.088631
0.842272 0.380063 0.093557
0.863674 0.384830 0.098555
0.875077 0.389745 0.103536
0.881636 0.394786 0.108657
0.037790 0.460730 0.050577
0.044382 0.465014 0.050577
0.053609 0.460328 0.050629
0.085199 0.450059 0.051703
0.123268 0.443264 0.054537
0.150774 0.441982 0.054422
0.176639 0.441154 0.053488
0.203493 0.439833 0.052235
0.240425 0.437280 0.051791
0.281279 0.435794 0.051496
0.318001 0.434359 0.051126
0.351721 0.432629 0.051138
0.383431 0.430828 0.051689
0.415708 0.429211 0.051985
0.451763 0.429489 0.053069
0.489232 0.429862 0.054568
0.527231 0.430166 0.056101
0.566084 0.430172 0.057476
0.604618 0.429546 0.059032
0.642169 0.427956 0.060545
0.678222 0.425767 0.062079
0.708379 0.423259 0.063807
0.731453 0.420138 0.066188
0.749015 0.414177 0.069302
0.758133 0.401310 0.072786
0.768974 0.391595 0.076661
0.789281 0.392154 0.080978
0.812921 0.396133 0.085649
0.836773 0.400747 0.090506
0.858795 0.405499 0.095364
0.872372 0.410308 0.100219
0.879167 0.415232 0.105189
0.038720 0.492460 0.051507
0.045274 0.496887 0.051507
0.052179 0.493041 0.051526
0.082078 0.481899 0.051978
0.121665 0.473300 0.054241
0.149844 0.471746 0.054200
0.176168 0.470694 0.054052
0.201260 0.469279 0.053176
0.232522 0.466277 0.052922
0.273526 0.464135 0.052630
0.312487 0.463351 0.052347
0.347226 0.462026 0.052188
0.379993 0.460392 0.052402
0.411904 0.458733 0.052676
0.444572 0.457303 0.052745
0.481246 0.457755 0.053852
0.519546 0.458532 0.055173
0.559004 0.458973 0.056225
0.598653 0.458786 0.057536
0.637556 0.457598 0.058838
0.675103 0.455886 0.060195
0.708648 0.453935 0.061559
0.735157 0.451980 0.063635
0.756091 0.448822 0.066558
0.771399 0.441570 0.069846
0.779266 0.428423 0.073632
0.789491 0.418844 0.077857
0.808432 0.418433 0.082420
0.830911 0.421873 0.087154
0.853285 0.426561 0.091902
0.869335 0.431348 0.096631
0.876278 0.436243 0.101396
0.039636 0.525112 0.052423
0.046142 0.529629 0.052423
0.052555 0.526353 0.052423
0.078135 0.515308 0.052663
0.120082 0.504588 0.054825
0.148951 0.502773 0.054825
0.175630 0.501457 0.054771
0.200544 0.500189 0.054523
0.226729 0.497359 0.054176
0.264890 0.493312 0.053566
0.305765 0.492359 0.053105
0.342578 0.491843 0.052530
0.376093 0.490642 0.052758
0.408815 0.489213 0.053099
0.441152 0.487774 0.052985
0.474527 0.486495 0.052924
0.512048 0.487272 0.053839
0.551808 0.488260 0.054655
0.592172 0.488574 0.055767
0.632106 0.487837 0.056974
0.671068 0.486458 0.058289
0.707348 0.484957 0.059556
0.737187 0.483717 0.061484
0.760668 0.482098 0.064099
0.780101 0.478545 0.067102
0.795703 0.472798 0.070633
0.803193 0.460275 0.074666
0.811496 0.449282 0.079028
0.826604 0.445734 0.083595
0.847135 0.448271 0.088202
0.865446 0.453026 0.092808
0.873133 0.457863 0.097414
0.040550 0.559023 0.053337
0.046994 0.563597 0.053337
0.053311 0.561291 0.053337
0.076289 0.549562 0.053411
0.118380 0.537429 0.055827
0.148340 0.535174 0.055908
0.175219 0.533663 0.055852
0.200163 0.532427 0.055532
0.224465 0.530474 0.055234
0.257208 0.524979 0.054506
0.297542 0.521959 0.054135
0.336780 0.521858 0.053351
0.372105 0.521534 0.053440
0.405529 0.520541 0.053860
0.438599 0.519429 0.053848
0.471579 0.518146 0.053627
0.505823 0.517056 0.053710
0.544731 0.518273 0.054293
0.585549 0.519186 0.055364
0.626214 0.519089 0.056437
0.666171 0.518292 0.057530
0.704501 0.517086 0.058646
0.738071 0.516092 0.060387
0.764292 0.515469 0.062678
0.785908 0.513986 0.065263
0.804981 0.511423 0.068319
0.820157 0.506407 0.071824
0.828216 0.495182 0.075758
0.833785 0.482255 0.079856
0.844760 0.475234 0.084270
0.860859 0.475390 0.088733
0.869645 0.480191 0.093243
0.041467 0.594940 0.054237
0.047864 0.599459 0.054237
0.054114 0.597828 0.054237
0.074931 0.587192 0.054285
0.116279 0.573057 0.055808
0.147478 0.570003 0.056020
0.174802 0.568164 0.055976
0.199841 0.566756 0.055599
0.223548 0.565206 0.055347
0.251318 0.560601 0.054832
0.288999 0.554985 0.054596
0.329291 0.552807 0.054237
0.367034 0.553319 0.054237
0.402043 0.553324 0.054309
0.435911 0.552741 0.054333
0.469630 0.551794 0.054299
0.503678 0.550631 0.054278
0.539245 0.549750 0.054368
0.579308 0.551109 0.055297
0.620454 0.551782 0.056351
0.661022 0.551639 0.057407
0.700383 0.550860 0.058496
0.737457 0.549926 0.060050
0.767332 0.549800 0.062091
0.790730 0.549313 0.064196
0.811639 0.548585 0.066660
0.830021 0.546520 0.069489
0.845343 0.542595 0.072738
0.855402 0.534176 0.076292
0.859946 0.520898 0.080359
0.865760 0.510271 0.084595
0.872894 0.509946 0.088930
0.042560 0.631214 0.055136
0.048955 0.635491 0.055136
0.055108 0.634850 0.055136
0.071740 0.625808 0.055159
0.111862 0.611745 0.056170
0.146448 0.606952 0.056413
0.174571 0.604669 0.056442
0.199681 0.603143 0.056088
0.223157 0.601735 0.055956
0.248486 0.599121 0.055627
0.283460 0.592965 0.055533
0.322346 0.586957 0.055363
0.360122 0.585549 0.055312
0.397667 0.586895 0.055299
0.433162 0.587355 0.055281
0.467605 0.586961 0.055281
0.502190 0.586156 0.055354
0.537643 0.585201 0.055534
0.574540 0.584442 0.055767
0.615082 0.585675 0.056798
0.656050 0.586133 0.057991
0.696059 0.586096 0.058867
0.734755 0.585628 0.059906
0.768829 0.585175 0.061356
0.795042 0.585226 0.063052
0.817166 0.585445 0.065038
0.837394 0.585089 0.067352
0.855548 0.583816 0.070168
0.871170 0.580910 0.073316
0.882799 0.574823 0.076817
0.888814 0.564020 0.080412
0.899995 0.564281 0.084430
0.043801 0.667069 0.056036
0.050152 0.671114 0.056036
0.056175 0.671287 0.056036
0.070534 0.664041 0.056036
0.106636 0.650754 0.056595
0.144519 0.644342 0.056732
0.174411 0.641180 0.056844
0.199776 0.639532 0.056662
0.223273 0.638146 0.056556
0.246654 0.636327 0.056490
0.277580 0.631819 0.056456
0.316300 0.624967 0.056400
0.352835 0.619652 0.056360
0.389631 0.618643 0.056338
0.427889 0.620794 0.056292
0.464352 0.621975 0.056292
0.499976 0.621978 0.056578
0.536246 0.621594 0.057573
0.573253 0.621003 0.058674
0.610912 0.620309 0.059539
0.651346 0.621405 0.060803
0.691671 0.622053 0.061427
0.731250 0.622071 0.061581
0.767711 0.621782 0.061690
0.798095 0.621655 0.063032
0.821973 0.622488 0.064853
0.843877 0.623060 0.066365
0.863617 0.623300 0.067907
0.881412 0.622334 0.070691
0.897039 0.620326 0.073414
0.909341 0.615522 0.076405
0.924462 0.616331 0.079947
0.045111 0.702657 0.056916
0.051441 0.706557 0.056916
0.057374 0.707584 0.056916
0.069631 0.701876 0.056916
0.101074 0.689615 0.057636
0.143094 0.681175 0.057663
0.174859 0.677149 0.057906
0.200264 0.675421 0.057774
0.223848 0.673993 0.057655
0.246355 0.672503 0.057557
0.270424 0.669908 0.057514
0.306771 0.663805 0.057449
0.347242 0.656966 0.057422
0.381869 0.652082 0.057377
0.418224 0.650890 0.057325
0.457693 0.654163 0.057327
0.495664 0.655954 0.057688
0.533052 0.656456 0.059270
0.570719 0.656505 0.061412
0.608778 0.656270 0.063308
0.646355 0.655356 0.064239
0.685856 0.656178 0.064980
0.725593 0.656861 0.065457
0.763938 0.657361 0.065780
0.797601 0.657228 0.065977
0.823426 0.658374 0.067385
0.846898 0.659799 0.068495
0.868386 0.660913 0.069662
0.889257 0.661906 0.071352
0.907342 0.661749 0.071838
0.923276 0.660297 0.073061
0.939575 0.660499 0.075836
0.046496 0.737887 0.057908
0.052743 0.741586 0.057939
0.058643 0.743213 0.057959
0.069494 0.739059 0.057936
0.096284 0.728115 0.058594
0.140720 0.718176 0.058712
0.175730 0.712606 0.059079
0.201188 0.710769 0.058972
0.224877 0.709129 0.058885
0.247397 0.707581 0.058728
0.269897 0.705629 0.058641
0.299575 0.701113 0.058516
0.339269 0.694062 0.058455
0.375882 0.688111 0.058378
0.410203 0.683218 0.058308
0.446617 0.681904 0.058250
0.487900 0.686257 0.058316
0.527503 0.688720 0.059668
0.566439 0.689727 0.062311
0.605303 0.690274 0.065062
0.643103 0.689793 0.066797
0.679772 0.688476 0.067421
0.718666 0.689467 0.068208
0.757048 0.690362 0.068758
0.793360 0.690781 0.068795
0.821010 0.691438 0.069214
0.845125 0.693077 0.070522
0.868216 0.695232 0.072087
0.890652 0.697466 0.073616
0.912069 0.699052 0.074505
0.931843 0.700070 0.073833
0.950135 0.700878 0.073942
0.047614 0.772493 0.059014
0.053743 0.775757 0.059045
0.059533 0.777822 0.059053
0.069131 0.775070 0.059064
0.091327 0.766233 0.059746
0.138599 0.755012 0.060426
0.176788 0.747845 0.061273
0.202599 0.745731 0.061086
0.226389 0.743882 0.060885
0.248842 0.742137 0.060609
0.270583 0.740343 0.060395
0.293888 0.737487 0.060172
0.329223 0.731344 0.059976
0.368538 0.724452 0.059802
0.404401 0.718688 0.059584
0.439144 0.714119 0.059440
0.476702 0.713335 0.059252
0.519336 0.717971 0.059672
0.560797 0.721242 0.062097
0.600548 0.722737 0.065630
0.639336 0.723141 0.068366
0.676280 0.722117 0.069683
0.711984 0.720487 0.070095
0.749457 0.721404 0.070752
0.786142 0.722244 0.071114
0.817391 0.722451 0.070712
0.842600 0.723792 0.071364
0.865549 0.726085 0.073236
0.887868 0.728523 0.075123
0.909698 0.730603 0.076609
0.931085 0.732641 0.076822
0.951265 0.734287 0.076245
0.048261 0.804186 0.060100
0.054311 0.806946 0.060139
0.060053 0.808971 0.060161
0.067691 0.807609 0.060195
0.088225 0.800900 0.061292
0.135712 0.790304 0.062403
0.177186 0.782271 0.064308
0.204086 0.779575 0.064017
0.228276 0.777452 0.063588
0.250570 0.775650 0.063151
0.272257 0.773770 0.062654
0.293452 0.771843 0.062296
0.320860 0.767591 0.061798
0.361048 0.760071 0.061488
0.398747 0.753581 0.060999
0.433991 0.747888 0.060720
0.469074 0.743278 0.060313
0.508458 0.743334 0.060249
0.552502 0.748790 0.060859
0.594703 0.752592 0.064716
0.634945 0.754457 0.068933
0.672712 0.754331 0.071211
0.708335 0.752769 0.071987
0.742706 0.751068 0.072206
0.778756 0.752083 0.072743
0.812454 0.752635 0.072372
0.839824 0.753104 0.072042
0.863108 0.754574 0.073219
0.885198 0.756968 0.075191
0.906801 0.759367 0.077095
0.928052 0.761513 0.078312
0.948957 0.763819 0.078459
0.048858 0.832945 0.061240
0.054844 0.835217 0.061270
0.060489 0.837025 0.061277
0.067068 0.836635 0.061350
0.086109 0.831955 0.062938
0.131538 0.822765 0.064551
0.176293 0.814060 0.067467
0.205300 0.810622 0.067140
0.230416 0.808153 0.066581
0.252659 0.806460 0.065951
0.274312 0.804700 0.065085
0.295361 0.802980 0.064554
0.317227 0.800620 0.063723
0.351656 0.794753 0.063287
0.392120 0.787477 0.062580
0.429302 0.781282 0.062103
0.464818 0.775597 0.061468
0.500849 0.771339 0.061285
0.542011 0.772782 0.061238
0.587352 0.779385 0.063152
0.629336 0.783141 0.067858
0.668792 0.784770 0.071870
0.705066 0.784028 0.073400
0.739386 0.782277 0.073789
0.772361 0.780618 0.073863
0.805783 0.781053 0.073724
0.836160 0.781414 0.073163
0.860979 0.782081 0.073358
0.882939 0.783720 0.074678
0.904389 0.785982 0.076643
0.925437 0.788065 0.078386
0.946212 0.790238 0.079084
0.049416 0.860027 0.062259
0.055364 0.861974 0.062265
0.060969 0.863582 0.062270
0.067546 0.863575 0.062492
0.085136 0.860735 0.064651
0.127649 0.852430 0.066845
0.173345 0.843318 0.070811
0.205778 0.838671 0.070872
0.233229 0.835396 0.070386
0.255429 0.833593 0.069389
0.277067 0.831799 0.068116
0.298091 0.830146 0.067349
0.319479 0.828267 0.066179
0.346518 0.824561 0.065501
0.385839 0.817417 0.064497
0.424591 0.810881 0.063771
0.460706 0.805139 0.062808
0.496234 0.799766 0.062413
0.533631 0.796738 0.062133
0.576961 0.800754 0.062453
0.622496 0.808026 0.064920
0.664057 0.811806 0.070333
0.701457 0.812568 0.073390
0.736412 0.811644 0.074599
0.769104 0.809974 0.074997
0.800043 0.808214 0.074845
0.831116 0.808285 0.074365
0.858256 0.808537 0.074024
0.881110 0.809174 0.074275
0.902348 0.810830 0.075733
0.923296 0.812770 0.077567
0.943786 0.814883 0.078910
0.050086 0.886422 0.063128
0.055947 0.888136 0.063759
0.061499 0.889534 0.064277
0.068138 0.889991 0.065128
0.085183 0.888471 0.066670
0.123901 0.881253 0.069144
0.169225 0.871958 0.074077
0.205842 0.865673 0.075195
0.236275 0.861165 0.075006
0.258676 0.859199 0.073442
0.280361 0.857261 0.071814
0.301368 0.855377 0.070687
0.322300 0.853467 0.069131
0.344300 0.851106 0.068019
0.378367 0.845277 0.066638
0.419692 0.837794 0.065536
0.457345 0.831611 0.064276
0.493090 0.826086 0.063517
0.528561 0.820926 0.062991
0.566756 0.819752 0.062986
0.611707 0.826437 0.063250
0.656438 0.834030 0.066272
0.696166 0.837220 0.070963
0.731719 0.837264 0.073228
0.764620 0.836079 0.074150
0.795519 0.834485 0.074458
0.824286 0.832357 0.073856
0.853515 0.832130 0.073339
0.878739 0.832399 0.073080
0.900693 0.833507 0.073726
0.921386 0.835361 0.075585
0.941686 0.837429 0.077494
0.050712 0.911865 0.065880
0.056549 0.913338 0.067052
0.062956 0.914435 0.068127
0.071017 0.914957 0.069398
0.088157 0.914308 0.070392
0.122106 0.908565 0.072163
0.164487 0.899975 0.077010
0.204853 0.892151 0.079342
0.238946 0.886221 0.079825
0.261757 0.883895 0.077925
0.283613 0.881732 0.076025
0.304637 0.879668 0.074374
0.325576 0.877584 0.072480
0.347119 0.875264 0.071039
0.374201 0.871132 0.069221
0.413092 0.863958 0.067780
0.454287 0.856630 0.066172
0.491164 0.850659 0.065030
