lut-uploads/W-9520-STD.cube
# Copyright: (C) Copyright 2016 by IWLTBAP
# Cannot be resold, shared or otherwise redistributed
# Website: http://luts.iwltbap.com
TITLE "IWLTBAP 9520 (Rec.709)"
LUT_3D_SIZE 8
DOMAIN_MIN 0.000000 0.000000 0.000000
DOMAIN_MAX 0.903226 0.903226 0.903226
0.061340 0.065826 0.093811
0.230960 0.055648 0.065169
0.306383 0.065068 0.080829
0.428718 0.064683 0.079809
0.558294 0.066837 0.081500
0.698353 0.069326 0.083558
0.821359 0.076693 0.090623
0.928057 0.092127 0.108218
0.047896 0.171124 0.067885
0.163049 0.165947 0.067948
0.323497 0.161285 0.070878
0.455728 0.157841 0.074728
0.586771 0.155438 0.078458
0.715205 0.161461 0.083173
0.830629 0.172289 0.092620
0.931899 0.190399 0.109905
0.033108 0.302919 0.047640
0.129081 0.297340 0.058935
0.277621 0.289006 0.056316
0.426021 0.288029 0.062917
0.558155 0.286908 0.067778
0.669188 0.267404 0.073981
0.782643 0.275050 0.085455
0.880872 0.292968 0.103651
0.036859 0.429601 0.049646
0.124570 0.414172 0.055432
0.248567 0.409027 0.051513
0.387916 0.401749 0.051737
0.534965 0.402062 0.057897
0.679989 0.395816 0.064433
0.748969 0.366098 0.075631
0.842272 0.380063 0.093557
0.040550 0.559023 0.053337
0.118380 0.537429 0.055827
0.224465 0.530474 0.055234
0.372105 0.521534 0.053440
0.505823 0.517056 0.053710
0.666171 0.518292 0.057530
0.785908 0.513986 0.065263
0.833785 0.482255 0.079856
0.045111 0.702657 0.056916
0.101074 0.689615 0.057636
0.223848 0.673993 0.057655
0.347242 0.656966 0.057422
0.495664 0.655954 0.057688
0.646355 0.655356 0.064239
0.797601 0.657228 0.065977
0.889257 0.661906 0.071352
0.048858 0.832945 0.061240
0.086109 0.831955 0.062938
0.230416 0.808153 0.066581
0.317227 0.800620 0.063723
0.464818 0.775597 0.061468
0.629336 0.783141 0.067858
0.772361 0.780618 0.073863
0.882939 0.783720 0.074678
0.051356 0.933036 0.070306
0.094635 0.934626 0.075117
0.239098 0.911218 0.084261
0.328623 0.900770 0.075950
0.451204 0.880855 0.068152
0.594724 0.859792 0.065164
0.754075 0.879850 0.072659
0.866199 0.874098 0.069451
0.062241 0.070362 0.244044
0.172231 0.063521 0.227446
0.312188 0.061155 0.229399
0.431052 0.063433 0.237875
0.560706 0.066164 0.245864
0.683365 0.069098 0.255925
0.807102 0.075498 0.271338
0.919812 0.089554 0.287764
0.044355 0.166868 0.189771
0.144916 0.184275 0.210208
0.400630 0.154686 0.168028
0.481359 0.166165 0.197778
0.538325 0.184529 0.233224
0.695038 0.179525 0.234343
0.825220 0.187873 0.251785
0.930285 0.204355 0.269649
0.033111 0.297976 0.149896
0.090491 0.327591 0.169188
0.293362 0.302249 0.151580
0.508135 0.285003 0.123324
0.569818 0.300390 0.168931
0.676918 0.284466 0.180514
0.784114 0.287051 0.193322
0.881580 0.303774 0.212061
0.036859 0.426385 0.123991
0.067489 0.457446 0.145582
0.251081 0.423306 0.153605
0.396140 0.416619 0.150190
0.546956 0.416225 0.157418
0.691113 0.409960 0.166920
0.756622 0.377745 0.180403
0.850421 0.390827 0.198404
0.040550 0.556562 0.113614
0.067145 0.589702 0.138408
0.223537 0.551793 0.153195
0.382718 0.538440 0.143620
0.521700 0.533987 0.141134
0.680493 0.534211 0.154414
0.797589 0.529564 0.166201
0.843919 0.497111 0.182474
0.045122 0.701153 0.113772
0.071087 0.730463 0.140211
0.184159 0.711120 0.152346
0.356190 0.673660 0.151341
0.509635 0.672278 0.141997
0.660974 0.671407 0.152122
0.808074 0.672430 0.159351
0.899700 0.677373 0.171508
0.049017 0.831894 0.130816
0.078167 0.851259 0.156671
0.161155 0.845686 0.159298
0.321412 0.813941 0.162790
0.475811 0.786856 0.153361
0.643387 0.795184 0.154660
0.783614 0.792009 0.156949
0.889936 0.793796 0.164052
0.051328 0.931607 0.159639
0.103822 0.939486 0.181683
0.182246 0.937734 0.178738
0.314657 0.914578 0.178003
0.459222 0.887872 0.166704
0.605526 0.865928 0.155918
0.763008 0.886227 0.157602
0.872491 0.880384 0.151221
0.063684 0.069278 0.423360
0.150347 0.066648 0.417053
0.291977 0.057800 0.407380
0.424954 0.057916 0.426884
0.545647 0.062986 0.444005
0.677295 0.065082 0.447978
0.798114 0.071449 0.448115
0.913346 0.085645 0.458519
0.043576 0.174934 0.382994
0.114206 0.194947 0.421363
0.232870 0.186426 0.421709
0.377395 0.181755 0.445187
0.513850 0.178817 0.452989
0.672735 0.181991 0.437994
0.804362 0.188178 0.428606
0.924202 0.202318 0.436244
0.033371 0.290431 0.325960
0.081551 0.320323 0.359450
0.246924 0.321545 0.351303
0.510507 0.291470 0.285298
0.634671 0.284029 0.287688
0.668433 0.316428 0.359684
0.770143 0.297032 0.342449
0.877731 0.310950 0.357774
0.036879 0.414447 0.297174
0.065509 0.444900 0.330276
0.152466 0.460897 0.343949
0.410466 0.422190 0.279311
0.630361 0.406561 0.213228
0.700367 0.415075 0.299500
0.771746 0.392453 0.292546
0.853222 0.395534 0.300572
0.040550 0.539258 0.269173
0.067054 0.571978 0.305495
0.129238 0.594636 0.324178
0.359260 0.551791 0.273168
0.525162 0.545658 0.254765
0.694004 0.545229 0.259348
0.805622 0.541315 0.272718
0.850615 0.507375 0.278296
0.044714 0.688854 0.248828
0.070612 0.718031 0.283983
0.132452 0.737731 0.295254
0.307537 0.704631 0.259364
0.516380 0.684525 0.240275
0.674153 0.684301 0.245091
0.815656 0.684803 0.256955
0.906670 0.689589 0.266949
0.049934 0.827550 0.238480
0.078117 0.846964 0.265947
0.155322 0.856909 0.272010
0.248587 0.847403 0.262813
0.482280 0.796230 0.250720
0.655355 0.804997 0.247820
0.792137 0.800876 0.252869
0.895432 0.801846 0.257698
0.052112 0.928785 0.258297
0.103170 0.938148 0.277436
0.191084 0.942021 0.284326
0.278783 0.932850 0.274706
0.456199 0.895965 0.262764
0.614969 0.871298 0.248622
0.770291 0.891375 0.250255
0.877674 0.885516 0.243643
0.064855 0.073681 0.578453
0.134084 0.071318 0.590147
0.267304 0.064381 0.563188
0.393679 0.056408 0.580594
0.528758 0.059216 0.599750
0.672488 0.061869 0.610413
0.800063 0.066857 0.615259
0.906239 0.081392 0.612569
0.043202 0.174961 0.558110
0.112829 0.194658 0.590388
0.199845 0.183092 0.590105
0.354164 0.168053 0.591721
0.507313 0.172094 0.609927
0.668944 0.178964 0.605225
0.806445 0.184822 0.593915
0.918747 0.199071 0.587522
0.037092 0.301671 0.496766
0.081414 0.330532 0.535721
0.159890 0.348288 0.564859
0.293900 0.332047 0.546025
0.444347 0.333446 0.565395
0.640095 0.311993 0.553773
0.773553 0.293234 0.524315
0.886411 0.299747 0.519937
0.037023 0.407762 0.453348
0.064542 0.438163 0.485678
0.136315 0.458436 0.505240
0.353098 0.443871 0.471694
0.629642 0.412699 0.400846
0.713663 0.426905 0.446713
0.784034 0.427361 0.467758
0.848278 0.402961 0.443745
0.040550 0.531430 0.433596
0.067055 0.564124 0.465369
0.125025 0.587762 0.486305
0.240524 0.592649 0.482181
0.540324 0.553118 0.403545
0.754673 0.538377 0.327119
0.810828 0.548782 0.422584
0.864188 0.523223 0.400349
0.044098 0.676512 0.420464
0.069630 0.707325 0.449450
0.128294 0.726563 0.464209
0.222514 0.735729 0.462037
0.501100 0.690421 0.396630
0.675030 0.692645 0.390523
0.821320 0.692542 0.392063
0.910763 0.696981 0.404533
0.049719 0.814798 0.410177
0.076948 0.835876 0.434815
0.153452 0.846636 0.442650
0.248915 0.849506 0.434231
0.429873 0.817762 0.374337
0.664612 0.812899 0.340830
0.800109 0.808934 0.343810
0.900431 0.808412 0.353509
0.053748 0.920722 0.412099
0.102649 0.931126 0.430888
0.190220 0.934084 0.430189
0.288593 0.932415 0.409355
0.412085 0.914477 0.363696
0.622928 0.875517 0.340519
0.776823 0.896098 0.340821
0.882340 0.890238 0.334407
0.068047 0.081378 0.682812
0.135722 0.079967 0.697565
0.253120 0.071962 0.675412
0.368568 0.064582 0.676511
0.508822 0.056365 0.698505
0.668851 0.059048 0.716401
0.799724 0.065126 0.730774
0.916314 0.078216 0.740483
0.044033 0.173777 0.671499
0.112608 0.194189 0.697693
0.187272 0.190822 0.706514
0.313151 0.178397 0.682097
0.473592 0.171470 0.713133
0.666854 0.175269 0.724520
0.806558 0.183575 0.730875
0.927602 0.196204 0.737551
0.040550 0.306598 0.656798
0.081995 0.332597 0.683640
0.158878 0.346735 0.697451
0.242250 0.336576 0.691639
0.417102 0.310220 0.673894
0.630990 0.287345 0.681450
0.798660 0.286476 0.704709
0.922551 0.293740 0.711086
0.041115 0.417904 0.602904
0.068366 0.447397 0.634338
0.138662 0.468205 0.659667
0.226805 0.477529 0.680571
0.405010 0.453561 0.663704
0.628460 0.446673 0.677662
0.758658 0.406191 0.631570
0.854534 0.400424 0.612674
0.040664 0.526308 0.572853
0.067137 0.559319 0.604232
0.123228 0.582517 0.625952
0.214544 0.595427 0.636410
0.497620 0.576480 0.598478
0.760231 0.549314 0.537407
0.812822 0.580324 0.614410
0.890218 0.566000 0.598330
0.044098 0.672774 0.568122
0.069700 0.704639 0.597205
0.127938 0.724924 0.614333
0.226331 0.734241 0.619950
0.412305 0.719181 0.596044
0.689373 0.700073 0.539249
0.840772 0.695125 0.516292
0.914963 0.701090 0.565013
0.047542 0.811385 0.561467
0.073304 0.834102 0.585104
0.151007 0.844741 0.595564
0.248988 0.845667 0.594306
0.414907 0.824703 0.564563
0.660958 0.812466 0.524817
0.799995 0.810428 0.516812
0.904037 0.808722 0.529288
0.053724 0.913457 0.557236
0.101065 0.924377 0.575021
0.189102 0.925812 0.579009
0.287311 0.922258 0.573977
0.437105 0.904290 0.544393
0.612987 0.874487 0.496106
0.777816 0.898377 0.497647
0.882097 0.890299 0.492247
0.071025 0.089774 0.793596
0.137798 0.089235 0.808617
0.243704 0.081123 0.798651
0.349022 0.074835 0.765353
0.483693 0.066799 0.784790
0.661562 0.057968 0.807030
0.797172 0.064561 0.823340
0.915677 0.078649 0.834777
0.045880 0.183541 0.781330
0.113886 0.204798 0.803664
0.185131 0.202708 0.816092
0.304639 0.189735 0.795471
0.439939 0.183700 0.788442
0.648661 0.175430 0.818154
0.805446 0.183592 0.828235
0.928844 0.197652 0.837401
0.044520 0.288006 0.744518
0.086731 0.309245 0.763414
0.163989 0.321214 0.774721
0.243296 0.312735 0.770073
0.377136 0.288715 0.738940
0.605662 0.285421 0.777516
0.800869 0.285824 0.811865
0.928541 0.294871 0.825229
0.044098 0.425784 0.751399
0.070525 0.454074 0.774491
0.143669 0.469594 0.787136
0.232369 0.473544 0.792006
0.369533 0.444685 0.767224
0.603079 0.418246 0.763569
0.755624 0.392782 0.746683
0.870745 0.403478 0.756629
0.044373 0.538705 0.720016
0.069731 0.570717 0.750089
0.131106 0.593462 0.771167
0.221021 0.607192 0.785957
0.374790 0.601172 0.782603
0.604672 0.585131 0.777805
0.803085 0.566005 0.773515
0.855682 0.521791 0.718527
0.044216 0.669420 0.706955
0.070262 0.701504 0.735555
0.129268 0.721128 0.751981
0.225028 0.731085 0.759294
0.403473 0.718398 0.743574
0.674054 0.721481 0.735440
0.856734 0.707054 0.698127
0.914806 0.724967 0.742771
0.049443 0.810634 0.708641
0.074785 0.833250 0.730379
0.153929 0.844504 0.740978
0.256040 0.846469 0.742011
0.441291 0.826432 0.720452
0.632969 0.825690 0.707395
0.813457 0.819795 0.681726
0.910424 0.811034 0.681370
0.051275 0.920454 0.705440
0.098855 0.931455 0.720935
0.189165 0.932594 0.724079
0.305755 0.923775 0.715267
0.469628 0.901481 0.690949
0.612076 0.879611 0.656730
0.775736 0.899355 0.655796
0.882664 0.891984 0.643774
0.072342 0.098856 0.899541
0.139780 0.099952 0.909776
0.239417 0.093102 0.898764
0.349046 0.087500 0.860612
0.486342 0.079922 0.876827
0.658060 0.070214 0.888124
0.796941 0.064632 0.905950
0.916193 0.079028 0.914193
0.048959 0.197414 0.878054
0.116837 0.218904 0.885028
0.188088 0.217957 0.887772
0.307692 0.202317 0.874320
0.451535 0.195765 0.874460
0.649201 0.187415 0.891625
0.806933 0.183971 0.911758
0.930683 0.198529 0.918156
0.050499 0.296659 0.840215
0.096292 0.318583 0.855076
0.172550 0.330846 0.861455
0.252900 0.321568 0.856884
0.390259 0.298298 0.828401
0.597522 0.287288 0.851490
0.803666 0.286138 0.899161
0.930668 0.295377 0.911295
0.047556 0.411035 0.825440
0.076142 0.435514 0.842568
0.153483 0.438069 0.841660
0.244475 0.433904 0.837988
0.355717 0.405477 0.813398
0.562931 0.386274 0.810686
0.749301 0.395610 0.831561
0.875323 0.403107 0.845322
0.047542 0.553235 0.841563
0.072230 0.584822 0.863962
0.141854 0.605809 0.877472
0.234379 0.615081 0.881747
0.366852 0.606429 0.872611
0.600063 0.569542 0.849124
0.781999 0.540007 0.838931
0.843467 0.505089 0.798163
0.047709 0.685206 0.839546
0.073366 0.715066 0.860880
0.143172 0.732709 0.870441
0.244774 0.740242 0.872424
0.422075 0.727032 0.861060
0.611215 0.722952 0.856639
0.814508 0.718624 0.850900
0.916813 0.710354 0.854114
0.049851 0.808223 0.830643
0.076248 0.830589 0.848923
0.157838 0.841154 0.856216
0.259301 0.843073 0.855848
0.445017 0.822809 0.834411
0.640889 0.830280 0.838722
0.817680 0.832688 0.837585
0.931624 0.825287 0.821554
0.051806 0.918857 0.829638
0.100417 0.929140 0.840469
0.192231 0.929938 0.841008
0.296917 0.925334 0.834401
0.478128 0.901752 0.808310
0.636126 0.893772 0.793914
0.786542 0.912952 0.805896
0.902024 0.908585 0.790807
0.076415 0.110567 0.941917
0.143668 0.112931 0.941917
0.240290 0.106936 0.930106
0.352477 0.101766 0.889837
0.496844 0.094031 0.907075
0.666362 0.084589 0.913657
0.813130 0.080100 0.941978
0.917995 0.080850 0.942010
0.053350 0.213219 0.909873
0.123299 0.233979 0.909273
0.195002 0.233061 0.909689
0.311341 0.216651 0.889234
0.467845 0.208724 0.901001
0.666078 0.200359 0.915591
0.824348 0.197912 0.945139
0.933879 0.200675 0.945171
0.054267 0.310191 0.886807
0.105157 0.331496 0.885653
0.182171 0.343018 0.887614
0.264962 0.331829 0.881781
0.410700 0.307506 0.859413
0.613489 0.296263 0.878924
0.820900 0.297669 0.941529
0.933359 0.297420 0.946855
0.051294 0.400184 0.865531
0.085929 0.423493 0.865131
0.165451 0.436021 0.866400
0.259260 0.438995 0.868504
0.374854 0.408795 0.849988
0.575215 0.385156 0.851766
0.765874 0.406120 0.891872
0.879042 0.404316 0.900746
0.050835 0.562430 0.916649
0.076027 0.596571 0.926640
0.154929 0.614455 0.930863
0.250587 0.617387 0.929231
0.389438 0.597968 0.916835
0.584961 0.539295 0.882765
0.746142 0.509306 0.873534
0.843890 0.505814 0.871531
0.051193 0.703708 0.932858
0.077541 0.731091 0.943569
0.158963 0.746798 0.947908
0.260207 0.753065 0.950748
0.431166 0.739163 0.943981
0.614408 0.718140 0.929955
0.820948 0.723125 0.936147
0.912025 0.694678 0.922451
0.053877 0.822462 0.928960
0.087227 0.842308 0.940243
0.175601 0.850272 0.942877
0.291336 0.847091 0.940185
0.471654 0.826590 0.923742
0.633188 0.820574 0.918054
0.798283 0.843040 0.928211
0.914762 0.825210 0.916326
0.051171 0.917919 0.926360
0.103175 0.927636 0.933771
0.195521 0.927972 0.932436
0.308616 0.920314 0.923240
0.481700 0.897938 0.900319
0.639258 0.894562 0.895140
0.774554 0.914774 0.918680
0.908581 0.915914 0.917081
