lut-uploads/W-9770-STD.cube
# Copyright: (C) Copyright 2016 by IWLTBAP
# Cannot be resold, shared or otherwise redistributed
# Website: http://luts.iwltbap.com
TITLE "IWLTBAP 9770 (Rec.709)"
LUT_3D_SIZE 8
DOMAIN_MIN 0.000000 0.000000 0.000000
DOMAIN_MAX 0.903226 0.903226 0.903226
0.000000 0.000000 0.000000
0.044444 0.000000 0.000000
0.153758 0.000690 0.000000
0.241933 0.016611 0.000000
0.335781 0.034261 0.000000
0.443141 0.045109 0.000000
0.581585 0.057167 0.000000
0.742663 0.058716 0.000000
0.000000 0.043516 0.000000
0.044462 0.048456 0.000007
0.144651 0.059939 0.000000
0.250198 0.077806 0.000744
0.366929 0.097893 0.000347
0.512693 0.112923 0.000000
0.646039 0.119633 0.000000
0.796272 0.123420 0.000000
0.004335 0.124830 0.019727
0.046882 0.132944 0.034731
0.141868 0.146438 0.029844
0.264384 0.160740 0.027393
0.393913 0.185451 0.025704
0.558941 0.204249 0.007896
0.787769 0.201296 0.000000
0.947375 0.197891 0.000000
0.012038 0.227968 0.060983
0.065837 0.230188 0.088148
0.139532 0.248646 0.092719
0.275408 0.268763 0.073337
0.435141 0.292295 0.017324
0.633303 0.328179 0.000000
0.796593 0.328410 0.000000
0.929849 0.326764 0.000000
0.013205 0.346114 0.093759
0.094378 0.336443 0.137419
0.164078 0.355296 0.145918
0.273579 0.390523 0.147577
0.457026 0.417004 0.102597
0.638334 0.457137 0.015176
0.804109 0.491208 0.000000
0.925529 0.493846 0.000000
0.031541 0.459677 0.133991
0.123916 0.444292 0.181551
0.190533 0.463979 0.194423
0.288449 0.503380 0.203538
0.502316 0.571866 0.186160
0.660316 0.587617 0.098686
0.798817 0.617046 0.009476
0.905777 0.631033 0.000000
0.047848 0.564742 0.161562
0.147645 0.548476 0.215331
0.215973 0.568940 0.230236
0.306898 0.607500 0.240199
0.523793 0.678574 0.230532
0.688264 0.716740 0.177932
0.796233 0.720907 0.078192
0.886930 0.727314 0.018040
0.049003 0.664802 0.172030
0.148971 0.653189 0.222833
0.222532 0.673244 0.237408
0.309939 0.708599 0.245317
0.528534 0.771586 0.232929
0.689798 0.819264 0.202867
0.796224 0.822064 0.123499
0.871172 0.814684 0.067964
0.000000 0.000000 0.029942
0.054643 0.000000 0.029095
0.169225 0.000481 0.026782
0.257866 0.016297 0.028085
0.345482 0.035894 0.030115
0.447909 0.046099 0.032661
0.589157 0.056338 0.027026
0.760918 0.056868 0.009010
0.000000 0.044644 0.058603
0.046790 0.053445 0.062338
0.157973 0.066570 0.056376
0.267141 0.085391 0.056313
0.385845 0.104303 0.049500
0.521316 0.118359 0.045234
0.639957 0.125096 0.040572
0.817805 0.120732 0.010893
0.004419 0.133901 0.093868
0.045417 0.139480 0.104827
0.145227 0.153702 0.098642
0.280273 0.169291 0.088031
0.411224 0.187164 0.077939
0.590996 0.201918 0.046658
0.806692 0.195841 0.000046
0.948106 0.193664 0.000000
0.010349 0.244066 0.136210
0.062831 0.242460 0.158454
0.125102 0.251824 0.155969
0.278226 0.277336 0.138079
0.453106 0.296199 0.063542
0.649168 0.324204 0.014504
0.804799 0.323620 0.000000
0.937314 0.320951 0.000000
0.017199 0.364285 0.181068
0.093736 0.351203 0.213242
0.150051 0.359714 0.207255
0.255618 0.392126 0.210245
0.462253 0.425250 0.169553
0.650166 0.458380 0.067087
0.807276 0.489122 0.004462
0.929269 0.489095 0.000000
0.037616 0.474856 0.212129
0.125001 0.457608 0.252018
0.184046 0.469474 0.252707
0.271452 0.504782 0.269081
0.495577 0.574743 0.265702
0.667649 0.590912 0.165866
0.802354 0.618060 0.087260
0.904127 0.628786 0.027390
0.059330 0.574948 0.245745
0.150765 0.559137 0.288757
0.214005 0.573770 0.291658
0.296768 0.608074 0.309753
0.513847 0.678270 0.316000
0.696473 0.721179 0.259322
0.806174 0.724297 0.176363
0.889093 0.728591 0.107429
0.073951 0.671734 0.290391
0.161902 0.659744 0.323057
0.228451 0.673513 0.318030
0.312981 0.705732 0.329653
0.527241 0.768288 0.332871
0.701406 0.815571 0.294326
0.807819 0.820404 0.226357
0.881368 0.815368 0.192415
0.000000 0.000000 0.113714
0.052085 0.000000 0.111833
0.181423 0.000841 0.109390
0.277701 0.014917 0.102837
0.360692 0.026202 0.087355
0.458892 0.035461 0.087355
0.593186 0.041468 0.085414
0.751702 0.041420 0.078603
0.001817 0.059862 0.147246
0.044756 0.064358 0.153886
0.161938 0.066736 0.139312
0.281618 0.081840 0.130216
0.399969 0.106689 0.113287
0.527139 0.115362 0.102329
0.643155 0.128225 0.101784
0.858528 0.121710 0.074628
0.008605 0.147126 0.186230
0.048788 0.150598 0.195996
0.122274 0.162876 0.198763
0.281078 0.178780 0.177885
0.415475 0.206331 0.167227
0.623567 0.205071 0.103306
0.823501 0.191049 0.059420
0.944941 0.190036 0.044538
0.012334 0.264588 0.234679
0.068698 0.259847 0.250884
0.116373 0.265631 0.248713
0.256952 0.290546 0.234726
0.469893 0.304458 0.132946
0.672349 0.312087 0.073488
0.820162 0.312762 0.047182
0.945088 0.313168 0.017952
0.024065 0.384758 0.284292
0.101463 0.372364 0.305612
0.145211 0.381372 0.300652
0.220606 0.398030 0.291911
0.460005 0.438494 0.246752
0.661991 0.462271 0.117071
0.818764 0.484752 0.061213
0.933853 0.485075 0.026234
0.044709 0.496155 0.323262
0.134446 0.479767 0.352134
0.184613 0.491046 0.348413
0.251615 0.511193 0.340882
0.477749 0.576027 0.337904
0.669939 0.597984 0.235021
0.807683 0.621791 0.154863
0.906527 0.635085 0.111370
0.068086 0.594229 0.360380
0.160875 0.578967 0.392017
0.216318 0.592346 0.390809
0.281914 0.613741 0.386995
0.487520 0.675202 0.389379
0.695145 0.729479 0.354360
0.808773 0.728564 0.256873
0.892354 0.735109 0.198509
0.086156 0.686312 0.399058
0.174794 0.675451 0.422437
0.233493 0.688874 0.423071
0.299582 0.710112 0.424722
0.496994 0.764043 0.435486
0.696633 0.816363 0.406610
0.811349 0.821191 0.327012
0.886696 0.818372 0.298782
0.000000 0.000000 0.182733
0.043267 0.000000 0.177342
0.144621 0.000565 0.177537
0.277402 0.019098 0.177807
0.371066 0.028896 0.173536
0.482282 0.036432 0.172336
0.604098 0.038536 0.163497
0.726305 0.033840 0.164405
0.004850 0.081947 0.227945
0.044521 0.078840 0.230797
0.130824 0.068023 0.219250
0.289734 0.086628 0.213433
0.414800 0.097188 0.203835
0.524789 0.097880 0.196698
0.657427 0.094836 0.180019
0.888923 0.086068 0.171218
0.016158 0.171070 0.276330
0.058228 0.173335 0.282334
0.111788 0.177727 0.289967
0.262591 0.180377 0.272040
0.446290 0.193259 0.244747
0.650576 0.196395 0.210757
0.793441 0.180122 0.186139
0.913091 0.188958 0.178807
0.023408 0.278475 0.331660
0.081107 0.275435 0.337176
0.124704 0.283436 0.344868
0.215376 0.299055 0.350387
0.471332 0.322098 0.270570
0.682980 0.331988 0.228602
0.829030 0.322729 0.188798
0.944841 0.316757 0.155045
0.033564 0.399356 0.387057
0.113046 0.387979 0.394210
0.156219 0.400649 0.398862
0.218281 0.418380 0.401194
0.443287 0.464000 0.375751
0.670129 0.476777 0.244087
0.831104 0.462612 0.165157
0.938758 0.457132 0.139207
0.049411 0.516063 0.428683
0.146555 0.502426 0.447206
0.191502 0.516560 0.449372
0.254092 0.539851 0.451482
0.420699 0.585631 0.444660
0.661115 0.618569 0.377291
0.807652 0.629030 0.253092
0.911442 0.640975 0.214340
0.073790 0.612841 0.464634
0.171976 0.599907 0.485836
0.219865 0.614816 0.488248
0.283319 0.638737 0.491526
0.432400 0.682820 0.497369
0.678826 0.744306 0.487619
0.803052 0.739261 0.398349
0.896275 0.746279 0.318344
0.087612 0.703987 0.495768
0.184084 0.692999 0.514290
0.236828 0.707459 0.517373
0.301176 0.728571 0.519999
0.449841 0.769245 0.532162
0.679818 0.824954 0.531598
0.810012 0.844309 0.504347
0.892086 0.837828 0.458662
0.000000 0.018621 0.254485
0.035887 0.000056 0.241117
0.126640 0.000004 0.236444
0.255122 0.015016 0.243305
0.377681 0.033007 0.246447
0.491361 0.045153 0.253838
0.595737 0.048478 0.261999
0.725649 0.037817 0.277367
0.009810 0.095794 0.299892
0.047850 0.087297 0.294870
0.113276 0.071311 0.286552
0.244662 0.078255 0.278981
0.395659 0.101394 0.282622
0.521951 0.115792 0.287818
0.685719 0.098550 0.297842
0.822631 0.087383 0.304857
0.022159 0.180308 0.353390
0.065919 0.182042 0.350218
0.115410 0.191210 0.362827
0.239735 0.190217 0.356513
0.415243 0.202175 0.342678
0.583393 0.200485 0.333961
0.716250 0.183660 0.329730
0.838639 0.166609 0.321782
0.037713 0.294044 0.420487
0.093438 0.293226 0.415578
0.137223 0.304552 0.427948
0.209660 0.317201 0.440093
0.415975 0.328027 0.427835
0.629864 0.332436 0.382243
0.783739 0.333833 0.352121
0.900882 0.341047 0.335776
0.046927 0.407328 0.478612
0.124028 0.403728 0.475476
0.170114 0.415727 0.483741
0.230892 0.434865 0.495593
0.400793 0.477442 0.514958
0.671153 0.497239 0.409227
0.830803 0.491265 0.362917
0.930281 0.488115 0.343289
0.055070 0.522492 0.522356
0.154660 0.511798 0.525803
0.203703 0.529263 0.534660
0.262857 0.559411 0.549428
0.382254 0.599564 0.560847
0.662970 0.648296 0.523169
0.812330 0.655863 0.426963
0.921567 0.649723 0.376437
0.081864 0.626300 0.563277
0.181120 0.617264 0.571634
0.230528 0.633948 0.578342
0.286965 0.660186 0.587350
0.397574 0.697659 0.593912
0.649618 0.752545 0.584646
0.800941 0.766459 0.531992
0.896805 0.775435 0.520036
0.094888 0.717892 0.590897
0.191401 0.709473 0.599339
0.245970 0.724795 0.604936
0.300343 0.745751 0.609778
0.417562 0.778475 0.616007
0.654915 0.832575 0.617431
0.803749 0.866443 0.603943
0.893767 0.859384 0.572340
0.000000 0.037927 0.328141
0.040853 0.009133 0.309870
0.121581 0.001280 0.299215
0.237101 0.015698 0.306808
0.376762 0.038254 0.318843
0.491578 0.052561 0.325003
0.597414 0.061344 0.339282
0.759871 0.047655 0.377662
0.012822 0.113496 0.371552
0.054569 0.102525 0.363905
0.108163 0.086583 0.358127
0.232349 0.081193 0.343293
0.377342 0.104800 0.351852
0.513696 0.125035 0.358874
0.634717 0.131666 0.374077
0.755900 0.124041 0.394912
0.028153 0.191931 0.423380
0.071913 0.192767 0.417716
0.118833 0.195229 0.424678
0.227454 0.194451 0.422504
0.371419 0.200546 0.410776
0.536543 0.208822 0.402236
0.659488 0.211875 0.412260
0.774979 0.205237 0.425849
0.049470 0.304591 0.492201
0.101150 0.306328 0.484884
0.146923 0.319216 0.496747
0.213122 0.336942 0.511589
0.394275 0.336555 0.504777
0.592788 0.348691 0.479695
0.722586 0.348339 0.468966
0.832254 0.340016 0.462898
0.064572 0.420182 0.558623
0.132705 0.420427 0.548805
0.179187 0.433585 0.558100
0.239310 0.455359 0.573235
0.388623 0.487296 0.598413
0.639825 0.497311 0.562123
0.775725 0.497607 0.524755
0.874250 0.503660 0.507365
0.070757 0.526907 0.606230
0.161299 0.523542 0.598062
0.211954 0.539799 0.607407
0.274842 0.566884 0.623395
0.389215 0.604807 0.646059
0.652267 0.662151 0.650515
0.812217 0.673345 0.577629
0.915468 0.669158 0.557686
0.084990 0.623537 0.639746
0.183055 0.619039 0.637033
0.236046 0.637782 0.646357
0.296220 0.668766 0.662123
0.400578 0.711634 0.681435
0.620969 0.762157 0.683634
0.799209 0.790630 0.655640
0.901679 0.797004 0.644506
0.106985 0.724021 0.673252
0.193830 0.721326 0.673064
0.252631 0.737092 0.679758
0.304356 0.758242 0.686903
0.409493 0.790516 0.696909
0.619125 0.838195 0.697734
0.785805 0.873674 0.686093
0.894379 0.879785 0.667520
0.001145 0.052273 0.405811
0.048397 0.019313 0.381434
0.122348 0.005246 0.364466
0.236389 0.018252 0.371224
0.365750 0.038934 0.385519
0.503776 0.056402 0.401032
0.611977 0.065255 0.416365
0.729427 0.065053 0.447541
0.016683 0.128484 0.444899
0.061933 0.114624 0.433556
0.111946 0.098822 0.427015
0.230364 0.086792 0.408991
0.361061 0.105344 0.415834
0.513359 0.128364 0.430106
0.620953 0.141948 0.437822
0.725655 0.143078 0.460733
0.033530 0.208910 0.494395
0.078290 0.209042 0.488315
0.124525 0.210005 0.492901
0.220627 0.202450 0.489847
0.362371 0.200602 0.473652
0.512097 0.208278 0.468944
0.639952 0.222294 0.470840
0.737494 0.225658 0.485941
0.056793 0.317556 0.559417
0.106956 0.320074 0.551452
0.153995 0.333170 0.561218
0.216862 0.353398 0.575825
0.383442 0.346006 0.568159
0.548961 0.352701 0.546754
0.692494 0.363528 0.530889
0.787130 0.365271 0.535763
0.076659 0.432334 0.626738
0.137846 0.434083 0.614118
0.186756 0.447157 0.621558
0.240331 0.470077 0.636533
0.392915 0.497256 0.658296
0.604272 0.498883 0.632425
0.753391 0.510547 0.608376
0.833701 0.517799 0.603234
0.084738 0.535104 0.677946
0.164520 0.535153 0.663046
0.216756 0.550939 0.670718
0.276086 0.576664 0.685911
0.404227 0.616667 0.712447
0.635703 0.660332 0.724422
0.795189 0.668852 0.699653
0.880891 0.665973 0.675931
0.096818 0.625054 0.709772
0.182481 0.626035 0.700460
0.239435 0.642563 0.707056
0.304593 0.670988 0.721622
0.410890 0.711230 0.742563
0.616275 0.764592 0.764740
0.797712 0.799371 0.756960
0.900114 0.806571 0.741467
0.105872 0.716945 0.734449
0.187889 0.719653 0.730934
0.252854 0.736630 0.736955
0.309721 0.762079 0.747603
0.416923 0.799763 0.764895
0.596293 0.843946 0.779321
0.768840 0.879166 0.766529
0.892545 0.895739 0.753813
0.006863 0.064854 0.503342
0.058011 0.030969 0.470424
0.130264 0.011011 0.442325
0.246142 0.020048 0.444714
0.366780 0.037681 0.459211
0.511141 0.056773 0.481640
0.633876 0.066238 0.500416
0.730382 0.069108 0.518872
0.021015 0.147230 0.538204
0.070272 0.127514 0.516871
0.119749 0.108931 0.502882
0.234646 0.092963 0.479639
0.360438 0.106133 0.483593
0.499493 0.124731 0.498442
0.636228 0.142150 0.514443
0.727839 0.146805 0.528212
0.035798 0.228014 0.581679
0.083480 0.225631 0.567776
0.133202 0.232695 0.568811
0.222156 0.228514 0.565874
0.364463 0.220013 0.545699
0.494258 0.220616 0.538187
0.643234 0.227336 0.538079
0.733356 0.236241 0.544333
0.059663 0.342036 0.642987
0.112862 0.343755 0.628767
0.161678 0.353519 0.630487
0.223073 0.371549 0.640288
0.379868 0.359363 0.630444
0.537473 0.359534 0.607403
0.683104 0.368552 0.590418
0.773650 0.378732 0.588017
0.079192 0.448827 0.700964
0.139974 0.450605 0.683923
0.192581 0.461876 0.684157
0.246645 0.483630 0.695612
0.400629 0.505405 0.709752
0.595136 0.500665 0.683120
0.734627 0.509919 0.660248
0.822975 0.523833 0.654850
0.092562 0.545868 0.746254
0.163268 0.547837 0.729128
0.220729 0.562194 0.730674
0.275238 0.585594 0.741637
0.416753 0.625434 0.765421
0.629944 0.656127 0.771847
0.775452 0.661585 0.752655
0.872235 0.673560 0.742484
0.101590 0.630908 0.776016
0.177056 0.634885 0.764247
0.240165 0.649820 0.765000
0.303014 0.675730 0.775638
0.422449 0.715276 0.796324
0.620687 0.766529 0.822979
0.791327 0.798209 0.822878
0.899139 0.804982 0.810228
0.100554 0.720996 0.801096
0.178677 0.724464 0.793489
0.249436 0.738862 0.793371
0.312872 0.761553 0.799915
0.426604 0.798423 0.816982
0.599134 0.845402 0.841755
0.762951 0.883935 0.841995
0.890138 0.903252 0.831718
