lut-uploads/W-9770-STD.cube
# Copyright: (C) Copyright 2016 by IWLTBAP
# Cannot be resold, shared or otherwise redistributed
# Website: http://luts.iwltbap.com
TITLE "IWLTBAP 9770 (Rec.709)"
LUT_3D_SIZE 32
0.000000 0.000000 0.000000
0.000234 0.000000 0.000000
0.007705 0.000000 0.000000
0.021531 0.000000 0.000000
0.044444 0.000000 0.000000
0.073149 0.000000 0.000000
0.102385 0.000000 0.000000
0.129299 0.000000 0.000000
0.153758 0.000690 0.000000
0.177324 0.003907 0.000000
0.199375 0.008186 0.000000
0.220084 0.012434 0.000000
0.241933 0.016611 0.000000
0.264370 0.020773 0.000000
0.286694 0.025040 0.000000
0.310259 0.029626 0.000000
0.335781 0.034261 0.000000
0.362619 0.038549 0.000000
0.389578 0.041935 0.000000
0.415740 0.043004 0.000000
0.443141 0.045109 0.000000
0.473207 0.049002 0.000000
0.506157 0.052687 0.000000
0.542606 0.055547 0.000000
0.581585 0.057167 0.000000
0.622494 0.057949 0.000000
0.663668 0.058100 0.000000
0.704304 0.058189 0.000000
0.742663 0.058716 0.000000
0.769215 0.060545 0.000000
0.750378 0.067451 0.000000
0.764801 0.070557 0.000000
0.000000 0.003503 0.000000
0.000332 0.004094 0.000000
0.009964 0.004744 0.000000
0.024744 0.005373 0.000000
0.048432 0.006182 0.000000
0.075980 0.007095 0.000000
0.104269 0.008284 0.000000
0.130038 0.010378 0.000000
0.153542 0.013620 0.000000
0.176815 0.017532 0.000000
0.199372 0.022062 0.000000
0.221107 0.026478 0.000000
0.243365 0.030720 0.000000
0.266450 0.035020 0.000000
0.289487 0.039401 0.000000
0.313762 0.044145 0.000000
0.339995 0.049033 0.000000
0.367485 0.053620 0.000000
0.395488 0.057420 0.000000
0.424092 0.059413 0.000000
0.455799 0.060919 0.000000
0.492160 0.064101 0.000000
0.532035 0.067575 0.000000
0.573495 0.070001 0.000000
0.615147 0.071391 0.000000
0.656644 0.071923 0.000000
0.697023 0.072196 0.000000
0.734624 0.072320 0.000000
0.768704 0.072918 0.000000
0.788369 0.075783 0.000000
0.757063 0.084962 0.000000
0.768279 0.088491 0.000000
0.000000 0.016528 0.000000
0.000448 0.017154 0.000000
0.011838 0.017832 0.000000
0.025783 0.018458 0.000000
0.046601 0.019237 0.000000
0.072238 0.020132 0.000000
0.099321 0.021473 0.000000
0.125127 0.023933 0.000000
0.149918 0.027281 0.000000
0.174780 0.031589 0.000000
0.198827 0.036305 0.000000
0.221709 0.040914 0.000000
0.244894 0.045323 0.000000
0.268562 0.049664 0.000000
0.292382 0.054190 0.000000
0.317516 0.059180 0.000000
0.344706 0.064346 0.000000
0.374307 0.069164 0.000000
0.406395 0.073183 0.000000
0.439928 0.075588 0.000000
0.475866 0.076355 0.000000
0.516001 0.079037 0.000000
0.558400 0.082417 0.000000
0.600130 0.084666 0.000000
0.640420 0.086182 0.000000
0.678523 0.087251 0.000000
0.713404 0.088290 0.000000
0.743967 0.089463 0.000000
0.772047 0.090982 0.000000
0.789570 0.093939 0.000000
0.761457 0.102169 0.000000
0.778229 0.104909 0.000000
0.000000 0.029666 0.000000
0.002199 0.030425 0.000000
0.013711 0.031129 0.000000
0.026101 0.031819 0.000000
0.044078 0.032585 0.000000
0.067909 0.033631 0.000000
0.093905 0.035707 0.000000
0.120790 0.038699 0.000000
0.146864 0.042464 0.000000
0.173497 0.047130 0.000000
0.199113 0.051934 0.000000
0.223287 0.056538 0.000000
0.247227 0.060899 0.000010
0.271547 0.065237 0.000063
0.296375 0.069984 0.000077
0.323081 0.075243 0.000069
0.353212 0.080485 0.000010
0.387103 0.085378 0.000000
0.423167 0.089572 0.000000
0.459631 0.092465 0.000000
0.496984 0.093284 0.000000
0.536455 0.094684 0.000000
0.576655 0.097720 0.000000
0.614425 0.100383 0.000000
0.648656 0.102519 0.000000
0.680909 0.104415 0.000000
0.712148 0.106103 0.000000
0.742251 0.107520 0.000000
0.772809 0.108684 0.000000
0.799374 0.110455 0.000000
0.794401 0.115705 0.000000
0.823895 0.116915 0.000000
0.000000 0.043516 0.000000
0.004236 0.044679 0.000000
0.015637 0.045810 0.000004
0.027611 0.047307 0.000026
0.044462 0.048456 0.000007
0.066290 0.048988 0.000000
0.091069 0.051459 0.000000
0.117897 0.055570 0.000000
0.144651 0.059939 0.000000
0.172842 0.064429 0.000000
0.200249 0.068987 0.000131
0.225363 0.073455 0.000375
0.250198 0.077806 0.000744
0.275831 0.082266 0.001099
0.302744 0.087215 0.001233
0.332747 0.092583 0.000946
0.366929 0.097893 0.000347
0.403766 0.102847 0.000000
0.440970 0.107173 0.000000
0.477473 0.110708 0.000000
0.512693 0.112923 0.000000
0.546277 0.112993 0.000000
0.579817 0.114319 0.000000
0.613257 0.117117 0.000000
0.646039 0.119633 0.000000
0.678686 0.121748 0.000000
0.712101 0.123245 0.000000
0.749583 0.123896 0.000000
0.796272 0.123420 0.000000
0.841967 0.122974 0.000000
0.858579 0.125686 0.000000
0.882416 0.127268 0.000000
0.000015 0.060382 0.000185
0.006528 0.062187 0.001252
0.017690 0.063806 0.001368
0.029607 0.066014 0.001832
0.045871 0.068762 0.001614
0.066972 0.069624 0.001180
0.089413 0.069237 0.000767
0.116258 0.072792 0.000579
0.143307 0.077498 0.000643
0.171913 0.082651 0.000857
0.200687 0.087461 0.001422
0.227192 0.091933 0.003010
0.253616 0.096141 0.004934
0.281979 0.100495 0.005709
0.312356 0.105464 0.004623
0.345388 0.110947 0.003099
0.381086 0.116371 0.001770
0.417082 0.121541 0.001101
0.450770 0.126251 0.001105
0.483168 0.130470 0.001014
0.515482 0.133740 0.000843
0.547442 0.134645 0.000566
0.579325 0.134148 0.000135
0.611920 0.135121 0.000005
0.646021 0.137054 0.000000
0.683839 0.138520 0.000000
0.730229 0.138549 0.000000
0.785353 0.137401 0.000000
0.844885 0.135714 0.000000
0.892411 0.134798 0.000000
0.913543 0.136511 0.000000
0.930717 0.138573 0.000000
0.000387 0.080595 0.002714
0.008421 0.082444 0.009668
0.019338 0.084291 0.010142
0.030819 0.086533 0.011029
0.046386 0.089645 0.011567
0.067612 0.092882 0.010637
0.090785 0.093206 0.007958
0.115044 0.092644 0.005732
0.142291 0.095698 0.005412
0.171953 0.100780 0.006266
0.201819 0.106601 0.007706
0.229851 0.112094 0.009347
0.258390 0.116682 0.010262
0.289662 0.121117 0.009806
0.321481 0.126007 0.008330
0.353154 0.131392 0.007698
0.386133 0.136909 0.008018
0.420056 0.142283 0.008377
0.453677 0.147392 0.008471
0.486271 0.152065 0.008172
0.518926 0.156057 0.007094
0.552157 0.158652 0.004448
0.587066 0.159654 0.001298
0.624682 0.158644 0.000134
0.668254 0.157370 0.000000
0.719165 0.156141 0.000000
0.775096 0.154436 0.000000
0.832568 0.152866 0.000000
0.886202 0.151508 0.000000
0.927639 0.150432 0.000000
0.943822 0.151750 0.000000
0.950780 0.154670 0.000000
0.001839 0.102487 0.010967
0.010166 0.103902 0.019892
0.020947 0.105782 0.020258
0.031897 0.108076 0.021376
0.045604 0.111066 0.022612
0.065285 0.114552 0.022129
0.089941 0.118259 0.020767
0.116047 0.118888 0.017870
0.140715 0.117667 0.015710
0.172111 0.121341 0.015259
0.204263 0.126804 0.015784
0.233391 0.132951 0.016690
0.261894 0.138870 0.017601
0.292690 0.144406 0.017685
0.324187 0.149622 0.016778
0.356121 0.154956 0.016346
0.389719 0.160464 0.016725
0.424192 0.165806 0.017152
0.458655 0.170978 0.017148
0.493482 0.175981 0.015839
0.530205 0.180244 0.012073
0.572139 0.183014 0.006630
0.621476 0.183808 0.001526
0.676645 0.182739 0.000000
0.733784 0.180468 0.000000
0.790145 0.177901 0.000000
0.844524 0.175823 0.000000
0.893837 0.174600 0.000000
0.934666 0.172888 0.000000
0.963372 0.170341 0.000000
0.973703 0.172687 0.000000
0.971399 0.178789 0.000000
0.004335 0.124830 0.019727
0.013454 0.125850 0.031772
0.023906 0.127769 0.031913
0.034596 0.130109 0.032887
0.046882 0.132944 0.034731
0.064907 0.136513 0.034980
0.086385 0.140695 0.034491
0.114290 0.145509 0.033100
0.141868 0.146438 0.029844
0.171863 0.145449 0.026915
0.205478 0.148807 0.026100
0.235569 0.154339 0.026564
0.264384 0.160740 0.027393
0.295537 0.167443 0.027599
0.327335 0.173839 0.026657
0.359661 0.179785 0.025753
0.393913 0.185451 0.025704
0.429641 0.190782 0.025362
0.467610 0.195825 0.022903
0.509964 0.200607 0.016213
0.558941 0.204249 0.007896
0.614514 0.205869 0.001531
0.674016 0.205235 0.000000
0.732850 0.203232 0.000000
0.787769 0.201296 0.000000
0.837695 0.200089 0.000000
0.881616 0.199607 0.000000
0.919045 0.199408 0.000000
0.947375 0.197891 0.000000
0.967114 0.197185 0.000000
0.972178 0.200780 0.000000
0.968144 0.207241 0.000000
0.006838 0.147874 0.030942
0.017336 0.148581 0.044053
0.027560 0.150370 0.044468
0.038024 0.152754 0.045388
0.050567 0.155616 0.047272
0.067052 0.159060 0.048349
0.086451 0.163295 0.048385
0.109467 0.168259 0.047932
0.137166 0.173295 0.046153
0.172548 0.174222 0.041493
0.206294 0.173766 0.038378
0.237430 0.177708 0.037922
0.267211 0.183301 0.038058
0.299230 0.190074 0.037777
0.331634 0.197337 0.036867
0.364312 0.204389 0.035793
0.399928 0.210930 0.033797
0.439785 0.216588 0.028556
0.486834 0.221843 0.018458
0.541887 0.226272 0.007696
0.601399 0.228759 0.000825
0.661462 0.229116 0.000000
0.717862 0.228158 0.000000
0.768128 0.226847 0.000000
0.812483 0.226100 0.000000
0.851855 0.226075 0.000000
0.885425 0.226845 0.000000
0.914621 0.227615 0.000000
0.939779 0.227665 0.000000
0.959194 0.227138 0.000000
0.966833 0.230050 0.000000
0.966161 0.235571 0.000000
0.009478 0.173198 0.042678
0.021496 0.173406 0.055923
0.031801 0.174838 0.057956
0.042125 0.176995 0.058954
0.055111 0.179905 0.060892
0.070915 0.183344 0.062628
0.088955 0.187550 0.063059
0.110148 0.192539 0.062939
0.135650 0.198226 0.062018
0.168117 0.203836 0.058895
0.206991 0.204412 0.053489
0.238570 0.204341 0.050805
0.269906 0.208752 0.049942
0.303470 0.214661 0.048533
0.337443 0.221808 0.046399
0.372269 0.229582 0.042318
0.411876 0.237397 0.034116
0.459712 0.244589 0.020553
0.517293 0.250893 0.007220
0.577808 0.255247 0.000000
0.635890 0.257222 0.000000
0.689353 0.257662 0.000000
0.735535 0.257479 0.000000
0.774197 0.257287 0.000000
0.809060 0.257430 0.000000
0.842355 0.257921 0.000000
0.874871 0.258770 0.000000
0.905065 0.259515 0.000000
0.932334 0.259955 0.000000
0.953590 0.259318 0.000000
0.964376 0.261238 0.000000
0.967419 0.265593 0.000000
0.011425 0.200149 0.052797
0.025190 0.199478 0.066391
0.036415 0.200281 0.071448
0.047031 0.202116 0.072766
0.060256 0.204910 0.074573
0.075949 0.208637 0.077159
0.093149 0.212825 0.078064
0.113026 0.217833 0.078108
0.136771 0.223536 0.077680
0.165880 0.229917 0.075761
0.204268 0.236142 0.070986
0.240201 0.236376 0.065900
0.271673 0.236815 0.062216
0.307460 0.241469 0.057709
0.344490 0.248043 0.050166
0.383518 0.255843 0.038200
0.427330 0.264536 0.022146
0.478452 0.273823 0.007240
0.537208 0.282735 0.000000
0.594266 0.288635 0.000000
0.642694 0.291601 0.000000
0.686382 0.292718 0.000000
0.727187 0.292733 0.000000
0.765077 0.292362 0.000000
0.800500 0.292115 0.000000
0.834255 0.291994 0.000000
0.867651 0.292284 0.000000
0.899456 0.292893 0.000000
0.928303 0.293169 0.000000
0.952148 0.292279 0.000000
0.965856 0.293371 0.000000
0.971784 0.296874 0.000000
0.012038 0.227968 0.060983
0.027900 0.226179 0.075536
0.041129 0.226287 0.084907
0.052785 0.227745 0.086669
0.065837 0.230188 0.088148
0.081320 0.233876 0.091176
0.098346 0.238092 0.092711
0.117304 0.242970 0.092862
0.139532 0.248646 0.092719
0.166760 0.255050 0.091313
0.200523 0.262434 0.087796
0.240320 0.268708 0.081194
0.275408 0.268763 0.073337
0.310489 0.269875 0.064171
0.349917 0.275900 0.052377
0.391215 0.283672 0.035580
0.435141 0.292295 0.017324
0.482710 0.301965 0.004867
0.534337 0.312855 0.000505
0.585635 0.322419 0.000000
0.633303 0.328179 0.000000
0.678129 0.330395 0.000000
0.720335 0.330251 0.000000
0.759760 0.329386 0.000000
0.796593 0.328410 0.000000
0.831701 0.327353 0.000000
0.866539 0.326782 0.000000
0.899659 0.326949 0.000000
0.929849 0.326764 0.000000
0.954850 0.325423 0.000000
0.970428 0.326010 0.000000
0.978083 0.328942 0.000000
0.011022 0.257148 0.067433
0.029575 0.253788 0.083563
0.046296 0.252575 0.097674
0.059018 0.253723 0.100326
0.071730 0.255787 0.101455
0.087123 0.259102 0.104339
0.104501 0.263501 0.106964
0.122872 0.268433 0.107355
0.144308 0.274261 0.107299
0.170138 0.280875 0.106312
0.199911 0.288101 0.103437
0.236227 0.296505 0.098124
0.278456 0.303021 0.088589
0.316078 0.303265 0.076672
0.353110 0.305745 0.064121
0.394104 0.313015 0.051231
0.435901 0.321172 0.037350
0.480456 0.330162 0.022577
0.529954 0.340742 0.008754
0.580420 0.352297 0.000793
0.627980 0.361720 0.000000
0.673704 0.367502 0.000000
0.717700 0.369608 0.000000
0.759014 0.369231 0.000000
0.797741 0.367687 0.000000
0.834460 0.365612 0.000000
0.870286 0.364075 0.000000
0.903271 0.363342 0.000000
0.933518 0.362273 0.000000
0.958281 0.360759 0.000000
0.974369 0.361126 0.000000
0.982448 0.363850 0.000000
0.010073 0.287222 0.074875
0.031744 0.282286 0.092822
0.052406 0.279537 0.110162
0.065834 0.280425 0.113692
0.078538 0.282386 0.114745
0.093720 0.285341 0.117417
0.111031 0.289665 0.120460
0.129368 0.294789 0.121358
0.150863 0.300946 0.121130
0.176049 0.307865 0.120201
0.203867 0.315248 0.118187
0.233958 0.323459 0.115217
0.276035 0.333624 0.109616
0.323417 0.340146 0.099645
0.360802 0.339824 0.086907
0.398979 0.343642 0.073375
0.440468 0.351596 0.059394
0.484168 0.360331 0.043912
0.532060 0.370579 0.027298
0.580684 0.381763 0.011271
0.627690 0.392613 0.000924
0.673895 0.401892 0.000000
0.719184 0.408252 0.000000
0.761745 0.410773 0.000000
0.801130 0.410382 0.000000
0.837960 0.408158 0.000000
0.872976 0.406061 0.000000
0.904750 0.404376 0.000000
0.933809 0.402642 0.000000
0.957840 0.401201 0.000000
0.973625 0.401574 0.000000
0.981854 0.404079 0.000000
0.011081 0.316935 0.084673
0.035842 0.310991 0.103501
0.059162 0.306892 0.121704
0.073246 0.307435 0.125462
0.086252 0.309461 0.126767
0.101244 0.312276 0.129393
0.118082 0.316363 0.132559
0.136818 0.321787 0.133723
0.157915 0.328193 0.133651
0.182639 0.335533 0.133267
0.209402 0.343351 0.132500
0.236955 0.351717 0.131889
0.273573 0.362381 0.129965
0.325370 0.374032 0.121959
0.372165 0.378310 0.109960
0.408099 0.377503 0.095559
0.447501 0.383007 0.081135
0.491317 0.391754 0.065220
0.538790 0.401918 0.047022
0.586014 0.413234 0.027375
0.631960 0.424074 0.007441
0.678006 0.434447 0.000238
0.723213 0.443840 0.000000
0.765393 0.450168 0.000000
0.803844 0.452702 0.000000
0.839247 0.452386 0.000000
0.872466 0.450972 0.000000
0.902606 0.449316 0.000000
0.930106 0.447474 0.000000
0.953948 0.445967 0.000000
0.969808 0.446223 0.000000
0.979164 0.448188 0.000000
0.013205 0.346114 0.093759
0.040633 0.339330 0.112829
0.065984 0.334038 0.131709
0.080913 0.334439 0.135921
0.094378 0.336443 0.137419
0.109405 0.339244 0.140078
0.125622 0.343141 0.143329
0.143888 0.348665 0.145091
0.164078 0.355296 0.145918
0.187757 0.362996 0.146664
0.214474 0.371406 0.147154
0.241735 0.380252 0.147811
0.273579 0.390523 0.147577
0.323809 0.404131 0.142999
0.379802 0.414960 0.132090
0.421573 0.416249 0.118264
0.457026 0.417004 0.102597
0.499527 0.424326 0.084807
0.546795 0.434594 0.063627
0.593570 0.446223 0.040026
0.638334 0.457137 0.015176
0.683046 0.467297 0.001597
0.726404 0.476773 0.000000
0.767042 0.485226 0.000000
0.804109 0.491208 0.000000
0.838091 0.494146 0.000000
0.869882 0.494857 0.000000
0.898953 0.494569 0.000000
0.925529 0.493846 0.000000
0.949727 0.492254 0.000000
0.966125 0.492247 0.000000
0.976668 0.493524 0.000000
0.016685 0.374875 0.103714
0.045578 0.367217 0.122782
0.072621 0.361230 0.142477
0.088190 0.361388 0.146908
0.102099 0.363337 0.148539
0.117418 0.366266 0.151307
0.133404 0.370132 0.154470
0.150541 0.375345 0.156908
0.170113 0.382219 0.158854
0.192876 0.390237 0.160425
0.218907 0.399002 0.161644
0.246730 0.408376 0.162679
0.276568 0.418639 0.163019
0.322180 0.432230 0.160772
0.382923 0.447298 0.152087
0.433907 0.456129 0.139481
0.470334 0.456325 0.121949
0.508275 0.458897 0.100362
0.554098 0.467997 0.077248
0.600528 0.479260 0.053193
0.643693 0.490232 0.028825
0.686286 0.499940 0.008265
0.727650 0.509141 0.000534
0.766418 0.517501 0.000000
0.802194 0.524742 0.000000
0.835542 0.530156 0.000000
0.866775 0.533559 0.000000
0.895437 0.535535 0.000000
0.921338 0.536898 0.000000
0.945396 0.536548 0.000000
0.962679 0.536301 0.000000
0.974095 0.536797 0.000000
0.021267 0.403783 0.114661
0.050836 0.395377 0.133636
0.079207 0.388876 0.154282
0.095258 0.388717 0.158666
0.109566 0.390547 0.160284
0.125380 0.393514 0.163194
0.141392 0.397517 0.166466
0.157825 0.402544 0.169158
0.176468 0.409336 0.171600
0.198019 0.417478 0.173623
0.222826 0.426529 0.175305
0.250457 0.436262 0.176581
0.280416 0.446889 0.177267
0.323124 0.460434 0.175877
0.384612 0.478066 0.168907
0.440836 0.493263 0.158484
0.484088 0.499557 0.143393
0.520862 0.498239 0.120368
0.561642 0.501839 0.096008
0.606828 0.512191 0.073028
0.649058 0.523170 0.050345
0.688892 0.532953 0.027675
0.728407 0.541599 0.008702
0.765791 0.549431 0.000604
0.800501 0.556356 0.000000
0.832791 0.561868 0.000000
0.863344 0.566399 0.000000
0.891750 0.570150 0.000000
0.916793 0.573387 0.000000
0.939880 0.575158 0.000000
0.958083 0.575301 0.000000
0.970053 0.575057 0.000000
0.026351 0.432327 0.124854
0.056318 0.423611 0.144028
0.085736 0.416488 0.165438
0.102274 0.416073 0.169819
0.116983 0.417723 0.171424
0.132903 0.420682 0.174308
0.149179 0.424994 0.177849
0.165960 0.430350 0.181029
0.183539 0.436882 0.183477
0.203594 0.444779 0.185742
0.227263 0.454000 0.187844
0.254433 0.464158 0.189569
0.284013 0.475259 0.190838
0.324921 0.489013 0.190723
0.386664 0.507619 0.185682
0.445587 0.525913 0.176967
0.494693 0.539376 0.166458
0.535183 0.540608 0.146364
0.572613 0.539015 0.121553
0.613563 0.545155 0.097751
0.654772 0.555935 0.074843
0.693056 0.565958 0.051575
0.730002 0.574279 0.028652
0.765847 0.581222 0.009548
0.799442 0.587463 0.000612
0.830599 0.592524 0.000000
0.860183 0.596739 0.000000
0.887727 0.600525 0.000000
0.911441 0.603964 0.000000
0.933232 0.606748 0.000000
0.951876 0.607820 0.000000
0.964963 0.607449 0.000000
0.031541 0.459677 0.133991
0.061727 0.450914 0.153453
0.091914 0.443398 0.175542
0.108980 0.442807 0.180049
0.123916 0.444292 0.181551
0.140014 0.447247 0.184528
0.156643 0.451948 0.188446
0.173566 0.457493 0.191922
0.190533 0.463979 0.194423
0.210001 0.471902 0.196909
0.233207 0.481400 0.199389
0.259567 0.491942 0.201660
0.288449 0.503380 0.203538
0.326851 0.517010 0.204587
0.387948 0.535604 0.201460
0.450725 0.555334 0.194163
0.502316 0.571866 0.186160
0.548137 0.580300 0.171298
0.585549 0.578256 0.147541
0.621787 0.579287 0.122450
0.660316 0.587617 0.098686
0.697763 0.597277 0.074773
0.732455 0.605133 0.050441
0.766611 0.611525 0.027922
0.798817 0.617046 0.009476
0.828897 0.621535 0.000545
0.857363 0.625234 0.000000
0.883337 0.628361 0.000000
0.905777 0.631033 0.000000
0.926447 0.633832 0.000000
0.945308 0.635530 0.000000
0.960172 0.635570 0.000000
0.036710 0.486419 0.142480
0.066942 0.477564 0.162145
0.097497 0.469552 0.184670
0.115254 0.468899 0.189468
0.130569 0.470375 0.191159
0.146700 0.473284 0.194043
0.163370 0.478184 0.198100
0.180082 0.483873 0.201812
0.197373 0.490686 0.204793
0.216800 0.498817 0.207584
0.239527 0.508371 0.210295
0.265337 0.519061 0.212789
0.293424 0.530616 0.214968
0.330028 0.543995 0.216481
0.389312 0.562125 0.214635
0.454918 0.582415 0.208015
0.508070 0.600127 0.201451
0.557386 0.614126 0.191359
0.597596 0.616491 0.171483
0.632184 0.615343 0.146423
0.666244 0.618835 0.121237
0.701845 0.626490 0.096226
0.735517 0.633817 0.071094
0.767295 0.639474 0.046960
0.798213 0.644539 0.026059
0.827366 0.648748 0.008827
0.854180 0.651902 0.000443
0.878575 0.654211 0.000000
0.900230 0.656282 0.000000
0.920104 0.658599 0.000000
0.939355 0.660793 0.000000
0.955449 0.661399 0.000000
0.041415 0.512676 0.150034
0.071971 0.504155 0.170298
0.102929 0.495832 0.193155
0.121164 0.495176 0.198387
0.136946 0.496748 0.200404
0.153320 0.499661 0.203455
0.169845 0.504434 0.207288
0.186393 0.509962 0.210976
0.203907 0.516968 0.214283
0.223081 0.525124 0.217233
0.244850 0.534497 0.220185
0.270079 0.545220 0.222802
0.298204 0.556787 0.224868
0.333879 0.569974 0.226346
0.391238 0.587649 0.225136
0.458302 0.608145 0.219362
0.513616 0.626926 0.213664
0.563613 0.643463 0.207067
0.607446 0.651993 0.192065
0.642244 0.651386 0.168727
0.673929 0.651426 0.142502
0.705563 0.655123 0.116177
0.737888 0.661302 0.090500
0.768297 0.666592 0.065537
0.797485 0.671097 0.043645
0.825794 0.674889 0.024587
0.850644 0.677174 0.010183
0.873449 0.678846 0.001616
0.895127 0.680499 0.000048
0.914741 0.682608 0.000000
0.934169 0.684885 0.000000
0.950916 0.685915 0.000000
0.045258 0.538586 0.156523
0.076243 0.530644 0.177396
0.107693 0.522209 0.200723
0.126185 0.521271 0.206028
0.142705 0.522784 0.208475
0.159520 0.525679 0.211916
0.176334 0.530601 0.215921
0.192998 0.536162 0.219610
0.210059 0.542880 0.222666
0.228630 0.550846 0.225635
0.250133 0.560174 0.228659
0.275210 0.570793 0.231345
0.302538 0.582205 0.233334
0.337338 0.595257 0.234711
0.394054 0.612859 0.233807
0.461853 0.633571 0.228431
0.519015 0.653255 0.223532
0.568250 0.669875 0.218626
0.614498 0.682891 0.207428
0.650638 0.685365 0.187183
0.681758 0.684833 0.161963
0.710791 0.685196 0.134819
0.739901 0.688419 0.108452
0.769211 0.693082 0.083401
0.796750 0.696827 0.060573
0.823691 0.699791 0.042616
0.847011 0.701134 0.028506
0.868949 0.702460 0.016290
0.890802 0.704325 0.006069
0.910470 0.706138 0.000149
0.929681 0.708135 0.000000
0.946565 0.708872 0.000000
0.047848 0.564742 0.161562
0.079218 0.556680 0.182731
0.111470 0.548356 0.207005
0.130113 0.547240 0.212340
0.147645 0.548476 0.215331
0.164999 0.551362 0.219125
0.182329 0.556735 0.223581
0.199141 0.562436 0.227318
0.215973 0.568940 0.230236
0.234440 0.576633 0.233039
0.255647 0.585778 0.235833
0.279975 0.596203 0.238326
0.306898 0.607500 0.240199
0.341290 0.620499 0.241543
0.397979 0.638216 0.240892
0.466082 0.658910 0.235549
0.523793 0.678574 0.230532
0.572179 0.694805 0.226664
0.618100 0.709029 0.217925
0.657466 0.716586 0.201387
0.688264 0.716740 0.177932
0.716414 0.716095 0.151522
0.742644 0.715980 0.124563
0.769650 0.718222 0.099423
0.796233 0.720907 0.078192
0.821398 0.723223 0.060024
0.843914 0.724611 0.044999
0.865281 0.725814 0.031166
0.886930 0.727314 0.018040
0.906661 0.728917 0.009101
0.925433 0.730432 0.002738
0.942387 0.731013 0.006248
0.048806 0.590241 0.164448
0.080619 0.582278 0.185847
0.113831 0.574277 0.211280
0.133062 0.573156 0.217394
0.151217 0.574088 0.220793
0.168974 0.576859 0.224694
0.186335 0.582303 0.229013
0.203299 0.588026 0.232837
0.220710 0.594717 0.235949
0.239435 0.602453 0.238665
0.260143 0.611222 0.241216
0.283813 0.621401 0.243421
0.310616 0.632785 0.245095
0.345206 0.645831 0.246299
0.402206 0.663469 0.245760
0.470390 0.683742 0.240277
0.527174 0.702655 0.234754
0.575225 0.718994 0.231727
0.619421 0.732584 0.224531
0.660963 0.743479 0.210554
0.692856 0.746062 0.189766
0.720581 0.745758 0.165007
0.746099 0.744391 0.139097
0.770754 0.743423 0.115374
0.795731 0.744574 0.093400
0.819353 0.746249 0.073665
0.841059 0.747624 0.057745
0.862096 0.748736 0.043349
0.883196 0.749933 0.029895
0.903085 0.751176 0.020535
0.921655 0.752544 0.012673
0.938611 0.752785 0.016244
0.047945 0.615632 0.165443
0.080198 0.607933 0.186810
0.113899 0.599844 0.212577
0.134000 0.598919 0.220055
0.153036 0.600213 0.224410
0.171318 0.602743 0.228559
0.188929 0.607966 0.232504
0.206267 0.613738 0.236287
0.223551 0.620402 0.239122
0.242106 0.628080 0.241813
0.262571 0.636628 0.244241
0.286383 0.646734 0.246451
0.312768 0.658110 0.247940
0.347048 0.671104 0.248974
0.405607 0.688445 0.248331
0.474088 0.708181 0.242595
0.529509 0.726274 0.236602
0.577158 0.742551 0.233988
0.619539 0.755335 0.227914
0.660769 0.766667 0.215838
0.695353 0.772525 0.197959
0.722884 0.773126 0.176218
0.748665 0.772272 0.152433
0.772588 0.770682 0.128403
0.795412 0.769484 0.105582
0.817258 0.769665 0.085363
0.838092 0.770337 0.068454
0.858709 0.771313 0.054159
0.879390 0.772342 0.040848
0.899408 0.773356 0.031605
0.917830 0.774242 0.024885
0.934171 0.773660 0.032369
0.047246 0.640998 0.167289
0.077677 0.634041 0.185444
0.112060 0.626169 0.211443
0.132622 0.625038 0.219921
0.152474 0.626292 0.224995
0.171836 0.628709 0.229625
0.190026 0.634470 0.233839
0.207389 0.640239 0.237337
0.224400 0.646558 0.239907
0.242607 0.653898 0.242473
0.263322 0.662459 0.244985
0.286962 0.672539 0.247156
0.313060 0.683474 0.248373
0.347041 0.695933 0.248937
0.407713 0.713232 0.247912
0.476879 0.732337 0.242053
0.529817 0.749177 0.235958
0.576920 0.764963 0.233167
