lut-uploads/W-9770-STD.cube
# Copyright: (C) Copyright 2016 by IWLTBAP
# Cannot be resold, shared or otherwise redistributed
# Website: http://luts.iwltbap.com
TITLE "IWLTBAP 9770 (Rec.709)"
LUT_3D_SIZE 5
DOMAIN_MIN 0.000000 0.000000 0.000000
DOMAIN_MAX 0.903226 0.903226 0.903226
0.000000 0.000000 0.000000
0.129299 0.000000 0.000000
0.286694 0.025040 0.000000
0.473207 0.049002 0.000000
0.742663 0.058716 0.000000
0.001839 0.102487 0.010967
0.116047 0.118888 0.017870
0.324187 0.149622 0.016778
0.572139 0.183014 0.006630
0.934666 0.172888 0.000000
0.010073 0.287222 0.074875
0.129368 0.294789 0.121358
0.360802 0.339824 0.086907
0.673895 0.401892 0.000000
0.933809 0.402642 0.000000
0.036710 0.486419 0.142480
0.180082 0.483873 0.201812
0.389312 0.562125 0.214635
0.701845 0.626490 0.096226
0.900230 0.656282 0.000000
0.049003 0.664802 0.172030
0.205420 0.666923 0.234915
0.409835 0.738091 0.244562
0.722079 0.825349 0.185823
0.871172 0.814684 0.067964
0.000000 0.000000 0.094473
0.152134 0.000000 0.090618
0.314356 0.021539 0.075243
0.484294 0.040677 0.073692
0.756557 0.047309 0.060433
0.005286 0.116918 0.150581
0.105692 0.133942 0.163449
0.344509 0.169265 0.141160
0.619274 0.185079 0.092026
0.950951 0.159931 0.022785
0.014824 0.319274 0.233734
0.113130 0.316176 0.251103
0.361481 0.357600 0.215748
0.704012 0.396615 0.062775
0.944106 0.393584 0.001106
0.049797 0.516779 0.306583
0.177147 0.507243 0.334715
0.352889 0.564075 0.335334
0.712938 0.634839 0.220969
0.900012 0.661009 0.117246
0.084236 0.682004 0.373378
0.215605 0.680202 0.398229
0.373984 0.729579 0.406816
0.735645 0.822238 0.355562
0.885730 0.817782 0.275851
0.000000 0.005631 0.216629
0.105725 0.000000 0.205473
0.323106 0.024720 0.210226
0.521880 0.039867 0.216236
0.717254 0.038062 0.223274
0.016442 0.152059 0.300818
0.094807 0.157710 0.311150
0.354109 0.163687 0.288926
0.646129 0.149756 0.266921
0.866378 0.142075 0.240472
0.035369 0.342793 0.406817
0.133607 0.345985 0.412910
0.299791 0.384850 0.433306
0.728474 0.409716 0.298471
0.941173 0.395706 0.242151
0.055966 0.550364 0.488056
0.193956 0.548122 0.505457
0.300553 0.592982 0.515221
0.702186 0.668499 0.451210
0.912360 0.683194 0.308797
0.087379 0.712815 0.543511
0.228672 0.712483 0.561650
0.334033 0.749881 0.566614
0.710156 0.839281 0.574590
0.893212 0.848748 0.517822
0.000000 0.042403 0.347086
0.097486 0.001844 0.315447
0.301549 0.027054 0.328819
0.520543 0.056848 0.345957
0.750124 0.053236 0.396500
0.025853 0.176361 0.428288
0.103169 0.173872 0.425341
0.297655 0.159623 0.405923
0.558308 0.189315 0.408012
0.757474 0.190539 0.435513
0.061511 0.366141 0.543860
0.152997 0.376475 0.541836
0.294069 0.410380 0.569446
0.656564 0.422809 0.531263
0.841221 0.419712 0.508638
0.082903 0.551923 0.633060
0.206687 0.562285 0.631446
0.315755 0.610698 0.657984
0.696978 0.701598 0.681333
0.904061 0.713334 0.622049
0.107626 0.722811 0.689635
0.239720 0.735065 0.694618
0.337287 0.774038 0.707879
0.659700 0.849671 0.714809
0.894415 0.884636 0.689973
0.006863 0.064854 0.503342
0.109241 0.013854 0.446869
0.303128 0.028715 0.450566
0.548353 0.060682 0.487408
0.730382 0.069108 0.518872
0.031823 0.207736 0.570562
0.115602 0.200534 0.552912
0.293030 0.182358 0.530059
0.533210 0.189738 0.523330
0.730216 0.209837 0.539200
0.069693 0.396473 0.673456
0.164465 0.405167 0.657031
0.305865 0.434153 0.672439
0.601720 0.429934 0.637882
0.798194 0.446908 0.617640
0.096253 0.567594 0.754114
0.212422 0.580496 0.738838
0.322431 0.624419 0.758535
0.678031 0.693560 0.786886
0.881589 0.708899 0.763531
0.100554 0.720996 0.801096
0.232721 0.735058 0.793165
0.349445 0.776464 0.805243
0.642540 0.855491 0.842657
0.890138 0.903252 0.831718
