lut-uploads/X-9580-STD.cube
# Copyright: (C) Copyright 2016 by IWLTBAP
# Cannot be resold, shared or otherwise redistributed
# Website: http://luts.iwltbap.com
TITLE "IWLTBAP 9580 (Rec.709)"
LUT_3D_SIZE 32
0.036133 0.052063 0.060791
0.046566 0.055050 0.064191
0.060237 0.058958 0.068666
0.075161 0.062775 0.072650
0.088642 0.065788 0.073163
0.100989 0.067529 0.070281
0.114470 0.069613 0.068745
0.129223 0.069597 0.066404
0.146440 0.067131 0.064857
0.164418 0.066067 0.062044
0.183072 0.066278 0.059318
0.203196 0.065520 0.057281
0.223499 0.064612 0.053947
0.243730 0.062924 0.048390
0.267222 0.060613 0.044367
0.291517 0.057895 0.040814
0.315272 0.053291 0.037495
0.339018 0.045791 0.033780
0.363510 0.044553 0.035005
0.390119 0.040938 0.037224
0.419738 0.042641 0.039736
0.451015 0.047392 0.042770
0.484652 0.050594 0.046778
0.521801 0.051780 0.050811
0.552772 0.052669 0.056240
0.580696 0.061208 0.060672
0.609305 0.066372 0.064281
0.637290 0.065723 0.067086
0.664150 0.063233 0.075226
0.688742 0.065066 0.077876
0.712133 0.068084 0.079560
0.733490 0.075012 0.082184
0.038600 0.058720 0.063720
0.048121 0.062849 0.064127
0.061919 0.067310 0.068783
0.078583 0.071344 0.073429
0.093747 0.074745 0.076127
0.105830 0.076111 0.073749
0.119576 0.078272 0.072145
0.135026 0.078632 0.070280
0.152819 0.076185 0.068825
0.170875 0.074849 0.066422
0.189968 0.075128 0.063485
0.210986 0.074854 0.060860
0.232221 0.074093 0.057299
0.253097 0.072914 0.051164
0.276858 0.071254 0.046858
0.301294 0.068820 0.043742
0.325298 0.064815 0.040498
0.349563 0.058341 0.037729
0.373763 0.053199 0.037177
0.400269 0.046287 0.038522
0.426038 0.046762 0.040760
0.454454 0.050623 0.043137
0.487239 0.053171 0.047063
0.524080 0.054686 0.051114
0.554384 0.055526 0.056544
0.582135 0.063917 0.060884
0.610883 0.068380 0.064625
0.638895 0.068060 0.067504
0.665875 0.065408 0.075732
0.690816 0.067169 0.078035
0.715743 0.069536 0.080337
0.738531 0.076990 0.083352
0.041553 0.067413 0.067224
0.051174 0.071639 0.067715
0.064721 0.077300 0.069311
0.082053 0.081259 0.074179
0.100458 0.085241 0.078610
0.113374 0.086986 0.077934
0.126200 0.088375 0.076539
0.141692 0.088044 0.074873
0.159302 0.085417 0.073260
0.176406 0.084431 0.070572
0.195382 0.084669 0.067444
0.216692 0.083953 0.064584
0.237878 0.083361 0.060539
0.259650 0.082222 0.054324
0.284699 0.081165 0.050377
0.310009 0.079797 0.047549
0.334898 0.076707 0.044038
0.359811 0.071146 0.041276
0.384987 0.066543 0.040733
0.411810 0.058620 0.041576
0.437874 0.054460 0.042093
0.464913 0.055928 0.044678
0.496508 0.058248 0.048225
0.530720 0.060120 0.052635
0.559869 0.059368 0.057645
0.586413 0.066095 0.061671
0.614763 0.069053 0.065690
0.642800 0.070345 0.068319
0.670504 0.068065 0.076580
0.697012 0.069438 0.078690
0.723184 0.071480 0.081915
0.748596 0.077691 0.085659
0.042685 0.077528 0.069909
0.052239 0.081030 0.071099
0.065568 0.086748 0.073983
0.083955 0.093238 0.079322
0.103929 0.097793 0.084326
0.119072 0.099224 0.081457
0.132184 0.099791 0.080263
0.148190 0.098171 0.079101
0.164522 0.095709 0.077495
0.180705 0.095207 0.074635
0.199682 0.095237 0.071324
0.220759 0.093569 0.068480
0.241686 0.093184 0.064370
0.263437 0.091475 0.058448
0.288091 0.089496 0.054078
0.313330 0.089454 0.051043
0.339024 0.087998 0.047731
0.367498 0.084177 0.045267
0.396197 0.080579 0.044329
0.424245 0.077381 0.044069
0.452215 0.070065 0.045783
0.478339 0.063947 0.046651
0.506292 0.061790 0.049623
0.536855 0.063938 0.053852
0.563995 0.062722 0.058444
0.590479 0.068311 0.062368
0.620294 0.068854 0.067266
0.648734 0.072760 0.069309
0.676824 0.072987 0.076634
0.704472 0.074153 0.080238
0.730827 0.076419 0.083644
0.758266 0.083521 0.087609
0.041706 0.089061 0.075437
0.052494 0.092209 0.077118
0.066119 0.096404 0.080333
0.083931 0.103602 0.086168
0.105043 0.111001 0.091333
0.121375 0.112718 0.088817
0.137331 0.111211 0.084031
0.154957 0.109207 0.082733
0.170899 0.107317 0.080917
0.186739 0.107390 0.077996
0.205056 0.106676 0.075100
0.225393 0.103742 0.072591
0.245796 0.103412 0.068684
0.267736 0.101366 0.063695
0.291743 0.098747 0.059000
0.315896 0.099226 0.055460
0.340411 0.098854 0.051973
0.369283 0.095543 0.048546
0.399632 0.092150 0.046986
0.432368 0.092122 0.048501
0.464561 0.085554 0.050267
0.492514 0.081342 0.049028
0.521917 0.077103 0.051752
0.553063 0.072932 0.056464
0.581197 0.070963 0.061003
0.608356 0.072984 0.064548
0.637708 0.072396 0.070411
0.665980 0.075981 0.074107
0.693070 0.084702 0.078070
0.721671 0.088092 0.082520
0.748730 0.091862 0.087259
0.775328 0.098059 0.090989
0.038619 0.100501 0.082656
0.050573 0.103916 0.084135
0.065116 0.108517 0.087041
0.083623 0.114723 0.093117
0.103717 0.122931 0.099143
0.123066 0.129651 0.100030
0.139332 0.127978 0.092421
0.162754 0.125450 0.086947
0.180081 0.123387 0.083532
0.196767 0.122023 0.080525
0.213810 0.118795 0.078890
0.232304 0.115882 0.076600
0.251031 0.115344 0.073388
0.272297 0.113205 0.069228
0.295468 0.110400 0.064026
0.318469 0.110243 0.059823
0.341775 0.109900 0.055683
0.370161 0.107288 0.051620
0.400155 0.103810 0.048636
0.431356 0.102543 0.049464
0.466662 0.099781 0.052848
0.501975 0.098853 0.054043
0.536175 0.097912 0.057307
0.569203 0.092887 0.061380
0.599019 0.092579 0.064773
0.626766 0.091492 0.067395
0.656470 0.090645 0.071575
0.683969 0.094087 0.077096
0.710815 0.101973 0.081372
0.738345 0.106402 0.086712
0.765153 0.112341 0.091263
0.791153 0.118750 0.095189
0.035502 0.116072 0.092664
0.045378 0.117797 0.092987
0.061414 0.121394 0.094889
0.083476 0.128206 0.100709
0.103478 0.135839 0.107685
0.124648 0.145958 0.112628
0.141936 0.146198 0.105728
0.163855 0.143592 0.095730
0.187678 0.140242 0.089029
0.206912 0.137151 0.085038
0.225413 0.134344 0.081861
0.242325 0.132390 0.079675
0.259943 0.130738 0.077072
0.279208 0.128082 0.073406
0.300327 0.124910 0.068532
0.322285 0.123494 0.064231
0.344762 0.122328 0.059924
0.372453 0.120003 0.055662
0.402702 0.116946 0.051967
0.432706 0.114389 0.051640
0.466059 0.113760 0.053515
0.500719 0.111891 0.055520
0.537580 0.112165 0.059910
0.573789 0.109775 0.064403
0.605456 0.110089 0.066119
0.635099 0.111255 0.069797
0.667821 0.112869 0.071971
0.696770 0.116462 0.077358
0.722064 0.119957 0.083494
0.747246 0.123891 0.088874
0.772172 0.129187 0.093117
0.796236 0.136446 0.097817
0.041142 0.135247 0.103966
0.045498 0.135852 0.103259
0.054200 0.138159 0.104111
0.080845 0.145485 0.110220
0.105210 0.153826 0.117974
0.128036 0.164124 0.125505
0.147770 0.168747 0.124996
0.165536 0.164711 0.111816
0.191184 0.161284 0.099579
0.216931 0.157583 0.089828
0.237054 0.154708 0.084982
0.255741 0.151770 0.082705
0.273626 0.148674 0.080677
0.290855 0.144723 0.076563
0.309228 0.140576 0.072574
0.329481 0.137464 0.068738
0.349346 0.135739 0.064257
0.375377 0.133315 0.059487
0.405048 0.130292 0.055371
0.435558 0.127747 0.054751
0.467624 0.126832 0.055544
0.500612 0.124714 0.058158
0.536254 0.124955 0.062033
0.571111 0.123974 0.065547
0.603338 0.122772 0.068443
0.634289 0.123390 0.071062
0.664633 0.125740 0.077117
0.693194 0.128822 0.080704
0.720381 0.132647 0.084690
0.746251 0.139908 0.089912
0.771241 0.145760 0.093517
0.794351 0.152904 0.098519
0.050539 0.156562 0.116356
0.053861 0.156466 0.114811
0.059384 0.157106 0.114444
0.077701 0.162874 0.119349
0.104353 0.171777 0.127569
0.128504 0.182304 0.135720
0.151418 0.190523 0.141301
0.170108 0.188494 0.131383
0.189987 0.184329 0.116317
0.214925 0.178756 0.102612
0.244508 0.177087 0.090380
0.267829 0.171281 0.086058
0.287355 0.166993 0.084067
0.303814 0.161990 0.079198
0.321306 0.157601 0.074993
0.339927 0.154333 0.071933
0.358203 0.151056 0.068351
0.381212 0.147600 0.064189
0.407227 0.144212 0.059663
0.435714 0.141684 0.057672
0.467402 0.139603 0.058948
0.500084 0.137932 0.058831
0.535706 0.136622 0.063731
0.569107 0.138480 0.067589
0.601308 0.136704 0.071194
0.632122 0.137338 0.072616
0.662349 0.140762 0.076898
0.690934 0.143334 0.082645
0.717969 0.146957 0.086456
0.742819 0.154419 0.092201
0.767939 0.161956 0.096253
0.791452 0.169694 0.100482
0.058053 0.179920 0.130019
0.060589 0.179379 0.128269
0.065098 0.179300 0.127079
0.079747 0.182349 0.130371
0.101035 0.189070 0.136987
0.128512 0.199207 0.145285
0.151390 0.210496 0.153579
0.174091 0.213464 0.151305
0.191853 0.209258 0.137197
0.210821 0.203192 0.120805
0.241325 0.198707 0.104654
0.275643 0.193115 0.090741
0.296943 0.187473 0.086102
0.315109 0.182240 0.082116
0.332382 0.177656 0.078115
0.350744 0.173329 0.075314
0.369723 0.168241 0.072038
0.388877 0.162741 0.068296
0.410699 0.158609 0.063847
0.436177 0.156136 0.061127
0.466692 0.153731 0.061887
0.499178 0.151741 0.060325
0.535153 0.150927 0.064622
0.569209 0.153056 0.070178
0.600222 0.153044 0.073525
0.631203 0.151247 0.076350
0.660840 0.155899 0.078826
0.688408 0.159289 0.082737
0.715417 0.163680 0.087490
0.739466 0.170443 0.093002
0.764315 0.177853 0.098841
0.787730 0.185790 0.104148
0.064713 0.204021 0.143884
0.067151 0.203615 0.142404
0.069664 0.202823 0.140917
0.076803 0.203009 0.141145
0.096690 0.208267 0.146581
0.122345 0.218970 0.156766
0.150813 0.229462 0.165466
0.175634 0.237948 0.171048
0.193223 0.236277 0.162004
0.211183 0.231336 0.145587
0.235882 0.223889 0.125377
0.269871 0.218596 0.105814
0.300517 0.213327 0.090829
0.322331 0.206774 0.084230
0.341837 0.200430 0.079978
0.361106 0.194444 0.078041
0.380037 0.188768 0.075699
0.399185 0.182509 0.072591
0.419056 0.176540 0.069032
0.441753 0.172072 0.066277
0.468529 0.168487 0.065086
0.499265 0.166192 0.063439
0.533334 0.167664 0.066125
0.568204 0.168398 0.071028
0.599734 0.169086 0.074165
0.630624 0.169397 0.078169
0.660294 0.172940 0.083279
0.686639 0.176337 0.085189
0.712576 0.181132 0.088556
0.736776 0.187295 0.092958
0.761030 0.194449 0.098719
0.783926 0.202652 0.104965
0.076094 0.229773 0.158576
0.078471 0.229194 0.156844
0.080681 0.228303 0.155042
0.082675 0.226870 0.153819
0.090848 0.228596 0.156692
0.118889 0.237973 0.166607
0.147729 0.249930 0.177859
0.176293 0.260487 0.187212
0.198504 0.265050 0.187087
0.215042 0.261080 0.172224
0.236147 0.254720 0.151216
0.262362 0.247498 0.129209
0.294485 0.240055 0.107818
0.324089 0.233204 0.090969
0.348118 0.226108 0.082023
0.369647 0.219634 0.077867
0.389503 0.212559 0.075403
0.409799 0.204393 0.073818
0.431025 0.197072 0.071654
0.451386 0.190798 0.068160
0.473423 0.184816 0.066718
0.501314 0.181924 0.066513
0.533081 0.182743 0.069468
0.566311 0.183221 0.072208
0.598170 0.184182 0.075088
0.628385 0.187118 0.079062
0.657156 0.189861 0.084830
0.684579 0.193377 0.088209
0.710780 0.198790 0.092296
0.734964 0.205059 0.095772
0.758077 0.212536 0.100385
0.780166 0.221141 0.105743
0.083928 0.252524 0.173932
0.086448 0.252313 0.172148
0.088861 0.251718 0.170086
0.091131 0.250650 0.168417
0.096056 0.250947 0.169101
0.110758 0.256003 0.175783
0.142041 0.268043 0.187371
0.173875 0.280654 0.199759
0.202430 0.292075 0.207896
0.220364 0.290181 0.197331
0.238831 0.283711 0.178602
0.262095 0.275936 0.156259
0.288069 0.267289 0.133460
0.318463 0.259168 0.108095
0.348006 0.250352 0.088067
0.374189 0.242686 0.076557
0.396521 0.235128 0.071115
0.417052 0.227469 0.070085
0.439188 0.218839 0.069617
0.460594 0.210531 0.068169
0.481076 0.203864 0.066821
0.505355 0.199955 0.068973
0.533559 0.197785 0.073022
0.565282 0.197549 0.074742
0.596528 0.199597 0.077308
0.625823 0.203778 0.081151
0.653634 0.206234 0.087844
0.680660 0.211539 0.091169
0.707574 0.216407 0.096347
0.732462 0.222263 0.101580
0.755299 0.230215 0.105774
0.777090 0.239155 0.110869
0.091398 0.274648 0.190070
0.093719 0.274427 0.187949
0.096029 0.274170 0.185692
0.098058 0.273278 0.183623
0.100871 0.272748 0.182807
0.109248 0.275218 0.186464
0.132547 0.285475 0.196022
0.168299 0.300445 0.210318
0.200436 0.313784 0.221250
0.224322 0.319793 0.221113
0.242302 0.313213 0.204793
0.263508 0.305696 0.184051
0.287380 0.297304 0.160368
0.311748 0.287513 0.135296
0.342415 0.277229 0.107040
0.372546 0.267990 0.085655
0.401256 0.259095 0.074014
0.424287 0.250623 0.072202
0.444889 0.241463 0.069943
0.467614 0.231719 0.069759
0.488403 0.224351 0.069428
0.510459 0.217876 0.070916
0.536083 0.214283 0.073935
0.564032 0.213808 0.075966
0.594714 0.215583 0.080467
0.623720 0.219904 0.084191
0.651189 0.224662 0.088432
0.677709 0.230396 0.093931
0.703658 0.235520 0.099819
0.729044 0.241454 0.105476
0.753209 0.249081 0.109377
0.774831 0.257719 0.114556
0.100091 0.298686 0.206140
0.102475 0.298204 0.203796
0.104788 0.297899 0.201303
0.106762 0.297164 0.198693
0.108573 0.296064 0.196789
0.111678 0.295521 0.196822
0.127982 0.304285 0.205678
0.164183 0.321035 0.220611
0.196244 0.334433 0.233722
0.226089 0.345529 0.240973
0.247047 0.343915 0.231316
0.265135 0.337122 0.212863
0.287591 0.329001 0.189769
0.311524 0.320040 0.165170
0.336914 0.308556 0.138291
0.366607 0.297078 0.107112
0.398085 0.285983 0.085507
0.429664 0.276614 0.075596
0.451731 0.266296 0.074789
0.473758 0.255471 0.073669
0.495352 0.245021 0.073790
0.516867 0.236430 0.075338
0.540444 0.231010 0.074092
0.564688 0.230417 0.075480
0.592656 0.231990 0.080294
0.621043 0.235321 0.085582
0.648768 0.241596 0.089593
0.674941 0.249210 0.094453
0.699934 0.255133 0.100885
0.724225 0.261179 0.107919
0.749052 0.268693 0.112390
0.771787 0.277048 0.117732
0.106069 0.323373 0.221971
0.108896 0.322908 0.219765
0.111704 0.322494 0.217222
0.114053 0.322031 0.214339
0.115985 0.321146 0.211989
0.118146 0.319812 0.211090
0.129477 0.325153 0.216158
0.155910 0.339431 0.229997
0.190935 0.355984 0.244994
0.224538 0.369607 0.258067
0.251803 0.375258 0.258957
0.270245 0.369312 0.243253
0.290502 0.362007 0.222034
0.312687 0.353758 0.197288
0.336967 0.343539 0.171682
0.361702 0.330980 0.142722
0.391869 0.317192 0.108066
0.424612 0.304148 0.086076
0.458622 0.298163 0.080200
0.481641 0.285464 0.078887
0.502803 0.272592 0.077907
0.523819 0.262521 0.079268
0.545463 0.255428 0.079046
0.568214 0.249950 0.079677
0.592690 0.249448 0.082121
0.618604 0.252125 0.086067
0.645909 0.259629 0.092868
0.671428 0.267335 0.096245
0.696349 0.274411 0.103352
0.720588 0.281190 0.111307
0.745000 0.288294 0.117500
0.767311 0.296218 0.123409
0.110890 0.347129 0.237291
0.114236 0.346789 0.235354
0.117418 0.346383 0.233071
0.120366 0.346136 0.230369
0.122704 0.345510 0.227875
0.124860 0.344455 0.226891
0.131629 0.347138 0.229353
0.149153 0.356824 0.238537
0.182650 0.375349 0.256663
0.220886 0.392475 0.272966
0.254333 0.403773 0.282546
0.276939 0.402337 0.274343
0.295705 0.394529 0.255618
0.315860 0.387350 0.232995
0.338524 0.378639 0.206822
0.363186 0.367238 0.179156
0.387888 0.353615 0.146997
0.418582 0.337091 0.109249
0.453669 0.327623 0.092976
0.490796 0.321036 0.087581
0.512754 0.308471 0.084229
0.534057 0.296581 0.083612
0.555830 0.287329 0.085336
0.575141 0.280049 0.086762
0.596113 0.275008 0.088401
0.618823 0.274210 0.089998
0.642459 0.277608 0.092996
0.667582 0.285511 0.098813
0.692840 0.293540 0.104828
0.717414 0.301087 0.114125
0.740642 0.309363 0.122380
0.762459 0.317861 0.129109
0.115327 0.371935 0.253690
0.118003 0.371999 0.251806
0.121112 0.371817 0.249624
0.124206 0.371779 0.247036
0.126919 0.371419 0.244583
0.129119 0.370490 0.243117
0.133254 0.370936 0.243682
0.141842 0.374878 0.247608
0.172748 0.393751 0.266242
0.213683 0.415935 0.287623
0.251244 0.430006 0.302114
0.283700 0.436415 0.306063
0.303850 0.429658 0.290471
0.322822 0.422413 0.269708
0.342579 0.415341 0.245484
0.366310 0.405038 0.218266
0.389980 0.392770 0.187638
0.414400 0.377837 0.151306
0.444766 0.359742 0.115437
0.484940 0.351011 0.099908
0.521239 0.346031 0.094942
0.543767 0.333259 0.091038
0.566248 0.321248 0.091770
0.585583 0.313101 0.093655
0.603986 0.307736 0.094330
0.623161 0.303791 0.094986
0.641980 0.301502 0.095621
0.663472 0.303530 0.097503
0.688643 0.313003 0.105175
0.712878 0.322245 0.113889
0.736445 0.331842 0.124432
0.758813 0.340806 0.133259
0.119604 0.397381 0.272016
0.121917 0.397133 0.269885
0.124264 0.397005 0.267600
0.126507 0.396880 0.264884
0.129134 0.396775 0.262241
0.131507 0.396212 0.260203
0.133814 0.395556 0.259347
0.138407 0.397092 0.261224
0.164889 0.414935 0.278506
0.208342 0.438067 0.301157
0.246953 0.453827 0.319310
0.286102 0.466093 0.331402
0.311101 0.466267 0.326303
0.333089 0.457822 0.308518
0.351773 0.451396 0.285754
0.370821 0.443479 0.260154
0.393234 0.433250 0.232106
0.417936 0.420084 0.197883
0.442873 0.403041 0.160304
0.473429 0.384096 0.123533
0.514880 0.376911 0.107914
0.549911 0.372549 0.100929
0.573398 0.359662 0.098089
0.594076 0.349965 0.100013
0.612117 0.343192 0.100840
0.630664 0.338113 0.100567
0.649598 0.333911 0.100575
0.666906 0.330580 0.101017
0.685490 0.333260 0.104156
0.708560 0.342283 0.110357
0.732560 0.354399 0.121430
0.754622 0.365663 0.133898
0.118105 0.423219 0.292239
0.120607 0.422898 0.290125
0.122886 0.422683 0.287885
0.125059 0.422577 0.285232
0.127159 0.422782 0.282471
0.129191 0.422867 0.279914
0.131209 0.422291 0.278362
0.135483 0.423424 0.279610
0.157562 0.440479 0.296442
0.202521 0.461522 0.318253
0.245656 0.479107 0.337621
0.285860 0.494674 0.353886
0.315625 0.503956 0.361165
0.340458 0.497451 0.348982
0.363737 0.488854 0.328621
0.380457 0.482100 0.305608
0.400048 0.473376 0.280019
0.423860 0.463618 0.248478
0.448498 0.449075 0.211182
0.472539 0.431411 0.171208
0.502807 0.411458 0.131995
0.542582 0.404278 0.114885
0.576773 0.397868 0.108441
0.599522 0.388771 0.106441
0.617947 0.380853 0.107589
0.636536 0.375133 0.108363
0.654982 0.371068 0.108685
0.672096 0.367954 0.108645
0.687909 0.364145 0.108166
0.703492 0.363647 0.109393
0.724819 0.372676 0.117458
0.748294 0.385806 0.130228
0.116227 0.450149 0.313062
0.118342 0.449979 0.311341
0.120332 0.449902 0.309429
0.122265 0.449966 0.307160
0.124089 0.450284 0.304683
0.125787 0.450744 0.302081
0.127595 0.450673 0.300243
0.132482 0.454016 0.302723
0.157164 0.470037 0.318574
0.198889 0.489107 0.340118
0.246070 0.507526 0.359788
0.285166 0.524150 0.377718
0.317916 0.535154 0.389947
0.349742 0.538688 0.390350
0.374164 0.529581 0.374321
0.393845 0.522343 0.353516
0.411774 0.515296 0.328596
0.432480 0.506368 0.299623
0.456570 0.495553 0.265508
0.481163 0.480616 0.227145
0.504820 0.461774 0.184903
0.531460 0.439571 0.140707
0.569401 0.431438 0.122062
0.602837 0.427958 0.116201
0.623756 0.420850 0.114745
0.642219 0.413873 0.115238
0.659759 0.407889 0.115974
0.676067 0.403447 0.117239
0.691525 0.399639 0.117586
0.705511 0.396159 0.116338
0.719469 0.394631 0.116718
0.739295 0.401461 0.122762
0.115052 0.477691 0.335031
0.118351 0.477837 0.333488
0.121216 0.478051 0.331738
0.123301 0.478309 0.329886
0.125139 0.478708 0.327786
0.126793 0.479192 0.325544
0.128491 0.479410 0.323614
0.135013 0.484193 0.326953
0.159500 0.500852 0.343239
0.202393 0.519436 0.364514
0.249374 0.538859 0.384692
0.289547 0.555401 0.402535
0.323520 0.567904 0.416550
0.356670 0.577865 0.427242
0.384208 0.573666 0.421285
0.408382 0.565039 0.403959
0.427017 0.557188 0.380656
0.446024 0.549320 0.353654
0.468110 0.539918 0.321429
0.491699 0.528449 0.285729
0.515675 0.513453 0.246563
0.539366 0.494015 0.201562
0.563122 0.469914 0.154273
0.596203 0.461281 0.132460
0.624856 0.457934 0.123322
0.644266 0.451385 0.121654
0.661872 0.445355 0.122878
0.677082 0.439723 0.122951
0.692588 0.435645 0.123777
0.707704 0.432366 0.124587
0.720733 0.429878 0.124919
0.734540 0.429740 0.125684
0.111174 0.505727 0.361587
0.114631 0.505748 0.359952
0.118180 0.506126 0.358335
0.121611 0.506509 0.356422
0.125343 0.507395 0.354558
0.128725 0.508237 0.352434
0.131042 0.509056 0.350471
0.140647 0.513347 0.352891
0.172806 0.531650 0.371064
0.213092 0.552581 0.392915
0.258215 0.570697 0.412326
0.298548 0.586223 0.429828
0.333544 0.599178 0.444658
0.369570 0.610727 0.457679
0.398944 0.616193 0.463696
0.423110 0.610025 0.453498
0.446344 0.600967 0.436061
0.465733 0.592861 0.413256
0.484092 0.585386 0.385407
0.505660 0.575151 0.350702
0.529054 0.562927 0.314928
0.552849 0.547059 0.271781
0.574228 0.528631 0.225176
0.594384 0.505892 0.175660
0.618058 0.491746 0.144452
0.642719 0.484517 0.130509
0.663535 0.480420 0.131299
0.680006 0.475458 0.132540
0.694665 0.470380 0.131200
0.709091 0.466284 0.129147
0.722791 0.462713 0.128546
0.735693 0.458813 0.129676
0.121926 0.536059 0.390481
0.124892 0.535999 0.388964
0.128896 0.536901 0.387878
0.132677 0.537551 0.386292
0.137788 0.539538 0.385457
0.142273 0.541392 0.384433
0.147079 0.544826 0.384730
0.154845 0.549492 0.387320
0.187768 0.564276 0.402932
0.231036 0.584625 0.425607
0.274140 0.602071 0.443507
0.312516 0.615511 0.459920
0.348479 0.628616 0.474879
0.383354 0.640242 0.487410
0.414714 0.648089 0.497117
0.440970 0.648352 0.496408
0.461989 0.641301 0.483294
0.482288 0.632622 0.464971
0.501622 0.624892 0.442031
0.520716 0.616545 0.412672
0.541727 0.606416 0.377788
0.565484 0.592586 0.338382
0.587576 0.576569 0.293853
0.606100 0.559490 0.249769
0.623772 0.537509 0.199640
0.645437 0.525066 0.169900
0.660427 0.507839 0.141676
0.680201 0.503003 0.139806
0.696618 0.499299 0.138501
0.709644 0.494170 0.136678
0.722717 0.489565 0.134262
0.734967 0.485231 0.132361
0.152834 0.573571 0.428383
0.155610 0.573721 0.427222
0.159116 0.574530 0.426503
0.163147 0.575590 0.425606
0.168439 0.577570 0.425339
0.174328 0.579810 0.425381
0.180094 0.582829 0.425640
0.189411 0.588144 0.428342
0.214872 0.598646 0.438797
0.258074 0.617130 0.459326
0.297670 0.632030 0.475229
0.333948 0.644944 0.489640
0.367676 0.656457 0.503573
0.398833 0.667023 0.514978
0.428614 0.676026 0.525746
0.456571 0.680511 0.531650
0.479778 0.675755 0.523900
0.499862 0.668066 0.508805
0.519031 0.660119 0.489143
0.536848 0.652122 0.465105
0.556663 0.643568 0.434506
0.577856 0.632728 0.399162
0.599827 0.618956 0.358594
0.618660 0.603915 0.318417
0.636000 0.588156 0.276911
0.652172 0.570502 0.230228
0.668295 0.552813 0.190572
0.681178 0.535681 0.160479
0.697142 0.527348 0.151293
0.710283 0.518019 0.142467
0.722967 0.513200 0.140633
0.734991 0.508631 0.138699
0.218343 0.622293 0.481918
0.221630 0.622679 0.481138
0.225196 0.623380 0.480453
0.229275 0.624385 0.479971
0.233905 0.625863 0.479642
0.239135 0.627892 0.479559
0.244126 0.630499 0.479278
0.250946 0.633950 0.479763
0.266397 0.640790 0.484643
0.295937 0.650310 0.495662
0.329208 0.662152 0.508234
0.360906 0.673908 0.520015
0.390344 0.684287 0.531607
0.417337 0.693409 0.542731
0.445439 0.702195 0.553707
0.473093 0.709826 0.563117
0.496831 0.708638 0.560155
0.517824 0.701873 0.548490
0.537661 0.694203 0.532599
0.554352 0.685729 0.512819
0.572647 0.677768 0.486962
0.592910 0.668898 0.455432
0.614042 0.657693 0.421372
0.632002 0.645857 0.385991
0.649071 0.631229 0.346476
0.663670 0.616836 0.306221
0.679282 0.601093 0.263955
0.692014 0.582313 0.218614
0.701625 0.561903 0.179618
0.715281 0.552281 0.165591
0.725061 0.537608 0.149168
0.736456 0.530740 0.144391
0.279327 0.663825 0.527584
0.281961 0.663962 0.526594
0.285070 0.664435 0.525837
0.288620 0.665194 0.525194
0.292836 0.666364 0.524801
0.297618 0.667896 0.524512
0.302532 0.669836 0.524191
0.308451 0.672267 0.524117
0.318209 0.675983 0.525834
0.338447 0.683757 0.532475
0.365919 0.694725 0.542982
0.393195 0.704455 0.553178
0.418565 0.713091 0.562918
0.443454 0.720994 0.572502
0.471347 0.728620 0.582785
0.497800 0.736143 0.592435
0.521358 0.739640 0.595894
0.540545 0.735768 0.589477
0.560806 0.729010 0.578016
0.578420 0.721004 0.561280
0.594570 0.713098 0.540318
0.612913 0.704792 0.512683
0.631260 0.695421 0.482426
0.648325 0.684986 0.450989
0.664767 0.673714 0.418055
0.680234 0.660638 0.381903
0.693329 0.646153 0.342723
0.707940 0.632392 0.303453
0.719109 0.614960 0.258527
0.730794 0.597846 0.217371
0.734957 0.576746 0.182981
0.739893 0.556428 0.156562
0.334420 0.698407 0.566238
0.336544 0.698269 0.565128
0.339368 0.698592 0.564436
0.342635 0.699111 0.563919
0.346667 0.700043 0.563774
0.350990 0.701245 0.563612
0.356136 0.702909 0.563828
0.361602 0.704844 0.563921
0.369172 0.707860 0.564944
0.382468 0.713240 0.568115
0.404669 0.721312 0.575452
0.426142 0.729546 0.584266
0.448610 0.737008 0.592919
0.471866 0.744078 0.600830
0.496122 0.750990 0.609931
0.519476 0.758055 0.618753
0.542613 0.765227 0.625876
0.562199 0.764517 0.623102
