lut-uploads/X-9580-STD.cube
# Copyright: (C) Copyright 2016 by IWLTBAP
# Cannot be resold, shared or otherwise redistributed
# Website: http://luts.iwltbap.com
TITLE "IWLTBAP 9580 (Rec.709)"
LUT_3D_SIZE 8
DOMAIN_MIN 0.000000 0.000000 0.000000
DOMAIN_MAX 0.903226 0.903226 0.903226
0.036133 0.052063 0.060791
0.088642 0.065788 0.073163
0.146440 0.067131 0.064857
0.223499 0.064612 0.053947
0.315272 0.053291 0.037495
0.419738 0.042641 0.039736
0.552772 0.052669 0.056240
0.664150 0.063233 0.075226
0.041706 0.089061 0.075437
0.105043 0.111001 0.091333
0.170899 0.107317 0.080917
0.245796 0.103412 0.068684
0.340411 0.098854 0.051973
0.464561 0.085554 0.050267
0.581197 0.070963 0.061003
0.693070 0.084702 0.078070
0.050539 0.156562 0.116356
0.104353 0.171777 0.127569
0.189987 0.184329 0.116317
0.287355 0.166993 0.084067
0.358203 0.151056 0.068351
0.467402 0.139603 0.058948
0.601308 0.136704 0.071194
0.717969 0.146957 0.086456
0.083928 0.252524 0.173932
0.096056 0.250947 0.169101
0.202430 0.292075 0.207896
0.288069 0.267289 0.133460
0.396521 0.235128 0.071115
0.481076 0.203864 0.066821
0.596528 0.199597 0.077308
0.707574 0.216407 0.096347
0.110890 0.347129 0.237291
0.122704 0.345510 0.227875
0.182650 0.375349 0.256663
0.295705 0.394529 0.255618
0.387888 0.353615 0.146997
0.512754 0.308471 0.084229
0.596113 0.275008 0.088401
0.692840 0.293540 0.104828
0.116227 0.450149 0.313062
0.124089 0.450284 0.304683
0.157164 0.470037 0.318574
0.317916 0.535154 0.389947
0.411774 0.515296 0.328596
0.504820 0.461774 0.184903
0.623756 0.420850 0.114745
0.691525 0.399639 0.117586
0.152834 0.573571 0.428383
0.168439 0.577570 0.425339
0.214872 0.598646 0.438797
0.367676 0.656457 0.503573
0.479778 0.675755 0.523900
0.556663 0.643568 0.434506
0.636000 0.588156 0.276911
0.697142 0.527348 0.151293
0.387633 0.729247 0.602415
0.398857 0.730608 0.599457
0.418206 0.737459 0.599251
0.480790 0.760363 0.621227
0.562798 0.785746 0.650113
0.633186 0.771284 0.620735
0.691474 0.740043 0.532130
0.740820 0.696108 0.410980
0.046883 0.060976 0.110100
0.089340 0.077545 0.114136
0.152353 0.077376 0.101461
0.233569 0.071698 0.084918
0.326831 0.066777 0.067005
0.434161 0.047980 0.050905
0.558659 0.054178 0.066383
0.667736 0.062860 0.084877
0.035936 0.091471 0.113424
0.120112 0.124580 0.139130
0.191378 0.134856 0.135334
0.276466 0.131844 0.118002
0.369238 0.122774 0.095055
0.487839 0.104531 0.072547
0.615823 0.098710 0.077112
0.725950 0.107816 0.093897
0.051974 0.157285 0.140084
0.145720 0.196782 0.173776
0.220659 0.210787 0.174647
0.309204 0.193585 0.143897
0.387648 0.178558 0.122859
0.493188 0.160881 0.095953
0.613880 0.149335 0.084426
0.725999 0.162665 0.098583
0.086712 0.249206 0.196300
0.146946 0.278741 0.222935
0.232807 0.310899 0.250236
0.319293 0.297818 0.195848
0.428299 0.268465 0.147823
0.508974 0.233545 0.123522
0.612931 0.215669 0.098822
0.716028 0.229164 0.110644
0.112384 0.342740 0.258936
0.140383 0.363773 0.274485
0.220798 0.401038 0.305060
0.331277 0.422638 0.313782
0.423835 0.390474 0.218669
0.547001 0.344572 0.141127
0.627648 0.310285 0.123146
0.705283 0.307477 0.122108
0.119657 0.448141 0.336500
0.148283 0.478590 0.360593
0.191774 0.499057 0.370948
0.351824 0.560446 0.437014
0.445930 0.547228 0.395497
0.545329 0.504837 0.261758
0.643567 0.445241 0.144073
0.705152 0.418009 0.132800
0.234016 0.607555 0.489914
0.280567 0.633623 0.512249
0.302684 0.642197 0.511025
0.399079 0.676991 0.543834
0.507293 0.700865 0.570144
0.585565 0.670969 0.492565
0.666966 0.623752 0.351693
0.727710 0.565682 0.204570
0.421008 0.739418 0.631626
0.457061 0.757340 0.648894
0.472068 0.763098 0.648294
0.510357 0.776146 0.656500
0.587990 0.800953 0.683076
0.661762 0.791560 0.663956
0.716039 0.762779 0.585999
0.761904 0.722263 0.473520
0.055086 0.078507 0.179083
0.118685 0.095778 0.174951
0.156196 0.101057 0.153185
0.250401 0.095689 0.141199
0.331598 0.058016 0.096540
0.432932 0.047515 0.069607
0.565857 0.054141 0.074387
0.689044 0.071858 0.092611
0.032837 0.102287 0.179661
0.144949 0.148854 0.216477
0.200402 0.163087 0.193206
0.291199 0.154316 0.173525
0.377014 0.135179 0.142014
0.489621 0.124703 0.114055
0.623713 0.120443 0.096140
0.736119 0.125937 0.103226
0.054989 0.157353 0.182540
0.143648 0.195595 0.215524
0.254795 0.241559 0.248983
0.339145 0.232499 0.220394
0.430320 0.218322 0.190692
0.535826 0.196859 0.153123
0.645270 0.182561 0.124847
0.737159 0.182248 0.112651
0.088042 0.245941 0.222621
0.146597 0.277528 0.250434
0.276662 0.335488 0.304027
0.360564 0.334695 0.275915
0.458727 0.303329 0.229184
0.544764 0.273175 0.192030
0.648912 0.257980 0.155643
0.734065 0.252708 0.134461
0.106555 0.339944 0.283248
0.159055 0.373922 0.313999
0.289012 0.436698 0.372709
0.375814 0.457394 0.388587
0.465517 0.432265 0.305383
0.586000 0.391616 0.234685
0.662454 0.357400 0.199028
0.733181 0.346728 0.174207
0.120132 0.446124 0.357727
0.203586 0.504493 0.416671
0.311234 0.554692 0.463827
0.387403 0.582390 0.485054
0.485162 0.580945 0.471477
0.584557 0.550382 0.355656
0.693150 0.514473 0.258243
0.747949 0.484510 0.223348
0.234068 0.605370 0.506438
0.325698 0.649785 0.553043
0.396898 0.678176 0.579350
0.433921 0.692169 0.583430
0.536593 0.722250 0.615762
0.616683 0.696424 0.555614
0.696634 0.660755 0.439340
0.768532 0.623802 0.321790
0.421269 0.738787 0.646574
0.483977 0.764822 0.676793
0.520856 0.778450 0.688965
0.538253 0.786277 0.687571
0.608554 0.808689 0.708780
0.682826 0.807381 0.701422
0.735348 0.784155 0.637419
0.780898 0.747930 0.539242
0.080926 0.104471 0.278819
0.145904 0.117270 0.263717
0.211769 0.139725 0.234552
0.258021 0.136553 0.209106
0.372322 0.131496 0.199251
0.454653 0.063439 0.125598
0.556995 0.054322 0.094839
0.680652 0.075249 0.100842
0.066046 0.133000 0.285816
0.171229 0.177811 0.318158
0.252465 0.199631 0.278575
0.302445 0.200729 0.249810
0.414223 0.196131 0.235927
0.502486 0.135988 0.165927
0.616879 0.132200 0.144345
0.735199 0.143479 0.134889
0.051571 0.167712 0.267984
0.131420 0.206373 0.304711
0.273842 0.263657 0.342443
0.354417 0.280756 0.307745
0.454337 0.266099 0.279816
0.549594 0.227736 0.222303
0.669696 0.223935 0.195296
0.770076 0.219937 0.172305
0.084811 0.237644 0.266145
0.138222 0.266612 0.289328
0.274008 0.328345 0.345065
0.406753 0.379180 0.380265
0.497435 0.357578 0.336846
0.595292 0.331550 0.287166
0.692625 0.312435 0.243406
0.772599 0.305551 0.209543
0.103136 0.334699 0.310938
0.139797 0.354323 0.329829
0.287937 0.432960 0.406044
0.426882 0.493291 0.464018
0.513542 0.480493 0.416718
0.618517 0.440707 0.349043
0.698122 0.414257 0.301882
0.770364 0.406030 0.265905
0.103820 0.439169 0.381966
0.193946 0.495503 0.437966
0.331904 0.557794 0.500205
0.447273 0.608540 0.549854
0.528443 0.621806 0.554458
0.627530 0.598645 0.468851
0.730873 0.571131 0.390615
0.785250 0.542690 0.346982
0.213073 0.592904 0.517643
0.307442 0.638351 0.563586
0.411240 0.679563 0.607879
0.500586 0.716400 0.644121
0.567111 0.738059 0.659495
0.652551 0.728233 0.630520
0.728657 0.702759 0.540829
0.803921 0.677124 0.456138
0.399467 0.727820 0.652941
0.463497 0.756081 0.681662
0.530430 0.778892 0.708190
0.589829 0.801641 0.729044
0.632352 0.815638 0.736797
0.708494 0.828796 0.747145
0.759143 0.809023 0.698254
0.803389 0.779796 0.619613
0.105714 0.140270 0.408953
0.175088 0.146277 0.377816
0.253979 0.164341 0.342052
0.330353 0.202089 0.315376
0.374948 0.186083 0.284294
0.529296 0.194196 0.285327
0.617972 0.131803 0.215457
0.678797 0.081278 0.152631
0.104741 0.180183 0.420966
0.192910 0.206018 0.430242
0.280814 0.222306 0.389794
0.366409 0.262039 0.358693
0.418880 0.249682 0.327947
0.569930 0.264218 0.329389
0.654773 0.199531 0.251684
0.726768 0.155713 0.196798
0.044721 0.181253 0.370211
0.162569 0.242034 0.436481
0.298323 0.290793 0.455137
0.406396 0.330539 0.415427
0.469812 0.335907 0.389263
0.606004 0.340806 0.379068
0.689445 0.276246 0.296021
0.766688 0.253960 0.256008
0.073568 0.243006 0.355350
0.114762 0.271321 0.384393
0.251646 0.333449 0.452161
0.422021 0.403476 0.490022
0.521337 0.432644 0.465016
0.635654 0.414899 0.426715
0.721439 0.372929 0.356778
0.807947 0.364371 0.322603
0.102691 0.319796 0.351353
0.144587 0.345715 0.376194
0.284239 0.416857 0.444893
0.418622 0.479735 0.503284
0.559876 0.531947 0.540428
0.656549 0.506252 0.487562
0.741460 0.486625 0.435325
0.813297 0.470177 0.391142
0.110571 0.430381 0.410813
0.143191 0.458572 0.440158
0.297737 0.536916 0.518357
0.437425 0.598955 0.578686
0.576912 0.657104 0.637079
0.670435 0.651243 0.594448
0.758893 0.622381 0.534059
0.811710 0.594967 0.485307
0.127749 0.549884 0.504434
0.245650 0.610338 0.564348
0.361560 0.655471 0.612843
0.485245 0.703267 0.662659
0.608835 0.751695 0.710802
0.691475 0.766096 0.714415
0.762170 0.747467 0.654283
0.832452 0.728596 0.598318
0.327234 0.699555 0.642458
0.398866 0.729951 0.674346
0.476204 0.757701 0.703568
0.571764 0.791746 0.740308
0.671028 0.825927 0.776860
0.736433 0.847276 0.794705
0.786971 0.836877 0.769890
0.830292 0.816792 0.713667
0.136181 0.182047 0.542926
0.206458 0.185629 0.517327
0.290050 0.201422 0.484950
0.377513 0.237537 0.454547
0.476054 0.297051 0.447586
0.531080 0.274076 0.405679
0.685770 0.326081 0.440158
0.772891 0.328696 0.422331
0.147480 0.234012 0.578135
0.228846 0.244233 0.566562
0.314004 0.258962 0.534283
0.407155 0.294869 0.502561
0.511100 0.358195 0.493884
0.572277 0.344397 0.458367
0.717109 0.394043 0.490325
0.795550 0.386009 0.462758
0.112063 0.260826 0.557613
0.225177 0.304003 0.604863
0.329484 0.328724 0.593552
0.435651 0.361081 0.559308
0.544469 0.423798 0.544085
0.612382 0.423037 0.517395
0.742257 0.470875 0.548097
0.814947 0.451460 0.511153
0.027875 0.253558 0.471506
0.123172 0.305285 0.538302
0.291646 0.378191 0.614857
0.443509 0.435448 0.627861
0.571937 0.494198 0.601597
0.653526 0.514421 0.585182
0.768069 0.553977 0.611178
0.829597 0.514616 0.556228
0.065004 0.322882 0.456814
0.103696 0.348919 0.488030
0.240306 0.415008 0.560101
0.380382 0.474861 0.622242
0.573007 0.560445 0.670327
0.690329 0.610457 0.658800
0.781923 0.617706 0.651080
0.842442 0.565953 0.577886
0.102510 0.408887 0.453159
0.165753 0.453855 0.498177
0.295390 0.516678 0.559748
0.421844 0.573037 0.614265
0.559325 0.635853 0.671048
0.713734 0.702584 0.725070
0.784915 0.682660 0.682675
0.844071 0.661901 0.640657
0.109327 0.524046 0.520289
0.142274 0.554008 0.552176
0.304311 0.620994 0.619120
0.438900 0.676332 0.674178
0.582189 0.734088 0.730773
0.730033 0.792007 0.785922
0.798071 0.793414 0.768150
0.854312 0.773313 0.729192
0.236594 0.657347 0.633965
0.322676 0.692282 0.670146
0.410275 0.726428 0.704711
0.512928 0.765121 0.742872
0.637310 0.810643 0.786971
0.762829 0.854345 0.831648
0.813172 0.865578 0.835268
0.856375 0.855359 0.806779
0.226395 0.243900 0.681802
0.281053 0.250458 0.665775
0.350617 0.268054 0.645948
0.438496 0.305451 0.626746
0.538897 0.369337 0.615553
0.644718 0.448352 0.625992
0.687828 0.415677 0.582146
0.783472 0.466910 0.609207
0.238565 0.293483 0.705853
0.307282 0.310328 0.705782
0.376254 0.326822 0.687668
0.465040 0.360906 0.668201
0.566791 0.424831 0.654298
0.673395 0.507536 0.666301
0.715972 0.475856 0.625946
0.802953 0.523068 0.647512
0.242791 0.349623 0.737031
0.312276 0.366369 0.739015
0.393677 0.389309 0.728523
0.484885 0.421271 0.708170
0.592326 0.480271 0.693033
0.697686 0.564892 0.703591
0.740776 0.541681 0.669465
0.819207 0.582577 0.689458
0.126400 0.347507 0.683498
0.260710 0.399024 0.734358
0.382315 0.451317 0.768991
0.491686 0.488843 0.756041
0.613129 0.542801 0.735650
0.719462 0.626553 0.740917
0.764112 0.611578 0.716336
0.838364 0.651617 0.736133
0.021077 0.331343 0.584127
0.045976 0.364247 0.620446
0.238567 0.439229 0.695996
0.419440 0.518089 0.762277
0.607174 0.603384 0.784590
0.735835 0.682966 0.777499
0.788629 0.690910 0.765807
0.857193 0.723421 0.784540
0.040419 0.417613 0.566068
0.079402 0.443268 0.589563
0.236245 0.511111 0.655147
0.369162 0.566777 0.706447
0.516339 0.626086 0.759100
0.725861 0.726558 0.816747
0.810386 0.767783 0.814288
0.869885 0.777407 0.813709
0.102504 0.507259 0.560750
0.198532 0.558073 0.611595
0.315318 0.610067 0.661618
0.437671 0.660690 0.708481
0.569033 0.713181 0.756651
0.710170 0.772898 0.806044
0.824040 0.823698 0.846453
0.868236 0.808479 0.818701
0.191308 0.626008 0.639533
0.298540 0.673407 0.688560
0.392828 0.711164 0.725068
0.495686 0.749656 0.761533
0.612577 0.793920 0.802410
0.739064 0.841470 0.842535
0.835219 0.877708 0.874549
0.881480 0.882568 0.870586
0.358584 0.343946 0.789284
0.398424 0.354407 0.781148
0.454011 0.372685 0.770193
0.524988 0.406660 0.756645
0.608081 0.461372 0.748440
0.700274 0.544817 0.753094
0.764447 0.579303 0.753177
0.794985 0.549826 0.722088
0.368914 0.384683 0.806411
0.424944 0.411400 0.811632
0.477176 0.429036 0.800360
0.550348 0.459132 0.787013
0.632779 0.513225 0.778425
0.722802 0.591783 0.779886
0.785681 0.629033 0.782882
0.815739 0.601339 0.753195
0.370837 0.430843 0.828564
0.430433 0.455284 0.832253
0.492310 0.477972 0.828121
0.565722 0.508238 0.812919
0.651513 0.560098 0.802779
0.743187 0.636004 0.802854
0.802411 0.673323 0.806176
0.829978 0.651178 0.781585
0.339385 0.466666 0.833080
0.416907 0.504232 0.857916
0.487617 0.528231 0.857901
0.570977 0.560972 0.845519
0.665594 0.609056 0.829664
0.758405 0.679317 0.828105
0.818392 0.719833 0.830380
0.844538 0.701929 0.811487
0.141490 0.430978 0.753184
0.260639 0.475621 0.795270
0.372172 0.522496 0.829305
0.522264 0.595964 0.864868
0.659021 0.658500 0.864188
0.765216 0.719410 0.852725
0.830531 0.771460 0.856963
0.859214 0.757290 0.841633
0.022415 0.434438 0.657430
0.061176 0.470204 0.689348
0.226283 0.528831 0.742383
0.360804 0.578290 0.787916
0.541186 0.649068 0.843521
0.751635 0.757734 0.882205
0.840858 0.812607 0.880767
0.873844 0.816576 0.874053
0.090821 0.529691 0.652298
0.211064 0.581969 0.701069
0.322517 0.623856 0.740459
0.428371 0.667662 0.778726
0.549505 0.712295 0.816853
0.683119 0.762132 0.858314
0.832589 0.837121 0.898387
0.889328 0.864393 0.898123
0.284023 0.652913 0.707296
0.368694 0.686645 0.740260
0.435003 0.714176 0.764937
0.517467 0.744899 0.793007
0.613808 0.781135 0.824581
0.727521 0.824828 0.859782
0.820551 0.864738 0.887550
0.898351 0.900265 0.914645
