lut-uploads/X-9580-STD.cube
# Copyright: (C) Copyright 2016 by IWLTBAP
# Cannot be resold, shared or otherwise redistributed
# Website: http://luts.iwltbap.com
TITLE "IWLTBAP 9580 (Rec.709)"
LUT_3D_SIZE 5
DOMAIN_MIN 0.000000 0.000000 0.000000
DOMAIN_MAX 0.903226 0.903226 0.903226
0.036133 0.052063 0.060791
0.129223 0.069597 0.066404
0.267222 0.060613 0.044367
0.451015 0.047392 0.042770
0.664150 0.063233 0.075226
0.041142 0.135247 0.103966
0.165536 0.164711 0.111816
0.309228 0.140576 0.072574
0.500612 0.124714 0.058158
0.720381 0.132647 0.084690
0.100091 0.298686 0.206140
0.164183 0.321035 0.220611
0.336914 0.308556 0.138291
0.516867 0.236430 0.075338
0.699934 0.255133 0.100885
0.115052 0.477691 0.335031
0.135013 0.484193 0.326953
0.384208 0.573666 0.421285
0.539366 0.494015 0.201562
0.692588 0.435645 0.123777
0.387633 0.729247 0.602415
0.412673 0.735246 0.599236
0.520919 0.772650 0.635599
0.648686 0.762543 0.601525
0.740820 0.696108 0.410980
0.051663 0.072784 0.159073
0.137194 0.093560 0.143159
0.285433 0.068436 0.101557
0.463588 0.051025 0.063953
0.681507 0.068040 0.090708
0.048361 0.138534 0.163145
0.220967 0.211461 0.222015
0.366885 0.196291 0.178752
0.552778 0.166639 0.121540
0.734419 0.161327 0.106931
0.102639 0.293575 0.246394
0.250118 0.369853 0.314822
0.401844 0.370593 0.266715
0.574774 0.303355 0.183049
0.722866 0.285111 0.136031
0.123706 0.477553 0.378086
0.288719 0.573836 0.472410
0.441600 0.624853 0.518666
0.607303 0.569539 0.349537
0.744893 0.510746 0.216329
0.423942 0.739838 0.643939
0.504960 0.773649 0.679390
0.561530 0.794650 0.689806
0.693540 0.796254 0.676972
0.775567 0.741116 0.521896
0.092745 0.121894 0.344071
0.215868 0.143831 0.292642
0.313582 0.157893 0.244459
0.515051 0.105150 0.181061
0.670347 0.071989 0.118391
0.045878 0.160457 0.317972
0.257135 0.253146 0.389658
0.396219 0.283075 0.328011
0.586336 0.225326 0.247539
0.760565 0.218971 0.198406
0.096472 0.277579 0.306658
0.245774 0.357013 0.379760
0.482744 0.451503 0.455392
0.650247 0.406764 0.362378
0.793186 0.383819 0.289236
0.102975 0.461924 0.417233
0.301023 0.569149 0.522367
0.519505 0.661337 0.615627
0.677380 0.654413 0.546691
0.806270 0.608562 0.443901
0.371319 0.717965 0.652030
0.491286 0.764591 0.699765
0.626394 0.813090 0.751717
0.736914 0.835919 0.765742
0.815896 0.796520 0.664300
0.148504 0.195390 0.578984
0.279285 0.210173 0.533313
0.437977 0.278478 0.487108
0.573820 0.306816 0.448104
0.785767 0.389472 0.495710
0.155006 0.278054 0.616681
0.316664 0.319710 0.627520
0.493005 0.384456 0.577588
0.640785 0.433429 0.544279
0.819032 0.498541 0.578327
0.027547 0.286542 0.498412
0.209357 0.374681 0.603268
0.512958 0.504799 0.682700
0.702086 0.585203 0.656740
0.841001 0.597179 0.644004
0.097198 0.433377 0.480874
0.270952 0.529357 0.575655
0.486267 0.625543 0.666340
0.748679 0.741272 0.766666
0.850197 0.705783 0.696554
0.203645 0.643136 0.628373
0.372047 0.710288 0.697865
0.565122 0.781684 0.767191
0.783778 0.860597 0.843537
0.864257 0.863305 0.825927
0.358584 0.343946 0.789284
0.438256 0.366918 0.773047
0.564775 0.429710 0.752042
0.723161 0.568136 0.758072
0.794985 0.549826 0.722088
0.370340 0.417671 0.821970
0.474286 0.460032 0.823460
0.602779 0.518993 0.799767
0.759662 0.648424 0.801646
0.826597 0.639627 0.774875
0.255217 0.444951 0.802880
0.436032 0.531750 0.855178
0.613970 0.607264 0.854920
0.783644 0.716011 0.839960
0.852228 0.728270 0.826275
0.022994 0.457403 0.650537
0.216262 0.542471 0.727624
0.439305 0.627062 0.804358
0.774669 0.780704 0.886196
0.877897 0.829900 0.881193
0.284023 0.652913 0.707296
0.418342 0.707419 0.758794
0.560507 0.762488 0.808604
0.754341 0.835350 0.867893
0.898351 0.900265 0.914645
