output_luts/STD-浓厚格调.cube
TITLE "STD 浓厚格调"
# Created by Adobe Lightroom plugin Export LUT (1.34.0)
# www.johnrellis.com/lightroom/exportlut.htm
# Preset: Silver04
# Color profile: /Volumes/Media/影片/Lut/exportlut.lrplugin/color profiles/Rec709gamma2.4.icc
LUT_3D_SIZE 5
0.0224000 0.0306710 0.0450450
0.1346530 0.0698098 0.0926910
0.3432210 0.1503620 0.1486840
0.6572215 0.2530248 0.2507213
1.0000000 0.4386970 0.4021970
0.0616920 0.1558178 0.1039677
0.1592051 0.1496759 0.1103683
0.4018693 0.2390821 0.1757689
0.7236704 0.3331579 0.2751108
1.0000000 0.5086785 0.4334402
0.1617610 0.4405430 0.2365605
0.2750170 0.4434539 0.2411038
0.4730448 0.4163270 0.2579382
0.8899708 0.6050510 0.3366942
1.0000000 0.7351495 0.5899595
0.4367587 0.8596395 0.4400550
0.5071012 0.8611392 0.4445906
0.7169525 0.8564164 0.4609940
0.9212425 0.8060331 0.4874071
1.0000000 0.8803313 0.7326695
0.8696880 0.9976500 0.8534830
0.8788588 0.9976500 0.8548790
0.9140610 0.9971160 0.8593120
0.9711907 0.9925382 0.8670177
1.0000000 0.9826960 0.8945910
0.0108030 0.0813535 0.1716563
0.1497196 0.0628672 0.1938772
0.3582323 0.1440146 0.2347031
0.6377319 0.2514938 0.3112079
1.0000000 0.4387348 0.4444115
0.0341361 0.1645116 0.1950336
0.1564409 0.1812096 0.2171496
0.3656776 0.2359665 0.2649387
0.6814632 0.3244207 0.3351988
1.0000000 0.5092051 0.4762854
0.1244525 0.4441330 0.3190015
0.2486656 0.4551557 0.3224717
0.4767813 0.4371786 0.3350388
0.8869212 0.6177969 0.4229622
1.0000000 0.7449150 0.6389447
0.4506734 0.8578829 0.5185232
0.5158606 0.8600872 0.5235247
0.7143139 0.8594854 0.5377364
0.9129713 0.8153017 0.5600891
1.0000000 0.8934367 0.7740099
0.8725110 0.9970780 0.8660180
0.8813688 0.9971315 0.8674391
0.9150839 0.9968985 0.8717250
0.9703461 0.9930193 0.8789271
1.0000000 0.9839783 0.9034640
0.0000000 0.1673610 0.3852140
0.1658960 0.1736974 0.4124173
0.4336463 0.1418858 0.4787175
0.8028919 0.1296290 0.5384184
1.0000000 0.4638440 0.6100710
0.0941556 0.2292404 0.3868353
0.1828536 0.2418517 0.4099300
0.4437838 0.2481974 0.4915906
0.8077877 0.2792668 0.5462272
1.0000000 0.5295261 0.6267033
0.1424277 0.4373085 0.4642252
0.2432019 0.4485943 0.4754101
0.4868580 0.5074311 0.5377013
0.7803806 0.5721657 0.5847678
1.0000000 0.7276418 0.7155413
0.5093155 0.8476880 0.6934083
0.5623872 0.8508841 0.7040732
0.7159780 0.8634910 0.7329631
0.8872368 0.8459525 0.7452172
1.0000000 0.9253260 0.8676245
0.8776225 0.9956360 0.9027845
0.8861451 0.9959224 0.9046085
0.9176777 0.9966813 0.9102310
0.9674525 0.9953766 0.9159073
1.0000000 0.9884335 0.9313955
0.0963305 0.2847332 0.6820098
0.2196672 0.2910334 0.7070707
0.4879376 0.3085755 0.8052756
0.8431963 0.2882144 0.8734437
1.0000000 0.4889372 0.8630045
0.1227741 0.3296634 0.6751319
0.2287277 0.3382793 0.6993468
0.4921864 0.3739298 0.8003785
0.8450771 0.3908670 0.8750230
1.0000000 0.5691975 0.8675346
0.1580224 0.4742657 0.6892004
0.2499314 0.4804495 0.6973222
0.4910391 0.5353266 0.7640497
0.8501316 0.6567042 0.8769456
1.0000000 0.7683759 0.8875104
0.4428779 0.8179408 0.8310657
0.4989599 0.8206086 0.8336871
0.6708659 0.8328622 0.8453863
0.8643669 0.8710458 0.8812066
0.9889486 0.9095423 0.9087951
0.8778825 0.9931258 0.9424427
0.8866713 0.9934770 0.9444076
0.9187075 0.9953689 0.9523803
0.9651253 0.9987449 0.9634775
1.0000000 0.9946900 0.9691612
0.7377580 0.7571980 0.9939270
0.7526438 0.7601128 0.9948653
0.8073395 0.7695275 0.9992065
0.8966278 0.7812847 1.0000000
1.0000000 0.7838100 1.0000000
0.7516520 0.7798965 0.9926070
0.7657094 0.7826431 0.9935151
0.8172235 0.7916189 0.9976044
0.9013676 0.8038777 1.0000000
1.0000000 0.8075153 1.0000000
0.7918365 0.8464330 0.9907685
0.8020410 0.8481003 0.9913671
0.8424658 0.8537193 0.9946518
0.9145685 0.8662621 1.0000000
1.0000000 0.8740060 1.0000000
0.8237737 0.9208973 0.9943160
0.8331867 0.9220073 0.9947716
0.8699134 0.9267909 0.9967918
0.9309376 0.9366213 1.0000000
1.0000000 0.9487905 1.0000000
0.8860760 0.9995420 0.9939570
0.8917980 0.9994510 0.9940180
0.9153885 0.9990535 0.9944460
0.9628210 0.9986647 0.9962770
1.0000000 1.0000000 1.0000000
