output_luts/STD-浓厚格调.cube
TITLE "STD 浓厚格调"
# Created by Adobe Lightroom plugin Export LUT (1.34.0)
# www.johnrellis.com/lightroom/exportlut.htm
# Preset: Silver04
# Color profile: /Volumes/Media/影片/Lut/exportlut.lrplugin/color profiles/Rec709gamma2.4.icc
LUT_3D_SIZE 33
0.0224000 0.0306710 0.0450450
0.0224000 0.0306710 0.0450450
0.0224000 0.0306710 0.0450450
0.0224000 0.0306710 0.0450450
0.0316662 0.0324595 0.0485695
0.0708423 0.0412386 0.0624110
0.0957051 0.0514457 0.0779980
0.1148211 0.0620440 0.0872961
0.1346530 0.0698098 0.0926910
0.1554817 0.0787243 0.0971068
0.1773917 0.0890882 0.1015280
0.2011558 0.0988592 0.1054716
0.2268370 0.1086978 0.1102924
0.2537588 0.1187181 0.1178160
0.2820596 0.1287843 0.1271536
0.3118050 0.1392651 0.1374830
0.3432210 0.1503620 0.1486840
0.3764112 0.1620031 0.1605858
0.4112383 0.1739547 0.1730315
0.4476903 0.1861857 0.1857676
0.4857042 0.1988404 0.1986345
0.5254147 0.2117825 0.2115279
0.5667374 0.2249447 0.2245078
0.6102340 0.2385985 0.2375051
0.6572215 0.2530248 0.2507213
0.7078736 0.2682703 0.2641787
0.7613014 0.2846378 0.2783399
0.8156537 0.3027694 0.2934597
0.8701155 0.3229799 0.3099451
0.9234261 0.3458572 0.3281954
0.9718759 0.3722839 0.3489754
1.0000000 0.4031012 0.3732837
1.0000000 0.4386970 0.4021970
0.0224000 0.0306710 0.0450450
0.0224000 0.0306710 0.0450450
0.0224000 0.0306710 0.0450450
0.0224000 0.0306710 0.0450450
0.0333480 0.0322789 0.0485695
0.0722396 0.0410069 0.0624110
0.0957560 0.0523381 0.0779264
0.1150931 0.0621115 0.0876000
0.1350451 0.0695734 0.0927944
0.1556115 0.0796138 0.0972975
0.1774418 0.0900526 0.1015297
0.2012537 0.1000071 0.1053146
0.2271029 0.1096770 0.1103367
0.2541484 0.1193989 0.1181336
0.2824231 0.1295213 0.1275340
0.3122242 0.1399988 0.1378221
0.3436942 0.1509835 0.1489945
0.3768272 0.1626499 0.1608540
0.4116097 0.1746902 0.1733201
0.4480807 0.1869667 0.1860981
0.4861364 0.1995612 0.1989303
0.5258087 0.2124047 0.2118140
0.5671198 0.2256157 0.2247554
0.6106692 0.2392078 0.2377114
0.6576427 0.2535350 0.2509203
0.7083171 0.2688224 0.2643430
0.7617389 0.2852587 0.2784748
0.8160634 0.3033858 0.2936623
0.8704956 0.3235717 0.3101188
0.9237705 0.3464509 0.3283492
0.9720975 0.3728956 0.3491808
1.0000000 0.4035740 0.3734619
1.0000000 0.4391697 0.4024043
0.0224000 0.0306710 0.0450450
0.0224000 0.0306710 0.0450450
0.0224000 0.0306710 0.0450450
0.0224000 0.0306710 0.0450450
0.0366318 0.0336750 0.0501470
0.0747930 0.0426253 0.0642138
0.0978840 0.0529049 0.0787039
0.1164077 0.0634499 0.0876394
0.1359517 0.0749733 0.0930483
0.1567944 0.0854243 0.0973059
0.1789952 0.0944379 0.1015639
0.2029728 0.1037375 0.1051797
0.2285706 0.1132418 0.1109745
0.2555845 0.1227587 0.1192148
0.2838552 0.1326820 0.1287406
0.3136891 0.1430689 0.1390709
0.3452118 0.1540363 0.1502486
0.3783671 0.1655024 0.1621398
0.4132239 0.1773050 0.1744557
0.4497073 0.1895554 0.1871387
0.4877813 0.2021522 0.1999587
0.5274914 0.2149889 0.2128245
0.5688596 0.2281173 0.2257380
0.6123950 0.2416795 0.2386259
0.6594443 0.2559691 0.2518279
0.7101375 0.2712274 0.2652548
0.7634489 0.2876945 0.2792355
0.8176566 0.3057559 0.2943640
0.8719495 0.3259619 0.3108678
0.9250702 0.3488112 0.3290950
0.9730706 0.3752056 0.3499081
1.0000000 0.4059005 0.3742692
1.0000000 0.4413028 0.4032407
0.0224000 0.0306710 0.0450450
0.0224000 0.0306710 0.0450450
0.0224000 0.0306710 0.0450450
0.0224000 0.0306710 0.0450450
0.0451233 0.0380759 0.0530830
0.0807316 0.0494771 0.0673598
0.1008001 0.0634143 0.0810684
0.1188865 0.0770860 0.0883072
0.1387357 0.0863893 0.0929612
0.1597339 0.0939133 0.0969853
0.1823365 0.1020084 0.1006743
0.2064345 0.1109027 0.1054349
0.2318138 0.1200010 0.1127560
0.2586227 0.1291895 0.1217504
0.2868881 0.1388977 0.1312578
0.3167286 0.1491298 0.1414511
0.3483538 0.1598804 0.1525858
0.3815971 0.1711820 0.1644876
0.4164489 0.1829055 0.1768087
0.4530407 0.1949790 0.1892909
0.4912124 0.2073603 0.2019629
0.5309577 0.2200727 0.2147510
0.5723195 0.2330969 0.2275088
0.6159189 0.2466078 0.2403421
0.6630066 0.2609220 0.2534440
0.7137183 0.2761686 0.2668026
0.7668944 0.2925403 0.2807462
0.8208758 0.3106292 0.2958486
0.8748941 0.3307663 0.3123556
0.9275663 0.3536059 0.3305877
0.9749234 0.3799118 0.3514565
1.0000000 0.4104465 0.3759310
1.0000000 0.4456472 0.4050387
0.0179944 0.0602845 0.0529489
0.0196753 0.0600777 0.0529489
0.0189034 0.0610726 0.0537503
0.0281658 0.0644786 0.0549647
0.0549746 0.0623010 0.0578786
0.0846097 0.0713907 0.0665857
0.1049208 0.0838862 0.0785072
0.1241037 0.0918674 0.0865535
0.1442776 0.0983948 0.0910141
0.1655090 0.1052613 0.0950801
0.1878951 0.1129441 0.1000962
0.2116967 0.1211686 0.1071986
0.2369060 0.1299687 0.1157266
0.2636856 0.1389657 0.1249321
0.2920170 0.1483345 0.1346728
0.3219355 0.1582883 0.1449841
0.3536088 0.1688084 0.1560902
0.3869360 0.1799619 0.1678564
0.4218952 0.1915247 0.1800203
0.4585499 0.2033566 0.1924755
0.4967833 0.2156119 0.2050606
0.5366019 0.2281524 0.2177649
0.5780579 0.2409664 0.2304230
0.6217193 0.2543798 0.2430666
0.6688372 0.2685873 0.2560285
0.7195605 0.2838045 0.2692739
0.7724074 0.3001978 0.2831740
0.8259923 0.3182508 0.2981867
0.8794250 0.3383928 0.3146978
0.9315270 0.3611493 0.3329610
0.9778622 0.3873118 0.3539169
1.0000000 0.4176205 0.3785340
1.0000000 0.4525176 0.4078624
0.0158716 0.0896469 0.0668498
0.0177926 0.0895601 0.0668498
0.0260119 0.0900257 0.0667034
0.0438306 0.0912129 0.0681145
0.0719672 0.0900984 0.0700384
0.0900791 0.0896368 0.0733300
0.1064097 0.0935903 0.0791792
0.1266652 0.1032156 0.0845065
0.1488721 0.1120490 0.0883752
0.1717243 0.1193244 0.0935285
0.1947345 0.1268678 0.1011419
0.2187399 0.1347500 0.1098607
0.2442402 0.1431086 0.1190572
0.2711785 0.1519704 0.1286336
0.2996023 0.1611476 0.1386680
0.3296292 0.1707943 0.1491795
0.3614341 0.1811245 0.1603683
0.3949952 0.1920141 0.1721648
0.4300866 0.2033358 0.1843674
0.4667783 0.2150312 0.1968129
0.5051361 0.2270227 0.2092145
0.5449808 0.2393622 0.2216585
0.5864659 0.2520489 0.2341353
0.6301996 0.2652860 0.2467095
0.6774018 0.2794032 0.2594835
0.7280673 0.2945582 0.2725461
0.7804815 0.3109609 0.2864608
0.8334642 0.3290134 0.3014570
0.8862222 0.3490542 0.3179594
0.9373155 0.3716740 0.3363291
0.9820699 0.3976881 0.3574274
1.0000000 0.4277578 0.3822903
1.0000000 0.4621403 0.4119221
0.0359774 0.1105421 0.0769264
0.0378984 0.1104830 0.0769264
0.0470354 0.1110100 0.0771645
0.0657160 0.1111697 0.0783034
0.0863967 0.1107658 0.0800687
0.0998118 0.1091273 0.0822208
0.1117250 0.1078893 0.0844623
0.1286991 0.1099259 0.0872740
0.1499870 0.1202532 0.0911423
0.1743793 0.1324680 0.0966094
0.2001498 0.1424555 0.1040838
0.2263501 0.1511969 0.1129501
0.2531119 0.1596348 0.1224983
0.2808513 0.1682873 0.1324776
0.3097780 0.1773603 0.1428748
0.3401723 0.1868362 0.1537369
0.3722868 0.1969214 0.1652275
0.4060821 0.2075390 0.1772143
0.4413848 0.2185777 0.1894532
0.4782225 0.2300677 0.2018173
0.5166657 0.2418221 0.2141905
0.5565922 0.2538980 0.2265511
0.5981043 0.2664142 0.2388431
0.6419087 0.2795221 0.2512885
0.6891772 0.2935955 0.2638473
0.7395388 0.3087478 0.2768436
0.7912776 0.3250848 0.2907270
0.8433348 0.3430290 0.3058117
0.8950748 0.3630945 0.3222649
0.9447615 0.3855332 0.3407855
0.9874951 0.4112260 0.3621497
1.0000000 0.4408256 0.3873246
1.0000000 0.4747118 0.4174392
0.0481193 0.1321244 0.0901982
0.0495098 0.1322499 0.0901520
0.0604197 0.1325131 0.0904553
0.0789911 0.1326380 0.0913964
0.0945627 0.1327825 0.0924326
0.1085047 0.1317158 0.0939579
0.1211707 0.1295496 0.0953556
0.1344076 0.1274571 0.0964584
0.1524882 0.1290386 0.0985638
0.1753864 0.1395553 0.1029748
0.2019361 0.1544741 0.1091948
0.2311612 0.1676826 0.1170266
0.2612293 0.1781492 0.1261949
0.2912747 0.1875662 0.1362377
0.3217886 0.1968844 0.1470682
0.3532484 0.2063384 0.1585193
0.3860620 0.2162563 0.1704180
0.4204009 0.2267039 0.1826771
0.4561215 0.2375571 0.1951544
0.4932571 0.2487730 0.2075625
0.5318284 0.2602790 0.2198429
0.5717725 0.2721241 0.2321885
0.6133501 0.2844347 0.2443790
0.6573062 0.2974268 0.2566158
0.7044784 0.3113952 0.2691139
0.7542200 0.3264654 0.2820695
0.8050115 0.3428097 0.2960014
0.8559363 0.3607032 0.3110518
0.9062464 0.3805233 0.3276421
0.9539633 0.4027941 0.3464118
0.9941497 0.4281182 0.3681585
1.0000000 0.4569961 0.3937695
1.0000000 0.4901871 0.4245152
0.0616920 0.1558178 0.1039677
0.0648855 0.1558178 0.1039530
0.0739794 0.1562467 0.1041309
0.0882826 0.1564755 0.1049035
0.1016897 0.1567837 0.1058301
0.1164775 0.1563674 0.1071158
0.1313087 0.1547392 0.1083855
0.1448776 0.1522254 0.1094336
0.1592051 0.1496759 0.1103683
0.1784622 0.1507273 0.1124147
0.2032820 0.1613587 0.1169206
0.2325838 0.1780202 0.1236436
0.2649423 0.1944027 0.1316351
0.2989568 0.2075632 0.1409432
0.3331025 0.2185195 0.1516720
0.3671708 0.2288043 0.1633937
0.4018693 0.2390821 0.1757689
0.4374438 0.2495996 0.1884407
0.4739922 0.2603360 0.2011230
0.5117128 0.2713288 0.2136894
0.5506553 0.2826535 0.2260669
0.5908534 0.2943297 0.2383676
0.6325514 0.3064448 0.2505183
0.6766472 0.3192724 0.2626383
0.7236704 0.3331579 0.2751108
0.7723651 0.3480905 0.2881528
0.8218445 0.3642463 0.3021706
0.8712841 0.3819553 0.3173829
0.9197033 0.4015116 0.3342034
0.9645127 0.4234428 0.3533202
0.9989270 0.4482368 0.3756292
1.0000000 0.4764426 0.4019021
1.0000000 0.5086785 0.4334402
0.0771916 0.1819898 0.1177940
0.0795685 0.1820366 0.1179639
0.0866559 0.1822240 0.1181328
0.0966756 0.1826171 0.1187239
0.1095208 0.1829498 0.1193581
0.1250011 0.1829308 0.1203881
0.1413353 0.1821190 0.1219790
0.1569051 0.1801892 0.1234859
0.1711942 0.1772880 0.1246523
0.1868733 0.1744658 0.1255385
0.2076868 0.1751751 0.1276090
0.2343990 0.1852223 0.1324047
0.2661820 0.2030216 0.1390576
0.3017236 0.2222568 0.1474242
0.3397021 0.2389004 0.1574569
0.3785061 0.2524605 0.1687579
0.4171131 0.2643859 0.1812483
0.4554772 0.2757246 0.1942510
0.4940072 0.2867826 0.2071669
0.5331136 0.2978793 0.2199782
0.5729525 0.3091674 0.2325374
0.6136847 0.3207074 0.2448909
0.6557572 0.3326150 0.2570331
0.6999927 0.3453411 0.2692284
0.7464048 0.3590273 0.2818270
0.7938536 0.3737637 0.2950546
0.8417232 0.3896549 0.3092698
0.8892842 0.4070641 0.3247566
0.9352502 0.4262558 0.3420017
0.9759371 0.4476079 0.3617276
1.0000000 0.4716651 0.3847519
1.0000000 0.4989098 0.4118573
1.0000000 0.5301293 0.4445228
0.0885979 0.2107938 0.1321927
0.0904621 0.2108619 0.1322460
0.0959136 0.2109999 0.1325378
0.1051925 0.2113381 0.1330255
0.1176946 0.2118307 0.1337115
0.1337024 0.2120460 0.1346605
0.1511851 0.2117591 0.1360234
0.1689294 0.2104987 0.1378348
0.1853569 0.2081161 0.1394529
0.2007937 0.2049295 0.1405537
0.2177155 0.2017906 0.1414208
0.2399153 0.2019130 0.1438685
0.2685759 0.2110768 0.1486699
0.3028337 0.2296053 0.1558274
0.3416854 0.2516243 0.1648871
0.3837473 0.2720579 0.1754346
0.4274605 0.2890945 0.1874016
0.4710696 0.3032523 0.2002058
0.5135949 0.3158996 0.2132023
0.5555113 0.3278747 0.2261744
0.5973718 0.3395841 0.2389232
0.6394269 0.3512551 0.2514466
0.6823071 0.3631773 0.2637514
0.7267041 0.3757791 0.2761535
0.7721733 0.3891761 0.2890995
0.8182019 0.4035862 0.3027214
0.8642195 0.4191232 0.3173706
0.9094379 0.4360835 0.3333209
0.9521091 0.4546365 0.3511834
0.9880781 0.4751753 0.3717850
1.0000000 0.4982211 0.3957535
1.0000000 0.5243878 0.4240476
1.0000000 0.5544178 0.4580261
0.0978751 0.2421702 0.1474585
0.0995929 0.2422095 0.1474284
0.1043804 0.2424205 0.1477149
0.1137323 0.2427291 0.1481222
0.1266040 0.2432238 0.1487955
0.1427643 0.2435973 0.1497356
0.1609819 0.2436511 0.1509671
0.1804874 0.2430088 0.1528131
0.1994031 0.2412596 0.1547077
0.2169318 0.2383793 0.1563049
0.2333997 0.2348235 0.1574619
0.2516473 0.2312562 0.1586020
0.2752686 0.2308268 0.1612013
0.3057290 0.2392136 0.1663195
0.3426595 0.2582025 0.1739717
0.3849482 0.2827589 0.1836530
0.4311891 0.3068738 0.1947883
0.4795981 0.3277705 0.2068493
0.5281586 0.3450024 0.2194672
0.5754448 0.3595839 0.2323421
0.6212482 0.3729002 0.2451597
0.6660817 0.3854685 0.2578024
0.7105305 0.3977266 0.2703980
0.7551810 0.4102973 0.2832924
0.7998873 0.4234239 0.2967702
0.8445166 0.4374205 0.3109887
0.8884470 0.4524369 0.3263238
0.9307883 0.4687069 0.3430690
0.9690042 0.4863468 0.3619769
0.9972714 0.5058152 0.3836979
1.0000000 0.5277132 0.4089727
1.0000000 0.5526362 0.4387608
1.0000000 0.5812895 0.4742990
0.1075341 0.2760550 0.1636495
0.1089942 0.2760841 0.1637303
0.1138655 0.2763141 0.1639725
0.1229683 0.2766335 0.1642962
0.1362633 0.2771093 0.1649321
0.1527103 0.2775652 0.1658359
0.1714526 0.2778457 0.1670322
0.1921443 0.2775894 0.1685636
0.2131444 0.2765085 0.1706157
0.2331726 0.2742055 0.1726217
0.2515955 0.2708376 0.1742927
0.2691762 0.2669362 0.1754741
0.2887194 0.2630858 0.1767858
0.3138106 0.2620932 0.1796859
0.3462245 0.2697159 0.1853222
0.3859540 0.2889668 0.1935872
0.4317657 0.3156024 0.2036297
0.4819347 0.3432356 0.2147400
0.5346337 0.3682388 0.2265231
0.5880155 0.3892481 0.2387781
0.6403482 0.4066252 0.2513116
0.6901481 0.4215364 0.2639645
0.7374146 0.4349954 0.2769477
0.7831784 0.4479899 0.2905327
0.8277607 0.4611075 0.3047608
0.8712828 0.4747318 0.3198856
0.9131269 0.4890923 0.3362345
0.9519076 0.5044047 0.3542288
0.9846155 0.5209175 0.3745924
1.0000000 0.5390991 0.3978028
1.0000000 0.5597294 0.4247575
1.0000000 0.5832942 0.4563421
1.0000000 0.6104603 0.4936619
0.1184940 0.3126640 0.1810094
0.1194676 0.3126937 0.1811394
0.1247089 0.3128382 0.1812705
0.1337455 0.3132179 0.1815882
0.1471256 0.3137103 0.1822344
0.1638326 0.3142175 0.1829525
0.1831558 0.3146019 0.1841154
0.2045372 0.3146410 0.1854489
0.2270971 0.3140811 0.1873905
0.2494270 0.3124763 0.1895842
0.2703993 0.3096639 0.1917078
0.2897465 0.3058703 0.1934743
0.3084447 0.3015957 0.1946844
0.3292921 0.2973817 0.1962607
0.3559097 0.2958703 0.1996261
0.3904171 0.3027487 0.2055568
0.4328509 0.3219575 0.2139316
0.4818331 0.3502381 0.2238985
0.5355323 0.3811200 0.2346876
0.5922587 0.4103167 0.2460055
0.6501257 0.4355232 0.2577211
0.7064934 0.4560454 0.2700734
0.7590228 0.4725609 0.2834181
0.8077406 0.4871198 0.2976994
0.8534382 0.5008536 0.3129430
0.8964576 0.5143959 0.3293071
0.9361092 0.5280997 0.3470990
0.9708197 0.5423262 0.3669174
0.9961055 0.5575588 0.3891255
1.0000000 0.5744487 0.4143470
1.0000000 0.5936888 0.4433978
1.0000000 0.6158147 0.4769683
1.0000000 0.6411998 0.5156350
0.1310788 0.3522200 0.1993421
0.1322206 0.3522500 0.1993769
0.1374398 0.3523848 0.1995480
0.1464190 0.3527461 0.1998758
0.1598427 0.3532219 0.2003874
0.1765758 0.3537769 0.2010288
0.1963780 0.3542463 0.2020756
0.2182920 0.3545094 0.2033654
0.2419127 0.3543270 0.2050708
0.2660699 0.3533585 0.2072005
0.2894860 0.3512159 0.2096025
0.3113972 0.3478483 0.2118159
0.3317126 0.3435337 0.2136012
0.3514485 0.3388863 0.2150503
0.3736235 0.3343859 0.2168324
0.4018056 0.3322603 0.2202700
0.4381532 0.3382545 0.2262444
0.4829106 0.3571653 0.2344533
0.5347991 0.3867303 0.2440482
0.5918366 0.4205549 0.2543550
0.6521056 0.4537664 0.2650918
0.7129561 0.4828628 0.2766530
0.7711116 0.5062265 0.2898026
0.8251043 0.5248053 0.3046723
0.8739845 0.5404595 0.3210693
0.9175457 0.5546113 0.3391057
0.9553445 0.5679463 0.3589676
0.9856571 0.5812244 0.3810451
1.0000000 0.5953058 0.4057025
1.0000000 0.6109979 0.4334187
1.0000000 0.6288765 0.4648900
1.0000000 0.6494406 0.5005204
1.0000000 0.6727285 0.5394448
0.1455827 0.3948290 0.2180297
0.1468722 0.3948745 0.2179997
0.1517536 0.3950326 0.2182411
0.1607231 0.3953466 0.2185179
0.1741242 0.3957915 0.2188901
0.1910521 0.3963518 0.2195844
0.2110384 0.3969056 0.2204549
0.2334357 0.3973390 0.2215871
0.2578553 0.3974001 0.2230873
0.2833562 0.3968963 0.2250746
0.3088854 0.3954195 0.2275169
0.3334168 0.3926984 0.2299751
0.3562307 0.3887464 0.2323052
0.3773856 0.3839791 0.2341799
0.3981908 0.3789450 0.2356398
0.4216124 0.3740337 0.2375485
0.4512024 0.3711962 0.2410275
0.4892022 0.3762261 0.2468124
0.5360175 0.3946859 0.2547164
0.5905395 0.4252539 0.2638896
0.6505645 0.4615836 0.2736988
0.7130296 0.4979291 0.2843274
0.7745778 0.5301046 0.2967442
0.8329859 0.5562726 0.3115612
0.8860998 0.5768438 0.3288914
0.9318880 0.5929971 0.3489325
0.9691880 0.6067290 0.3714932
0.9959805 0.6196244 0.3964108
1.0000000 0.6329399 0.4240808
1.0000000 0.6476406 0.4547785
1.0000000 0.6643223 0.4889142
1.0000000 0.6831884 0.5258582
1.0000000 0.7043023 0.5644427
0.1617610 0.4405430 0.2365605
0.1630175 0.4405725 0.2365455
0.1677357 0.4407315 0.2367456
0.1765934 0.4410596 0.2369942
0.1898146 0.4414928 0.2373523
0.2069750 0.4420651 0.2379535
0.2271713 0.4426565 0.2387129
0.2499857 0.4431882 0.2397110
0.2750170 0.4434539 0.2411038
0.3014454 0.4432951 0.2428931
0.3287213 0.4423851 0.2451630
0.3555852 0.4403659 0.2476972
0.3809947 0.4370258 0.2502556
0.4045922 0.4324757 0.2525534
0.4266300 0.4272049 0.2543964
0.4484274 0.4217111 0.2559738
0.4730448 0.4163270 0.2579382
0.5039279 0.4128026 0.2613621
0.5433212 0.4168469 0.2670099
0.5919876 0.4346925 0.2746132
0.6489566 0.4658962 0.2833754
0.7110238 0.5039514 0.2931813
0.7737583 0.5423211 0.3048332
0.8341953 0.5767740 0.3190816
0.8899708 0.6050510 0.3366942
0.9379428 0.6263779 0.3582864
0.9759727 0.6424000 0.3837351
1.0000000 0.6559214 0.4122544
1.0000000 0.6690795 0.4435014
1.0000000 0.6831990 0.4776719
1.0000000 0.6988267 0.5141981
1.0000000 0.7160656 0.5517031
1.0000000 0.7351495 0.5899595
0.1795414 0.4893254 0.2546765
0.1808898 0.4893395 0.2547042
0.1853952 0.4895257 0.2548235
0.1941505 0.4898438 0.2550674
0.2072307 0.4902880 0.2554388
0.2242913 0.4908756 0.2559263
0.2447280 0.4915045 0.2565705
0.2679135 0.4920897 0.2575015
0.2933555 0.4925475 0.2587737
0.3205165 0.4926413 0.2603230
0.3490542 0.4921731 0.2622903
0.3778286 0.4908062 0.2647630
0.4056533 0.4881540 0.2673979
0.4318678 0.4841413 0.2699864
0.4562653 0.4789963 0.2722947
0.4790983 0.4732288 0.2742033
0.5018539 0.4672659 0.2758432
0.5276047 0.4614164 0.2778345
0.5596883 0.4572285 0.2812542
0.6005743 0.4603273 0.2867612
0.6513613 0.4775949 0.2941211
0.7100846 0.5089089 0.3030756
0.7719805 0.5474430 0.3140409
0.8329553 0.5865897 0.3276926
0.8895181 0.6219389 0.3451442
0.9381187 0.6504141 0.3674971
0.9767151 0.6717044 0.3950620
1.0000000 0.6881455 0.4270531
1.0000000 0.7022486 0.4625419
1.0000000 0.7163533 0.5004794
1.0000000 0.7312211 0.5389154
1.0000000 0.7471635 0.5770677
1.0000000 0.7645084 0.6151763
0.1991057 0.5413270 0.2722263
0.2003419 0.5413566 0.2722468
0.2046282 0.5415332 0.2723047
0.2133605 0.5418336 0.2725424
0.2263649 0.5422904 0.2728783
0.2432080 0.5428661 0.2733268
0.2636421 0.5435428 0.2738945
0.2870627 0.5442089 0.2747192
0.3128447 0.5447671 0.2757965
0.3406433 0.5450558 0.2771501
0.3699825 0.5449345 0.2788832
0.4001897 0.5441435 0.2811624
0.4301953 0.5422133 0.2837672
0.4589529 0.5389345 0.2865087
0.4859504 0.5343129 0.2891764
0.5110838 0.5286263 0.2915335
0.5347819 0.5223716 0.2934488
0.5586619 0.5160011 0.2951023
0.5857593 0.5098478 0.2971888
0.6194888 0.5052833 0.3006888
0.6622688 0.5076360 0.3062746
0.7141407 0.5237166 0.3140920
0.7720572 0.5536708 0.3242614
0.8316570 0.5913815 0.3373581
0.8880514 0.6298663 0.3545310
0.9364609 0.6638623 0.3771923
0.9750630 0.6914403 0.4059165
1.0000000 0.7131085 0.4403318
1.0000000 0.7304514 0.4795568
1.0000000 0.7457490 0.5209179
1.0000000 0.7604663 0.5614954
1.0000000 0.7756398 0.6008646
1.0000000 0.7916322 0.6391932
0.2208458 0.5970180 0.2893537
0.2219868 0.5970471 0.2893124
0.2262747 0.5971796 0.2893682
0.2347032 0.5975043 0.2896323
0.2475505 0.5979423 0.2899048
0.2642094 0.5985046 0.2903002
0.2845769 0.5991834 0.2908372
0.3080117 0.5999002 0.2915701
0.3340418 0.6005163 0.2925274
0.3622588 0.6009664 0.2937306
0.3921501 0.6011057 0.2952901
0.4233573 0.6007205 0.2972967
0.4551093 0.5994715 0.2997535
0.4861898 0.5970120 0.3025317
0.5157956 0.5931648 0.3054055
0.5436249 0.5879927 0.3081130
0.5697053 0.5818363 0.3104588
0.5945400 0.5752359 0.3124132
0.6197755 0.5686192 0.3142411
0.6484244 0.5622101 0.3165757
0.6835228 0.5570755 0.3204364
0.7266871 0.5579012 0.3267425
0.7774178 0.5716062 0.3358492
0.8326448 0.5992288 0.3482630
0.8871760 0.6347587 0.3649690
0.9348332 0.6704478 0.3876026
0.9731655 0.7021770 0.4170226
0.9991945 0.7289446 0.4529618
1.0000000 0.7511723 0.4943830
1.0000000 0.7695649 0.5378732
1.0000000 0.7855664 0.5806315
1.0000000 0.8007260 0.6218400
1.0000000 0.8159260 0.6610878
0.2470091 0.6553752 0.3073052
0.2479999 0.6554043 0.3072792
0.2521798 0.6555091 0.3073356
0.2601833 0.6558377 0.3075641
0.2725418 0.6562348 0.3078415
0.2888350 0.6567568 0.3082380
0.3088602 0.6574048 0.3087012
0.3319561 0.6581125 0.3093888
0.3578810 0.6587547 0.3102854
0.3861592 0.6592824 0.3113898
0.4162301 0.6596044 0.3127784
0.4479365 0.6594679 0.3146008
0.4806892 0.6587293 0.3168763
0.5135281 0.6570156 0.3195673
0.5454389 0.6540268 0.3225190
0.5758559 0.6496687 0.3254529
0.6045317 0.6440451 0.3281814
0.6315036 0.6374864 0.3305686
0.6573143 0.6305162 0.3326882
0.6835684 0.6235049 0.3347804
0.7130102 0.6164999 0.3375367
0.7482703 0.6103517 0.3422554
0.7905652 0.6092704 0.3498495
0.8386719 0.6200869 0.3611301
0.8885922 0.6442303 0.3770764
0.9341046 0.6757397 0.3992931
0.9714899 0.7079631 0.4288284
0.9973606 0.7376971 0.4655831
1.0000000 0.7638590 0.5081132
1.0000000 0.7861872 0.5524166
1.0000000 0.8051051 0.5964252
1.0000000 0.8215778 0.6392134
1.0000000 0.8368888 0.6798236
0.2802530 0.7136457 0.3283591
0.2810625 0.7136748 0.3283885
0.2848773 0.7137716 0.3284563
0.2923787 0.7140533 0.3286280
0.3037365 0.7144201 0.3289379
0.3191778 0.7148884 0.3293667
0.3381513 0.7154859 0.3298689
0.3603618 0.7161379 0.3305399
0.3854757 0.7167596 0.3314105
0.4131028 0.7173044 0.3324810
0.4427339 0.7177013 0.3338076
0.4741790 0.7177603 0.3354889
0.5070355 0.7173408 0.3375866
0.5406951 0.7161972 0.3401441
0.5740807 0.7139840 0.3430187
0.6063779 0.7104870 0.3460281
0.6371622 0.7056655 0.3489667
0.6662228 0.6996604 0.3516545
0.6936847 0.6927989 0.3541226
0.7200351 0.6855467 0.3564252
0.7467576 0.6781685 0.3588571
0.7763641 0.6705384 0.3623686
0.8109552 0.6633300 0.3682176
0.8509835 0.6601925 0.3778000
0.8939580 0.6672874 0.3923945
0.9352014 0.6867502 0.4135018
0.9706225 0.7139134 0.4423355
0.9958592 0.7431798 0.4789731
1.0000000 0.7712128 0.5215617
1.0000000 0.7963763 0.5660212
1.0000000 0.8182709 0.6104941
1.0000000 0.8372354 0.6538485
1.0000000 0.8537832 0.6951589
0.3220324 0.7694078 0.3552488
0.3228450 0.7694371 0.3552604
0.3261578 0.7695524 0.3553373
0.3328539 0.7697551 0.3555899
0.3430719 0.7700798 0.3558889
0.3569619 0.7704848 0.3563901
0.3743925 0.7709921 0.3569713
0.3950526 0.7715571 0.3576627
0.4185137 0.7721301 0.3586011
0.4446464 0.7726234 0.3597142
0.4730355 0.7730119 0.3610762
0.5033070 0.7731394 0.3626838
0.5351635 0.7729030 0.3646379
0.5683159 0.7721376 0.3670611
0.6019251 0.7705443 0.3698722
0.6349701 0.7678522 0.3728673
0.6668888 0.7639143 0.3758363
0.6973412 0.7587640 0.3786900
0.7261740 0.7525250 0.3813675
0.7535182 0.7454555 0.3838657
0.7797549 0.7379953 0.3863486
0.8061877 0.7302354 0.3893048
0.8348930 0.7218549 0.3938405
0.8671982 0.7134080 0.4013985
0.9027309 0.7079163 0.4138209
0.9384234 0.7110281 0.4326969
0.9707555 0.7262768 0.4594696
0.9948484 0.7500422 0.4946115
1.0000000 0.7767311 0.5358593
1.0000000 0.8027896 0.5795481
1.0000000 0.8266223 0.6238833
1.0000000 0.8476849 0.6673082
1.0000000 0.8660238 0.7083582
0.3743257 0.8190697 0.3915864
0.3749343 0.8190913 0.3915737
0.3778749 0.8191985 0.3916626
0.3834795 0.8193357 0.3919648
0.3923022 0.8195866 0.3923652
0.4042795 0.8199078 0.3929478
0.4195377 0.8203050 0.3935975
0.4378337 0.8207322 0.3944564
0.4588648 0.8212093 0.3955047
0.4824886 0.8216026 0.3967222
0.5084234 0.8219049 0.3981222
0.5363808 0.8220293 0.3997627
0.5660389 0.8218621 0.4016648
0.5971537 0.8212789 0.4039243
0.6292849 0.8201140 0.4066362
0.6615325 0.8181002 0.4095946
0.6931748 0.8150089 0.4125264
0.7236996 0.8107970 0.4153564
0.7528488 0.8054670 0.4180200
0.7806006 0.7991001 0.4205140
0.8068848 0.7919522 0.4229885
0.8320074 0.7842902 0.4257252
0.8570191 0.7761435 0.4294230
0.8835477 0.7671771 0.4352249
0.9123410 0.7578274 0.4448692
0.9426463 0.7507690 0.4604055
0.9715316 0.7512292 0.4833414
0.9941177 0.7636319 0.5146745
1.0000000 0.7844401 0.5526015
1.0000000 0.8084887 0.5942703
1.0000000 0.8325248 0.6375162
1.0000000 0.8547671 0.6804409
