output_luts/STD-浓厚格调.cube
TITLE "STD 浓厚格调"
# Created by Adobe Lightroom plugin Export LUT (1.34.0)
# www.johnrellis.com/lightroom/exportlut.htm
# Preset: Silver04
# Color profile: /Volumes/Media/影片/Lut/exportlut.lrplugin/color profiles/Rec709gamma2.4.icc
LUT_3D_SIZE 9
0.0224000 0.0306710 0.0450450
0.0316662 0.0324595 0.0485695
0.1346530 0.0698098 0.0926910
0.2268370 0.1086978 0.1102924
0.3432210 0.1503620 0.1486840
0.4857042 0.1988404 0.1986345
0.6572215 0.2530248 0.2507213
0.8701155 0.3229799 0.3099451
1.0000000 0.4386970 0.4021970
0.0179944 0.0602845 0.0529489
0.0549746 0.0623010 0.0578786
0.1442776 0.0983948 0.0910141
0.2369060 0.1299687 0.1157266
0.3536088 0.1688084 0.1560902
0.4967833 0.2156119 0.2050606
0.6688372 0.2685873 0.2560285
0.8794250 0.3383928 0.3146978
1.0000000 0.4525176 0.4078624
0.0616920 0.1558178 0.1039677
0.1016897 0.1567837 0.1058301
0.1592051 0.1496759 0.1103683
0.2649423 0.1944027 0.1316351
0.4018693 0.2390821 0.1757689
0.5506553 0.2826535 0.2260669
0.7236704 0.3331579 0.2751108
0.9197033 0.4015116 0.3342034
1.0000000 0.5086785 0.4334402
0.1075341 0.2760550 0.1636495
0.1362633 0.2771093 0.1649321
0.2131444 0.2765085 0.1706157
0.2887194 0.2630858 0.1767858
0.4317657 0.3156024 0.2036297
0.6403482 0.4066252 0.2513116
0.8277607 0.4611075 0.3047608
0.9846155 0.5209175 0.3745924
1.0000000 0.6104603 0.4936619
0.1617610 0.4405430 0.2365605
0.1898146 0.4414928 0.2373523
0.2750170 0.4434539 0.2411038
0.3809947 0.4370258 0.2502556
0.4730448 0.4163270 0.2579382
0.6489566 0.4658962 0.2833754
0.8899708 0.6050510 0.3366942
1.0000000 0.6690795 0.4435014
1.0000000 0.7351495 0.5899595
0.2470091 0.6553752 0.3073052
0.2725418 0.6562348 0.3078415
0.3578810 0.6587547 0.3102854
0.4806892 0.6587293 0.3168763
0.6045317 0.6440451 0.3281814
0.7130102 0.6164999 0.3375367
0.8885922 0.6442303 0.3770764
1.0000000 0.7638590 0.5081132
1.0000000 0.8368888 0.6798236
0.4367587 0.8596395 0.4400550
0.4512863 0.8599775 0.4410153
0.5071012 0.8611392 0.4445906
0.6006055 0.8615960 0.4508679
0.7169525 0.8564164 0.4609940
0.8268120 0.8373811 0.4705532
0.9212425 0.8060331 0.4874071
1.0000000 0.7987126 0.5739732
1.0000000 0.8803313 0.7326695
0.7019874 0.9532580 0.6826316
0.7071450 0.9533113 0.6833311
0.7280350 0.9534454 0.6860090
0.7666561 0.9533185 0.6903420
0.8211028 0.9518044 0.6957581
0.8844189 0.9461420 0.7018985
0.9445486 0.9338831 0.7078045
0.9950997 0.9168733 0.7281785
1.0000000 0.9138783 0.7955788
0.8696880 0.9976500 0.8534830
0.8714965 0.9976500 0.8537389
0.8788588 0.9976500 0.8548790
0.8930191 0.9975509 0.8568055
0.9140610 0.9971160 0.8593120
0.9413444 0.9957235 0.8627106
0.9711907 0.9925382 0.8670177
0.9991189 0.9874684 0.8747080
1.0000000 0.9826960 0.8945910
0.0229609 0.0408446 0.0841382
0.0417304 0.0356239 0.0880671
0.1397660 0.0641896 0.1065957
0.2241729 0.1132452 0.1368510
0.3385345 0.1529107 0.1725679
0.4798426 0.2001235 0.2172952
0.6507022 0.2528485 0.2651891
0.8645655 0.3219886 0.3213392
1.0000000 0.4388685 0.4111006
0.0118363 0.0692110 0.0908166
0.0558648 0.0762366 0.0969542
0.1394518 0.1029694 0.1182742
0.2303837 0.1331094 0.1453638
0.3470126 0.1706577 0.1797885
0.4897109 0.2162193 0.2234785
0.6617078 0.2681197 0.2703403
0.8736194 0.3372768 0.3259637
1.0000000 0.4528388 0.4168006
0.0448718 0.1577755 0.1336577
0.0931061 0.1611296 0.1356695
0.1588089 0.1576128 0.1405987
0.2641579 0.1986609 0.1631804
0.3947766 0.2385769 0.2015203
0.5418058 0.2812961 0.2451289
0.7148783 0.3313402 0.2897993
0.9132232 0.4000463 0.3454693
1.0000000 0.5091171 0.4426432
0.0951137 0.2780548 0.1879408
0.1267539 0.2797217 0.1888965
0.2091259 0.2810662 0.1933824
0.2886965 0.2682204 0.2004616
0.4329051 0.3223742 0.2279894
0.6375653 0.4063758 0.2727382
0.8211646 0.4591352 0.3213424
0.9796978 0.5199995 0.3869381
1.0000000 0.6117192 0.5039431
0.1518103 0.4421514 0.2556498
0.1814167 0.4434226 0.2563568
0.2696620 0.4462725 0.2594758
0.3799232 0.4409759 0.2678186
0.4736229 0.4203478 0.2756333
0.6507623 0.4723123 0.3014004
0.8899421 0.6081478 0.3552191
1.0000000 0.6709040 0.4600994
1.0000000 0.7375201 0.6008910
0.2405557 0.6566677 0.3234819
0.2667997 0.6576136 0.3240069
0.3535212 0.6606033 0.3262206
0.4779752 0.6612953 0.3321272
0.6044891 0.6473414 0.3429587
0.7134732 0.6197884 0.3523120
0.8884537 0.6492366 0.3931344
1.0000000 0.7684397 0.5262156
1.0000000 0.8397481 0.6912526
0.4390043 0.8593596 0.4563866
0.4533093 0.8597509 0.4573454
0.5083455 0.8610161 0.4609975
0.6007314 0.8617351 0.4671419
0.7163481 0.8571146 0.4769650
0.8260358 0.8386670 0.4862454
0.9196401 0.8078450 0.5026191
1.0000000 0.8021641 0.5878087
1.0000000 0.8830960 0.7416483
0.7054303 0.9526732 0.6915593
0.7105058 0.9527274 0.6922842
0.7309400 0.9528676 0.6949383
0.7687370 0.9528387 0.6991740
0.8221013 0.9514868 0.7044594
0.8844713 0.9461240 0.7105105
0.9437050 0.9342386 0.7162494
0.9937750 0.9177301 0.7357114
1.0000000 0.9151944 0.8006345
0.8703480 0.9975319 0.8560311
0.8720951 0.9975094 0.8563171
0.8793978 0.9975356 0.8574541
0.8934408 0.9974553 0.8593536
0.9142747 0.9970743 0.8618601
0.9413637 0.9957351 0.8651918
0.9710192 0.9926098 0.8694597
0.9988449 0.9876400 0.8769631
1.0000000 0.9829558 0.8963948
0.0108030 0.0813535 0.1716563
0.0545450 0.0789359 0.1787775
0.1497196 0.0628672 0.1938772
0.2525362 0.0899969 0.2128236
0.3582323 0.1440146 0.2347031
0.4803812 0.2000103 0.2712643
0.6377319 0.2514938 0.3112079
0.8470720 0.3173574 0.3602272
1.0000000 0.4387348 0.4444115
0.0268455 0.1065417 0.1749942
0.0705461 0.1092201 0.1814136
0.1497763 0.1061632 0.1988156
0.2529450 0.1209023 0.2168302
0.3560102 0.1677810 0.2403461
0.4816914 0.2167182 0.2766228
0.6432362 0.2659554 0.3157137
0.8538548 0.3321177 0.3644976
1.0000000 0.4525902 0.4500292
0.0341361 0.1645116 0.1950336
0.0851915 0.1677806 0.1991687
0.1564409 0.1812096 0.2171496
0.2511363 0.2030246 0.2370168
0.3656776 0.2359665 0.2649387
0.5082054 0.2760760 0.2982773
0.6814632 0.3244207 0.3351988
0.8872723 0.3928699 0.3836436
1.0000000 0.5092051 0.4762854
0.0894139 0.2770850 0.2518919
0.1157275 0.2805522 0.2552160
0.1896490 0.2938562 0.2646636
0.2899790 0.2895968 0.2711036
0.4385770 0.3449675 0.3010891
0.6162831 0.4005741 0.3372266
0.7892408 0.4487448 0.3736224
0.9563188 0.5139023 0.4294093
1.0000000 0.6144578 0.5399224
0.1244525 0.4441330 0.3190015
0.1555086 0.4467463 0.3200459
0.2486656 0.4551557 0.3224717
0.3733602 0.4570520 0.3275370
0.4767813 0.4371786 0.3350388
0.6590319 0.4994286 0.3636641
0.8869212 0.6177969 0.4229622
1.0000000 0.6765178 0.5196316
1.0000000 0.7449150 0.6389447
0.2182317 0.6598944 0.3832332
0.2461885 0.6614465 0.3837088
0.3368137 0.6666595 0.3855351
0.4660462 0.6708594 0.3895636
0.6035896 0.6609931 0.3989537
0.7152367 0.6333852 0.4080011
0.8869558 0.6704928 0.4565464
1.0000000 0.7860861 0.5928213
1.0000000 0.8496215 0.7310447
0.4506734 0.8578829 0.5185232
0.4641631 0.8583726 0.5196066
0.5158606 0.8600872 0.5235247
0.6029549 0.8618949 0.5294068
0.7143139 0.8594854 0.5377364
0.8228643 0.8436871 0.5460607
0.9129713 0.8153017 0.5600891
0.9975602 0.8162320 0.6396688
1.0000000 0.8934367 0.7740099
0.7179779 0.9505425 0.7242226
0.7226834 0.9506177 0.7249478
0.7416031 0.9508872 0.7276102
0.7764878 0.9511504 0.7316767
0.8257522 0.9504508 0.7364172
0.8845954 0.9462319 0.7421588
0.9406507 0.9357525 0.7472201
0.9886869 0.9210211 0.7632973
1.0000000 0.9203698 0.8195972
0.8725110 0.9970780 0.8660180
0.8742501 0.9970977 0.8662823
0.8813688 0.9971315 0.8674391
0.8949176 0.9971492 0.8693267
0.9150839 0.9968985 0.8717250
0.9413473 0.9958198 0.8748599
0.9703461 0.9930193 0.8789271
0.9977237 0.9883535 0.8857167
1.0000000 0.9839783 0.9034640
0.0000000 0.1199399 0.2763829
0.0389492 0.1217467 0.2826525
0.1509776 0.1210584 0.3065576
0.2658776 0.1062409 0.3275369
0.4014971 0.1078868 0.3461035
0.5591709 0.1467301 0.3715156
0.6958028 0.2264267 0.3884755
0.8654818 0.3089695 0.4276961
1.0000000 0.4434269 0.5066131
0.0048132 0.1404806 0.2778391
0.0603835 0.1423922 0.2837647
0.1529362 0.1443714 0.3078308
0.2669350 0.1345784 0.3305855
0.4039993 0.1388590 0.3489384
0.5579563 0.1766558 0.3724868
0.6938171 0.2475075 0.3908616
0.8652646 0.3249412 0.4307480
1.0000000 0.4560122 0.5108942
0.0547811 0.1928703 0.2879550
0.0971931 0.1958541 0.2913635
0.1648737 0.2079239 0.3099957
0.2737242 0.2123706 0.3435493
0.4145700 0.2239088 0.3608778
0.5489010 0.2646515 0.3780314
0.6880530 0.3171887 0.4022699
0.8687112 0.3834292 0.4438243
1.0000000 0.5074246 0.5316054
0.0514187 0.2835303 0.3239627
0.1046612 0.2860079 0.3266275
0.1861384 0.2970680 0.3382460
0.2937121 0.3222785 0.3651357
0.4217199 0.3462831 0.3842357
0.5536018 0.3790128 0.4040516
0.7227614 0.4239148 0.4335757
0.9082164 0.4933627 0.4841324
1.0000000 0.6092147 0.5868891
0.1574559 0.4397724 0.3912985
0.1808147 0.4423123 0.3936006
0.2529014 0.4535715 0.4033838
0.3557823 0.4767549 0.4181634
0.4852904 0.4723769 0.4249353
0.6735867 0.5457310 0.4639831
0.8597106 0.6178750 0.5223733
0.9739914 0.6735313 0.5920454
1.0000000 0.7478599 0.6858984
0.2370557 0.6560474 0.4737640
0.2574371 0.6583633 0.4756959
0.3286224 0.6678294 0.4829232
0.4461649 0.6824708 0.4906818
0.5958668 0.6850507 0.4977132
0.7166455 0.6596392 0.5061438
0.8801399 0.7135951 0.5705867
0.9853769 0.8124510 0.6912439
1.0000000 0.8607204 0.7815662
0.4768261 0.8537098 0.6107032
0.4884835 0.8544012 0.6122806
0.5344470 0.8570492 0.6178664
0.6124499 0.8609235 0.6253578
0.7121857 0.8624196 0.6320657
0.8174966 0.8525009 0.6396246
0.9009618 0.8286454 0.6495713
0.9796550 0.8413011 0.7201915
1.0000000 0.9092683 0.8207485
0.7347693 0.9476003 0.7717293
0.7391091 0.9477303 0.7725179
0.7563696 0.9482461 0.7753952
0.7875052 0.9490553 0.7795863
0.8309112 0.9493956 0.7838543
0.8843395 0.9471540 0.7888764
0.9361728 0.9388771 0.7932484
0.9802688 0.9266375 0.8045365
1.0000000 0.9291051 0.8492076
0.8754449 0.9964366 0.8825059
0.8771421 0.9964637 0.8828388
0.8840629 0.9965706 0.8840850
0.8971157 0.9967312 0.8861444
0.9161993 0.9967614 0.8885464
0.9410374 0.9961356 0.8912990
0.9690832 0.9939242 0.8949587
0.9958742 0.9897638 0.9005425
1.0000000 0.9858055 0.9154993
0.0000000 0.1673610 0.3852140
0.0628841 0.1691612 0.3903676
0.1658960 0.1736974 0.4124173
0.2853552 0.1677368 0.4532256
0.4336463 0.1418858 0.4787175
0.5973314 0.1195242 0.4969137
0.8028919 0.1296290 0.5384184
0.9588044 0.2682975 0.5575228
1.0000000 0.4638440 0.6100710
0.0178759 0.1826654 0.3852216
0.0832090 0.1845588 0.3903048
0.1695985 0.1901346 0.4121781
0.2863381 0.1880510 0.4538678
0.4354696 0.1683453 0.4811294
0.5998498 0.1545537 0.4991771
0.8043420 0.1711110 0.5400621
0.9561196 0.2930214 0.5584764
1.0000000 0.4778191 0.6132637
0.0941556 0.2292404 0.3868353
0.1166477 0.2318392 0.3905886
0.1828536 0.2418517 0.4099300
0.2910410 0.2532292 0.4548351
0.4437838 0.2481974 0.4915906
0.6109499 0.2485069 0.5094347
0.8077877 0.2792668 0.5462272
0.9438241 0.3761022 0.5635597
1.0000000 0.5295261 0.6267033
0.1191268 0.3032369 0.4073719
0.1409110 0.3054918 0.4096114
0.2069600 0.3156340 0.4197206
0.3045542 0.3407569 0.4507984
0.4605268 0.3641975 0.5126848
0.6336184 0.3757019 0.5325675
0.7960895 0.4185306 0.5531594
0.9187017 0.4924639 0.5790986
1.0000000 0.6105115 0.6531794
0.1424277 0.4373085 0.4642252
0.1675382 0.4394082 0.4663356
0.2432019 0.4485943 0.4754101
0.3489243 0.4682898 0.4953503
0.4868580 0.5074311 0.5377013
0.6442063 0.5380742 0.5664607
0.7803806 0.5721657 0.5847678
0.9197242 0.6324739 0.6313600
1.0000000 0.7276418 0.7155413
0.2559931 0.6528649 0.5697679
0.2766676 0.6546680 0.5720036
0.3489386 0.6623322 0.5814942
0.4563963 0.6776053 0.6003747
0.5799403 0.7024204 0.6248046
0.7165682 0.6985728 0.6339908
0.8704165 0.7682677 0.7010075
0.9611545 0.8234720 0.7685346
1.0000000 0.8600252 0.8169796
0.5093155 0.8476880 0.6934083
0.5202495 0.8483124 0.6955155
0.5623872 0.8508841 0.7040732
0.6315900 0.8561807 0.7194724
0.7159780 0.8634910 0.7329631
0.8109728 0.8634164 0.7395989
0.8872368 0.8459525 0.7452172
0.9621671 0.8722139 0.8008850
1.0000000 0.9253260 0.8676245
0.7495214 0.9443259 0.8179963
0.7533636 0.9445206 0.8190226
0.7687459 0.9453224 0.8228933
0.7969795 0.9470020 0.8286809
0.8360645 0.9488498 0.8341392
0.8828923 0.9491247 0.8382118
0.9317566 0.9439156 0.8420501
0.9719212 0.9338438 0.8484557
1.0000000 0.9406059 0.8829021
0.8776225 0.9956360 0.9027845
0.8792819 0.9956951 0.9031413
0.8861451 0.9959224 0.9046085
0.8993498 0.9962826 0.9073206
0.9176777 0.9966813 0.9102310
0.9407740 0.9966833 0.9128270
0.9674525 0.9953766 0.9159073
0.9934287 0.9919644 0.9199947
1.0000000 0.9884335 0.9313955
0.0821205 0.2191499 0.5015851
0.1142839 0.2207612 0.5068221
0.1920470 0.2260204 0.5299687
0.3035786 0.2296680 0.5798394
0.4626153 0.2153047 0.6490237
0.6406380 0.1764296 0.6789085
0.8253002 0.1372235 0.6957887
1.0000000 0.2431223 0.7248324
1.0000000 0.4806059 0.7487946
0.0946526 0.2307638 0.5009044
0.1211332 0.2324345 0.5060273
0.1952909 0.2382924 0.5290297
0.3048651 0.2442352 0.5791798
0.4632919 0.2350074 0.6497773
0.6422779 0.2038675 0.6811028
0.8270684 0.1776096 0.6976675
1.0000000 0.2732134 0.7263486
1.0000000 0.4970282 0.7505282
0.1232824 0.2710528 0.4984041
0.1425236 0.2730647 0.5028973
0.2066773 0.2814340 0.5244857
0.3102780 0.2953632 0.5753135
0.4661189 0.3027410 0.6518370
0.6491937 0.2898110 0.6901874
0.8342656 0.2844161 0.7055740
1.0000000 0.3728315 0.7330410
1.0000000 0.5574171 0.7574866
0.1557010 0.3348394 0.5064015
0.1723251 0.3369540 0.5090633
0.2286083 0.3465897 0.5223472
0.3206304 0.3694140 0.5641427
0.4709483 0.4025954 0.6500020
0.6624811 0.4145785 0.7072649
0.8463822 0.4247449 0.7213351
0.9923751 0.5157874 0.7464877
1.0000000 0.6473115 0.7694090
0.1701133 0.4401766 0.5504043
0.1887572 0.4418278 0.5523373
0.2508701 0.4490005 0.5608531
0.3442462 0.4654865 0.5804007
0.4758060 0.5069332 0.6330282
0.6806046 0.5695396 0.7288748
0.8562357 0.5908095 0.7444892
0.9585839 0.6580460 0.7567448
1.0000000 0.7377412 0.7856199
0.2090077 0.6300867 0.6514178
0.2320014 0.6316879 0.6531080
0.3073626 0.6384937 0.6602462
0.4168720 0.6522882 0.6746555
0.5479462 0.6756016 0.6984101
0.7048443 0.7205669 0.7437770
0.8374640 0.7527908 0.7693299
0.9201194 0.7785898 0.7823580
0.9924025 0.8316429 0.8267536
0.5043005 0.8473575 0.7711262
0.5160827 0.8477482 0.7723989
0.5616407 0.8493407 0.7777707
0.6373851 0.8524985 0.7885227
0.7241365 0.8586658 0.8047877
0.8044557 0.8696584 0.8225202
0.8782549 0.8657279 0.8273899
0.9537640 0.9040405 0.8705957
0.9998369 0.9325743 0.9038015
0.7561724 0.9413452 0.8562476
0.7602160 0.9414888 0.8571973
0.7763344 0.9422023 0.8610429
0.8048150 0.9439443 0.8682716
0.8413142 0.9471347 0.8779862
0.8822937 0.9510692 0.8853088
0.9278806 0.9506911 0.8888658
0.9650201 0.9426149 0.8915895
1.0000000 0.9554253 0.9187365
0.8805139 0.9944308 0.9231632
0.8820987 0.9945141 0.9236109
0.8886785 0.9948160 0.9254975
0.9009300 0.9954718 0.9289709
0.9185531 0.9964580 0.9330432
0.9409282 0.9973116 0.9367837
0.9658044 0.9972057 0.9393778
0.9906609 0.9948972 0.9423804
1.0000000 0.9918214 0.9500914
0.0963305 0.2847332 0.6820098
0.1312814 0.2859503 0.6867730
0.2196672 0.2910334 0.7070707
0.3377186 0.2997586 0.7476061
0.4879376 0.3085755 0.8052756
0.6665571 0.3085838 0.8590418
0.8431963 0.2882144 0.8734437
0.9983911 0.3069611 0.8690660
1.0000000 0.4889372 0.8630045
0.1031712 0.2942081 0.6807297
0.1358641 0.2955830 0.6854600
0.2218110 0.3011076 0.7056601
0.3388360 0.3110500 0.7463294
0.4888323 0.3225232 0.8044575
0.6673867 0.3269110 0.8588756
0.8436045 0.3106335 0.8738266
0.9981166 0.3307735 0.8693644
1.0000000 0.5058685 0.8638429
0.1227741 0.3296634 0.6751319
0.1490660 0.3312220 0.6796200
0.2287277 0.3382793 0.6993468
0.3428155 0.3527324 0.7402943
0.4921864 0.3739298 0.8003785
0.6710067 0.3941442 0.8576383
0.8450771 0.3908670 0.8750230
0.9950566 0.4155809 0.8705192
1.0000000 0.5691975 0.8675346
0.1517365 0.3876403 0.6703401
0.1720966 0.3894126 0.6735334
0.2388320 0.3975119 0.6885234
0.3457364 0.4167226 0.7258457
0.4962645 0.4531772 0.7891003
0.6786939 0.5005796 0.8529721
0.8472078 0.5163750 0.8760689
0.9866967 0.5436286 0.8724839
1.0000000 0.6671952 0.8753719
0.1580224 0.4742657 0.6892004
0.1802530 0.4753392 0.6906472
0.2499314 0.4804495 0.6973222
0.3504617 0.4944825 0.7147781
0.4910391 0.5353266 0.7640497
0.6854181 0.6135790 0.8408145
0.8501316 0.6567042 0.8769456
0.9714909 0.6820647 0.8762316
1.0000000 0.7683759 0.8875104
0.1974555 0.6194171 0.7466936
0.2187844 0.6200621 0.7473912
0.2881568 0.6227538 0.7503194
0.3883793 0.6290573 0.7565962
0.5116417 0.6444459 0.7694714
0.6771013 0.7002645 0.8117608
0.8559891 0.7856609 0.8798482
0.9537609 0.8049743 0.8854502
1.0000000 0.8473270 0.8951668
0.4428779 0.8179408 0.8310657
0.4543788 0.8184485 0.8315527
0.4989599 0.8206086 0.8336871
0.5752418 0.8251107 0.8380578
0.6708659 0.8328622 0.8453863
0.7689112 0.8455102 0.8572836
0.8643669 0.8710458 0.8812066
0.9352241 0.8890864 0.8949127
0.9889486 0.9095423 0.9087951
0.7484361 0.9414414 0.8970558
0.7527916 0.9415529 0.8976209
0.7701718 0.9420136 0.8998997
0.8009355 0.9430978 0.9043404
0.8405003 0.9451209 0.9109278
0.8829061 0.9491684 0.9198684
0.9232111 0.9555069 0.9291050
0.9608721 0.9528700 0.9312450
0.9992170 0.9726413 0.9542429
0.8778825 0.9931258 0.9424427
0.8796010 0.9931829 0.9428065
0.8866713 0.9934770 0.9444076
0.8999448 0.9941281 0.9475486
0.9187075 0.9953689 0.9523803
0.9410191 0.9971302 0.9586471
0.9651253 0.9987449 0.9634775
0.9882398 0.9982997 0.9659009
1.0000000 0.9946900 0.9691612
0.2977764 0.4163580 0.8850846
0.3124201 0.4180079 0.8868060
0.3670786 0.4251701 0.8939756
0.4573555 0.4404203 0.9081008
0.5733597 0.4661383 0.9285380
0.7042433 0.5003292 0.9515914
0.8364235 0.5273765 0.9702238
0.9607217 0.5304241 0.9728586
1.0000000 0.5738532 0.9623142
0.3004804 0.4243985 0.8841605
0.3151166 0.4261002 0.8858819
0.3695240 0.4334303 0.8930211
0.4597004 0.4492765 0.9071032
0.5758333 0.4761912 0.9275090
0.7064227 0.5120019 0.9505419
0.8375084 0.5407994 0.9692071
0.9601612 0.5445954 0.9720507
1.0000000 0.5868914 0.9618614
0.3091752 0.4552813 0.8804473
0.3235437 0.4571144 0.8820821
0.3776703 0.4653063 0.8890180
0.4681124 0.4832947 0.9028674
0.5850713 0.5145666 0.9231517
0.7148694 0.5560396 0.9462699
0.8420138 0.5912966 0.9651774
0.9577257 0.5979476 0.9687980
1.0000000 0.6362617 0.9601467
0.3256552 0.5092690 0.8744198
0.3382368 0.5109784 0.8757081
0.3875899 0.5186323 0.8815269
0.4778667 0.5381270 0.8944041
0.5974430 0.5746770 0.9146326
0.7280297 0.6247585 0.9384534
0.8499533 0.6708115 0.9582603
0.9533506 0.6820808 0.9633819
1.0000000 0.7120619 0.9577566
0.3449208 0.5804570 0.8723714
0.3566705 0.5817511 0.8729757
0.4024542 0.5877047 0.8758265
0.4828463 0.6030708 0.8836817
0.5991036 0.6369939 0.9013180
0.7378669 0.6959962 0.9270389
0.8583661 0.7529775 0.9505183
0.9489687 0.7695831 0.9586595
1.0000000 0.7901522 0.9566053
0.3855505 0.6813826 0.8836786
0.3953548 0.6818309 0.8837849
0.4340822 0.6839516 0.8842471
0.5029920 0.6897714 0.8856939
0.5999599 0.7057420 0.8905091
0.7313989 0.7526604 0.9097620
0.8626414 0.8199107 0.9418919
0.9469851 0.8469117 0.9569263
1.0000000 0.8611799 0.9581415
0.5225823 0.8153971 0.9065935
0.5293577 0.8155985 0.9065429
0.5566397 0.8164821 0.9063215
0.6057764 0.8183204 0.9059839
0.6712909 0.8214857 0.9058643
0.7486086 0.8283576 0.9075221
0.8499279 0.8605684 0.9247524
0.9493335 0.9102122 0.9592252
1.0000000 0.9214235 0.9634997
0.7281358 0.9325305 0.9360456
0.7316866 0.9326445 0.9361833
0.7463421 0.9331352 0.9367379
0.7733703 0.9341927 0.9379270
0.8107652 0.9360994 0.9400045
0.8546568 0.9392220 0.9433491
0.9019686 0.9442159 0.9486107
0.9521980 0.9551123 0.9593332
0.9960835 0.9677222 0.9689978
0.8710991 0.9939723 0.9675939
0.8728624 0.9940262 0.9678155
0.8800224 0.9942048 0.9686480
0.8936571 0.9945775 0.9703863
0.9132697 0.9953062 0.9731382
0.9375778 0.9964028 0.9770946
0.9645527 0.9983387 0.9828133
0.9881693 0.9999867 0.9887569
1.0000000 0.9980085 0.9900018
0.7377580 0.7571980 0.9939270
0.7406802 0.7577971 0.9940985
0.7526438 0.7601128 0.9948653
0.7751161 0.7642252 0.9964981
0.8073395 0.7695275 0.9992065
0.8482189 0.7755129 1.0000000
0.8966278 0.7812847 1.0000000
0.9518845 0.7840884 1.0000000
1.0000000 0.7838100 1.0000000
0.7406802 0.7618940 0.9936139
0.7435987 0.7624635 0.9938120
0.7554029 0.7648049 0.9945524
0.7775741 0.7688273 0.9961827
0.8094151 0.7740960 0.9988634
0.8497608 0.7800879 1.0000000
0.8976023 0.7860101 1.0000000
0.9521458 0.7889939 1.0000000
1.0000000 0.7887347 1.0000000
0.7516520 0.7798965 0.9926070
0.7544414 0.7804390 0.9927786
0.7657094 0.7826431 0.9935151
0.7868800 0.7865197 0.9950303
0.8172235 0.7916189 0.9976044
0.8557240 0.7975863 1.0000000
0.9013676 0.8038777 1.0000000
0.9532157 0.8077420 1.0000000
1.0000000 0.8075153 1.0000000
0.7702375 0.8104598 0.9912450
0.7724598 0.8107079 0.9914002
0.7816784 0.8118927 0.9921253
0.8012335 0.8153654 0.9935265
0.8294749 0.8201381 0.9958934
0.8650866 0.8258518 0.9992489
0.9073643 0.8324819 1.0000000
0.9551125 0.8375985 1.0000000
1.0000000 0.8376782 1.0000000
0.7918365 0.8464330 0.9907685
0.7938545 0.8467631 0.9908829
0.8020410 0.8481003 0.9913671
0.8176412 0.8502592 0.9925213
0.8424658 0.8537193 0.9946518
0.8755666 0.8592356 0.9976922
0.9145685 0.8662621 1.0000000
0.9579556 0.8730794 1.0000000
1.0000000 0.8740060 1.0000000
0.8084499 0.8823909 0.9921492
0.8104407 0.8827063 0.9922347
0.8187925 0.8841056 0.9925570
0.8346827 0.8868121 0.9932641
0.8571641 0.8905089 0.9946630
0.8862648 0.8948108 0.9971539
0.9225281 0.9015647 1.0000000
0.9620328 0.9097005 1.0000000
1.0000000 0.9119934 1.0000000
0.8237737 0.9208973 0.9943160
0.8255721 0.9211117 0.9944029
0.8331867 0.9220073 0.9947716
0.8479155 0.9238145 0.9955337
0.8699134 0.9267909 0.9967918
0.8983060 0.9312037 0.9984977
0.9309376 0.9366213 1.0000000
0.9676882 0.9444750 1.0000000
1.0000000 0.9487905 1.0000000
0.8492489 0.9663880 0.9966311
0.8507186 0.9664727 0.9967121
0.8567491 0.9668424 0.9970248
0.8683235 0.9675623 0.9976046
0.8851719 0.9683184 0.9983465
0.9045719 0.9676093 0.9983712
0.9321152 0.9676777 0.9987364
0.9711063 0.9745667 0.9998922
0.9983024 0.9833527 1.0000000
0.8860760 0.9995420 0.9939570
0.8871936 0.9995157 0.9939880
0.8917980 0.9994510 0.9940180
0.9009083 0.9992793 0.9941598
0.9153885 0.9990535 0.9944460
0.9362134 0.9987871 0.9950255
0.9628210 0.9986647 0.9962770
0.9907115 0.9992256 0.9986041
1.0000000 1.0000000 1.0000000
