output_luts/Vlog-海边人像.cube
TITLE "Generated by Resolve"
LUT_3D_SIZE 5
0.0802472 0.0737316 0.0676890
0.3527890 0.1143210 0.0714733
0.8818950 0.1874720 0.1049820
0.9764100 0.1891970 0.1067980
0.9764100 0.1891970 0.1067980
0.0783703 0.1906310 0.0621347
0.1796900 0.1695120 0.0619211
0.8738540 0.1876550 0.1041120
0.9764100 0.1891970 0.1067980
0.9764100 0.1891970 0.1067980
0.1537960 0.6857860 0.1798730
0.1531850 0.6806290 0.1797210
0.7931490 0.7576560 0.2171820
0.9874720 0.6108950 0.1880670
0.9849700 0.5718780 0.1788660
0.1934230 0.8941330 0.1775690
0.1934230 0.8941330 0.1775690
0.1934230 0.8941330 0.1775690
0.9976810 0.9762570 0.2414280
1.0000000 0.9706870 0.2414280
0.1934230 0.8941330 0.1775690
0.1934230 0.8941330 0.1775690
0.1934230 0.8941330 0.1775690
0.9739830 0.9853510 0.2414430
1.0000000 0.9853670 0.2414430
0.0757000 0.0722362 0.1697720
0.3172660 0.1065840 0.1558560
0.8868390 0.1831080 0.1577630
0.9781340 0.1885560 0.1396510
0.9768220 0.1890900 0.1326160
0.0809644 0.1742890 0.1460440
0.1430380 0.1454640 0.1331810
0.8756080 0.1837340 0.1449760
0.9761810 0.1890750 0.1246360
0.9762110 0.1891200 0.1165330
0.1533070 0.6816660 0.1797510
0.1526820 0.6764930 0.1796140
0.7879150 0.7510190 0.2156410
0.9866480 0.6012970 0.1859010
0.9842530 0.5614100 0.1761960
0.1934230 0.8941330 0.1775690
0.1934230 0.8941330 0.1775690
0.1934230 0.8941330 0.1775690
0.9964900 0.9748070 0.2414130
1.0000000 0.9692230 0.2414130
0.1934230 0.8941330 0.1775690
0.1934230 0.8941330 0.1775690
0.1934230 0.8941330 0.1775690
0.9727170 0.9853510 0.2414430
1.0000000 0.9853670 0.2414430
0.1478140 0.2687880 0.7690700
0.2163420 0.2663770 0.7683220
0.9037460 0.2843980 0.7232010
1.0000000 0.2796520 0.6953380
1.0000000 0.2782330 0.6900130
0.1474480 0.2714120 0.7643090
0.1471270 0.2669720 0.7635460
0.8887470 0.2793160 0.7163650
1.0000000 0.2767990 0.6846420
1.0000000 0.2753190 0.6792550
0.3044480 0.7712370 0.7984890
0.3037310 0.7662930 0.7983980
0.7610590 0.7551540 0.7763940
1.0000000 0.5578090 0.6305940
1.0000000 0.5176170 0.6134740
0.2630960 0.9232470 0.5684290
0.2610360 0.9224690 0.5633330
0.2514230 0.9188370 0.5371940
0.9985050 0.9640340 0.5299920
1.0000000 0.9587550 0.5221640
0.2375830 0.9122000 0.4719920
0.2367740 0.9117420 0.4668350
0.2320440 0.9089490 0.4422670
0.9762720 0.9873500 0.4863810
1.0000000 0.9878080 0.4796520
0.2455630 0.3916990 0.9817960
0.2455630 0.3916990 0.9815370
0.8726020 0.3968720 0.9833520
1.0000000 0.4036770 0.9841310
1.0000000 0.4036770 0.9833220
0.2455480 0.3916990 0.9801940
0.2455480 0.3916990 0.9799190
0.8509350 0.3934540 0.9815370
1.0000000 0.4036770 0.9825130
1.0000000 0.4036770 0.9816890
0.3506220 0.7464560 1.0000000
0.3470050 0.7386130 1.0000000
0.6811630 0.7037000 0.9960940
1.0000000 0.5697110 0.9791260
1.0000000 0.5390100 0.9754180
0.4308380 0.9943690 0.9956970
0.4308380 0.9925990 0.9954070
0.4307770 0.9834590 0.9939120
0.9912720 0.9912410 1.0000000
1.0000000 0.9852600 0.9994660
0.4308540 0.9976650 0.9903560
0.4308540 0.9976650 0.9900660
0.4308540 0.9976650 0.9886020
0.9660030 1.0000000 0.9949190
1.0000000 1.0000000 0.9940030
0.2455630 0.3917140 0.9834900
0.2455630 0.3917140 0.9834900
0.8623180 0.3955290 0.9867090
1.0000000 0.4037080 0.9900660
1.0000000 0.4037080 0.9900660
0.2455630 0.3917140 0.9834900
0.2455630 0.3917140 0.9834900
0.8393380 0.3912410 0.9861600
1.0000000 0.4037080 0.9900660
1.0000000 0.4037080 0.9900660
0.3413140 0.7262990 1.0000000
0.3374990 0.7175560 1.0000000
0.6489660 0.6785690 1.0000000
1.0000000 0.5457690 0.9930880
1.0000000 0.5149310 0.9895930
0.4308380 0.9900050 1.0000000
0.4308230 0.9882050 1.0000000
0.4307770 0.9789430 1.0000000
0.9873810 0.9864650 1.0000000
1.0000000 0.9803770 1.0000000
0.4308690 0.9976960 1.0000000
0.4308690 0.9976960 1.0000000
0.4308690 0.9976960 1.0000000
0.9617610 1.0000000 1.0000000
1.0000000 1.0000000 1.0000000
