output_luts/Vlog-海边人像.cube
TITLE "Generated by Resolve"
LUT_3D_SIZE 9
0.0802472 0.0737316 0.0676890
0.1278550 0.0766918 0.0691539
0.3527890 0.1143210 0.0714733
0.6719310 0.1649350 0.0946365
0.8818950 0.1874720 0.1049820
0.9764100 0.1891970 0.1067980
0.9764100 0.1891970 0.1067980
0.9764100 0.1891970 0.1067980
0.9764100 0.1891970 0.1067980
0.0803082 0.0889296 0.0677806
0.0858473 0.0805371 0.0677043
0.2727090 0.1005420 0.0647440
0.6540630 0.1631800 0.0948959
0.8794540 0.1877470 0.1044170
0.9764100 0.1891970 0.1067980
0.9764100 0.1891970 0.1067980
0.9764100 0.1891970 0.1067980
0.9764100 0.1891970 0.1067980
0.0783703 0.1906310 0.0621347
0.0768444 0.1745170 0.0556649
0.1796900 0.1695120 0.0619211
0.6196540 0.2073850 0.0852216
0.8738540 0.1876550 0.1041120
0.9764100 0.1891970 0.1067980
0.9764100 0.1891970 0.1067980
0.9764100 0.1891970 0.1067980
0.9764100 0.1891970 0.1067980
0.1085070 0.4526590 0.1438470
0.1070120 0.4461890 0.1422750
0.1051960 0.4381480 0.1403220
0.5249710 0.5076370 0.1504690
0.8467990 0.3563740 0.1179680
0.9768520 0.2698860 0.1020520
0.9756770 0.1934230 0.1063860
0.9764100 0.1891970 0.1067980
0.9764100 0.1891970 0.1067980
0.1537960 0.6857860 0.1798730
0.1535210 0.6834670 0.1798120
0.1531850 0.6806290 0.1797210
0.1522550 0.6729230 0.1795070
0.7931490 0.7576560 0.2171820
0.9671470 0.6645300 0.1987490
0.9874720 0.6108950 0.1880670
0.9856720 0.5821770 0.1813990
0.9849700 0.5718780 0.1788660
0.1729460 0.8396730 0.1845880
0.1725340 0.8385600 0.1847260
0.1720150 0.8372010 0.1849240
0.1713440 0.8333260 0.1852600
0.3358210 0.8282140 0.1680780
0.9409020 0.9140150 0.2399790
1.0000000 0.9008470 0.2383460
1.0000000 0.8940110 0.2376440
1.0000000 0.8914630 0.2373690
0.1934230 0.8941330 0.1775690
0.1934230 0.8941330 0.1775690
0.1934230 0.8941330 0.1775690
0.1934230 0.8941330 0.1775690
0.1934230 0.8941330 0.1775690
0.8940260 0.9896850 0.2486150
0.9976810 0.9762570 0.2414280
1.0000000 0.9721830 0.2414280
1.0000000 0.9706870 0.2414280
0.1934230 0.8941330 0.1775690
0.1934230 0.8941330 0.1775690
0.1934230 0.8941330 0.1775690
0.1934230 0.8941330 0.1775690
0.1934230 0.8941330 0.1775690
0.8420840 0.9915310 0.2417490
0.9804680 0.9853510 0.2414430
1.0000000 0.9853670 0.2414430
1.0000000 0.9853670 0.2414430
0.1934230 0.8941330 0.1775690
0.1934230 0.8941330 0.1775690
0.1934230 0.8941330 0.1775690
0.1934230 0.8941330 0.1775690
0.1934230 0.8941330 0.1775690
0.8060880 0.9853210 0.2341650
0.9739830 0.9853510 0.2414430
1.0000000 0.9853670 0.2414430
1.0000000 0.9853670 0.2414430
0.0803082 0.0737926 0.0766308
0.1175100 0.0754406 0.0767987
0.3372700 0.1114820 0.0761120
0.6682380 0.1644010 0.0968185
0.8816050 0.1875330 0.1048910
0.9764100 0.1891970 0.1067980
0.9764100 0.1891970 0.1067980
0.9764100 0.1891970 0.1067980
0.9764100 0.1891970 0.1067980
0.0803082 0.0822309 0.0690776
0.0802472 0.0737316 0.0676890
0.2622570 0.0988174 0.0656291
0.6509800 0.1628750 0.0949264
0.8789350 0.1877620 0.1043560
0.9764100 0.1891970 0.1067980
0.9764100 0.1891970 0.1067980
0.9764100 0.1891970 0.1067980
0.9764100 0.1891970 0.1067980
0.0771038 0.1776000 0.0568856
0.0757305 0.1627070 0.0515450
0.1653470 0.1550770 0.0575570
0.6210120 0.1994200 0.0850233
0.8728620 0.1876100 0.1041280
0.9764100 0.1891970 0.1067980
0.9764100 0.1891970 0.1067980
0.9764100 0.1891970 0.1067980
0.9764100 0.1891970 0.1067980
0.1073170 0.4474710 0.1425800
0.1058060 0.4409250 0.1409930
0.1040050 0.4328530 0.1390250
0.5181050 0.5006330 0.1487450
0.8457310 0.3502250 0.1158770
0.9749140 0.2645760 0.1016710
0.9764100 0.1891970 0.1067980
0.9764100 0.1891970 0.1067980
0.9764100 0.1891970 0.1067980
0.1535820 0.6839400 0.1798280
0.1533070 0.6816200 0.1797510
0.1529720 0.6787820 0.1796750
0.1520260 0.6710310 0.1794610
0.7908450 0.7546350 0.2165260
0.9657590 0.6603650 0.1979100
0.9870910 0.6065770 0.1870910
0.9853670 0.5776760 0.1803010
0.9846490 0.5672850 0.1777220
0.1726100 0.8387880 0.1846950
0.1721830 0.8376740 0.1848630
0.1718170 0.8362710 0.1850160
0.1711910 0.8323800 0.1853510
0.3328600 0.8268860 0.1689780
0.9403680 0.9130390 0.2398870
1.0000000 0.8997790 0.2382540
1.0000000 0.8928970 0.2375370
1.0000000 0.8903180 0.2372470
0.1934230 0.8941330 0.1775690
0.1934230 0.8941330 0.1775690
0.1934230 0.8941330 0.1775690
0.1934230 0.8941330 0.1775690
0.1934230 0.8941330 0.1775690
0.8929730 0.9893030 0.2487680
0.9971470 0.9756010 0.2414280
1.0000000 0.9715270 0.2414280
1.0000000 0.9700310 0.2414130
0.1934230 0.8941330 0.1775690
0.1934230 0.8941330 0.1775690
0.1934230 0.8941330 0.1775690
0.1934230 0.8941330 0.1775690
0.1934230 0.8941330 0.1775690
0.8394900 0.9911350 0.2410770
0.9799040 0.9853510 0.2414430
1.0000000 0.9853670 0.2414430
1.0000000 0.9853670 0.2414430
0.1934230 0.8941330 0.1775690
0.1934230 0.8941330 0.1775690
0.1934230 0.8941330 0.1775690
0.1934230 0.8941330 0.1775690
0.1934230 0.8941330 0.1775690
0.8027920 0.9846340 0.2335090
0.9734190 0.9853510 0.2414430
1.0000000 0.9853670 0.2414430
1.0000000 0.9853670 0.2414430
0.0757000 0.0722362 0.1697720
0.1021740 0.0719921 0.1687650
0.3172660 0.1065840 0.1558560
0.6752420 0.1633630 0.1531850
0.8868390 0.1831080 0.1577630
0.9811550 0.1855800 0.1463490
0.9781340 0.1885560 0.1396510
0.9770350 0.1890900 0.1347520
0.9768220 0.1890900 0.1326160
0.0742809 0.0686961 0.1560850
0.0741283 0.0679332 0.1540860
0.2408330 0.0922103 0.1468530
0.6548410 0.1612420 0.1461660
0.8838180 0.1831690 0.1520100
0.9790340 0.1876550 0.1423820
0.9769130 0.1890900 0.1334400
0.9763180 0.1890750 0.1275500
0.9761810 0.1890750 0.1253990
0.0809644 0.1742890 0.1460440
0.0782330 0.1572440 0.1413900
0.1430380 0.1454640 0.1331810
0.6203250 0.1908450 0.1364460
0.8756080 0.1837340 0.1449760
0.9773560 0.1890290 0.1367060
0.9761810 0.1890750 0.1246360
0.9761960 0.1891050 0.1187150
0.9762110 0.1891200 0.1165330
0.1080030 0.4456090 0.1800260
0.1062640 0.4388040 0.1770500
0.1042340 0.4304260 0.1735410
0.5159690 0.4953230 0.1775690
0.8442360 0.3422450 0.1340510
0.9749450 0.2578620 0.1072710
0.9764100 0.1891970 0.1067980
0.9764100 0.1891970 0.1067980
0.9764100 0.1891970 0.1067980
0.1533070 0.6816660 0.1797510
0.1530330 0.6793470 0.1796900
0.1526820 0.6764930 0.1796140
0.1514760 0.6686050 0.1792780
0.7879150 0.7510190 0.2156410
0.9640800 0.6554510 0.1970400
0.9866480 0.6012970 0.1859010
0.9849850 0.5721220 0.1789270
0.9842530 0.5614100 0.1761960
0.1721980 0.8377050 0.1848480
0.1718620 0.8365610 0.1849850
0.1716330 0.8351260 0.1851070
0.1710080 0.8312200 0.1854430
0.3293510 0.8252080 0.1701380
0.9397120 0.9118490 0.2397800
1.0000000 0.8984820 0.2381170
1.0000000 0.8915080 0.2373850
1.0000000 0.8889300 0.2370950
0.1934230 0.8941330 0.1775690
0.1934230 0.8941330 0.1775690
0.1934230 0.8941330 0.1775690
0.1934230 0.8941330 0.1775690
0.1934230 0.8941330 0.1775690
0.8917070 0.9889070 0.2489510
0.9964900 0.9748070 0.2414130
1.0000000 0.9707180 0.2414280
1.0000000 0.9692230 0.2414130
0.1934230 0.8941330 0.1775690
0.1934230 0.8941330 0.1775690
0.1934230 0.8941330 0.1775690
0.1934230 0.8941330 0.1775690
0.1934230 0.8941330 0.1775690
0.8357060 0.9905090 0.2402380
0.9792170 0.9853510 0.2414430
1.0000000 0.9853670 0.2414430
1.0000000 0.9853670 0.2414430
0.1934230 0.8941330 0.1775690
0.1934230 0.8941330 0.1775690
0.1934230 0.8941330 0.1775690
0.1934230 0.8941330 0.1775690
0.1934230 0.8941330 0.1775690
0.7987790 0.9838410 0.2327610
0.9727170 0.9853510 0.2414430
1.0000000 0.9853670 0.2414430
1.0000000 0.9853670 0.2414430
0.1116660 0.1784080 0.5373010
0.1206990 0.1782410 0.5360490
0.2426030 0.1833680 0.5342790
0.6824600 0.1981080 0.4615400
0.8938120 0.1969940 0.2764020
0.9981990 0.1969790 0.2611580
0.9981990 0.1955440 0.2487680
0.9978330 0.1962310 0.2458690
0.9976960 0.1964900 0.2448160
0.1098500 0.1780420 0.5294120
0.1095450 0.1779810 0.5280990
0.1909970 0.1744260 0.5259020
0.6613410 0.1957580 0.4594800
0.8873730 0.1947810 0.2694130
0.9984740 0.1954830 0.2517590
0.9977420 0.1963990 0.2452280
0.9974210 0.1972690 0.2424960
0.9973300 0.1976810 0.2416270
0.1136950 0.2473790 0.5441210
0.1106890 0.2350040 0.5381700
0.1448390 0.2227820 0.5256730
0.6310830 0.2049440 0.4514380
0.8786910 0.1921870 0.2613720
0.9979550 0.1960020 0.2468300
0.9972840 0.1978180 0.2413370
0.9970240 0.1988860 0.2391090
0.9969020 0.1992980 0.2383000
0.1956820 0.5283130 0.5526820
0.1949950 0.5229720 0.5533840
0.1940490 0.5156940 0.5545740
0.4677650 0.4932630 0.5179520
0.8498670 0.3256580 0.2481120
0.9905390 0.2511790 0.2346680
0.9961090 0.2017700 0.2319830
0.9958500 0.2011750 0.2287940
0.9957580 0.2009610 0.2276190
0.1706720 0.6843520 0.3037460
0.1701230 0.6817270 0.3030750
0.1694670 0.6787060 0.3023420
0.1677730 0.6711830 0.3009230
0.7835510 0.7472800 0.3222400
0.9680780 0.6485850 0.2949420
0.9915310 0.5947970 0.2746470
0.9883880 0.5626460 0.2641490
0.9877320 0.5501490 0.2600900
0.1735870 0.8353700 0.2493780
0.1733270 0.8341950 0.2487070
0.1730070 0.8327610 0.2478980
0.1721220 0.8288550 0.2456550
0.3197680 0.8202940 0.2267190
0.9383230 0.9082480 0.2811170
1.0000000 0.8950330 0.2682080
1.0000000 0.8879220 0.2615700
1.0000000 0.8846420 0.2587930
0.1934230 0.8941330 0.1775690
0.1934230 0.8941330 0.1775690
0.1934230 0.8941330 0.1775690
0.1934230 0.8941330 0.1775690
0.1934230 0.8941330 0.1775690
0.8882430 0.9879300 0.2493630
0.9947050 0.9726560 0.2414130
1.0000000 0.9685510 0.2414130
1.0000000 0.9670410 0.2414130
0.1934230 0.8941330 0.1775690
0.1934230 0.8941330 0.1775690
0.1934230 0.8941330 0.1775690
0.1934230 0.8941330 0.1775690
0.1934230 0.8941330 0.1775690
0.8254370 0.9888150 0.2379800
0.9773400 0.9853510 0.2414430
1.0000000 0.9853670 0.2414430
1.0000000 0.9853670 0.2414430
0.1934230 0.8941330 0.1775690
0.1934230 0.8941330 0.1775690
0.1934230 0.8941330 0.1775690
0.1934230 0.8941330 0.1775690
0.1934230 0.8941330 0.1775690
0.7877930 0.9816740 0.2307010
0.9707940 0.9853510 0.2414430
1.0000000 0.9853670 0.2414430
1.0000000 0.9853670 0.2414430
0.1478140 0.2687880 0.7690700
0.1477680 0.2686660 0.7687340
0.2163420 0.2663770 0.7683220
0.5594570 0.2519870 0.7341420
0.9037460 0.2843980 0.7232010
1.0000000 0.2826890 0.7041730
1.0000000 0.2796520 0.6953380
1.0000000 0.2786140 0.6914170
1.0000000 0.2782330 0.6900130
0.1475390 0.2680700 0.7669490
0.1475090 0.2679640 0.7665980
0.1852600 0.2635540 0.7631190
0.5152060 0.2541390 0.7319750
0.8971390 0.2822000 0.7202720
1.0000000 0.2808120 0.6988480
1.0000000 0.2783700 0.6905470
1.0000000 0.2773170 0.6866100
1.0000000 0.2769510 0.6852060
0.1474480 0.2714120 0.7643090
0.1471730 0.2670940 0.7639730
0.1471270 0.2669720 0.7635460
0.4548560 0.2557870 0.7313340
0.8887470 0.2793160 0.7163650
1.0000000 0.2789650 0.6927440
1.0000000 0.2767990 0.6846420
1.0000000 0.2757310 0.6807050
1.0000000 0.2753190 0.6792550
0.1806670 0.4540470 0.7587400
0.1775230 0.4475320 0.7584500
0.1742120 0.4404820 0.7593040
0.3046620 0.4217750 0.7565730
0.8594030 0.3730680 0.7146110
1.0000000 0.2748910 0.6761430
1.0000000 0.2723580 0.6684980
1.0000000 0.2711680 0.6644240
1.0000000 0.2707410 0.6629590
0.3044480 0.7712370 0.7984890
0.3041280 0.7690090 0.7984440
0.3037310 0.7662930 0.7983980
0.3020980 0.7573660 0.7969330
0.7610590 0.7551540 0.7763940
0.9758600 0.6324560 0.6677040
1.0000000 0.5578090 0.6305940
1.0000000 0.5281300 0.6179450
1.0000000 0.5176170 0.6134740
0.2861220 0.8814220 0.6711220
0.2857560 0.8800640 0.6703900
0.2853130 0.8784160 0.6694900
0.2840010 0.8737470 0.6668350
0.3926150 0.8565960 0.6443270
0.9356830 0.9029070 0.6224460
1.0000000 0.8895400 0.6067600
1.0000000 0.8878920 0.5939730
1.0000000 0.8872820 0.5898070
0.2630960 0.9232470 0.5684290
0.2621650 0.9228960 0.5661400
0.2610360 0.9224690 0.5633330
0.2581220 0.9213700 0.5556880
0.2514230 0.9188370 0.5371940
0.8725570 0.9845430 0.5434650
0.9985050 0.9640340 0.5299920
1.0000000 0.9599910 0.5240410
1.0000000 0.9587550 0.5221640
0.2413520 0.9143050 0.4974140
0.2410320 0.9141220 0.4951250
0.2406500 0.9139090 0.4923780
0.2395970 0.9133140 0.4848860
0.2367280 0.9117110 0.4665290
0.7988400 0.9852900 0.4706650
0.9824830 0.9861140 0.4974750
1.0000000 0.9869230 0.4923020
1.0000000 0.9870760 0.4905780
0.2375830 0.9122000 0.4719920
0.2372170 0.9119860 0.4696270
0.2367740 0.9117420 0.4668350
0.2353400 0.9109790 0.4592660
0.2320440 0.9089490 0.4422670
0.7556110 0.9777070 0.4397650
0.9762720 0.9873500 0.4863810
1.0000000 0.9876860 0.4814680
1.0000000 0.9878080 0.4796520
0.2324100 0.3773400 0.9178610
0.2323640 0.3772490 0.9176780
0.2406650 0.3768670 0.9171740
0.4865030 0.3704890 0.9026320
0.8859540 0.3932860 0.9196610
1.0000000 0.3992830 0.9204700
1.0000000 0.3985050 0.9185630
1.0000000 0.3981540 0.9176320
1.0000000 0.3980010 0.9172810
0.2321360 0.3767610 0.9167930
0.2320900 0.3766540 0.9166090
0.2320290 0.3765320 0.9163960
0.4514380 0.3725190 0.9041890
0.8782020 0.3917300 0.9180740
1.0000000 0.3988100 0.9193260
1.0000000 0.3980470 0.9174180
1.0000000 0.3976960 0.9164720
1.0000000 0.3975740 0.9161360
0.2317690 0.3760280 0.9154650
0.2317240 0.3759210 0.9152970
0.2316620 0.3757990 0.9150840
0.4137790 0.3758300 0.9062940
0.8667280 0.3900820 0.9170670
1.0000000 0.3981990 0.9178910
1.0000000 0.3975130 0.9160140
1.0000000 0.3971310 0.9150530
1.0000000 0.3970090 0.9147170
0.2335550 0.4710000 0.9108420
0.2325170 0.4655070 0.9107500
0.2313420 0.4589610 0.9108260
0.3190660 0.4380250 0.9061420
0.8287170 0.4021970 0.9119550
1.0000000 0.3965510 0.9139540
1.0000000 0.3960330 0.9121840
1.0000000 0.3956510 0.9112230
1.0000000 0.3955290 0.9108870
0.3537650 0.7718010 0.9503470
0.3523000 0.7684290 0.9498740
0.3505150 0.7643090 0.9493250
0.3459980 0.7530940 0.9481040
0.7230640 0.7388720 0.9365220
0.9744560 0.6681620 0.9275650
1.0000000 0.6067900 0.9173270
1.0000000 0.5771270 0.9109030
1.0000000 0.5662470 0.9087210
0.4062260 0.9288320 0.9362170
0.4056760 0.9276720 0.9360040
0.4049440 0.9262380 0.9357600
0.4029910 0.9222710 0.9350120
0.5066450 0.9128250 0.9307240
0.9342790 0.9288620 0.9416340
1.0000000 0.9149310 0.9390860
1.0000000 0.9067670 0.9378960
1.0000000 0.9035480 0.9374840
0.4104220 0.9926760 0.9199050
0.4102240 0.9925690 0.9196310
0.4100250 0.9924620 0.9193260
0.4094610 0.9909820 0.9184560
0.4080260 0.9838560 0.9163200
0.8646830 1.0000000 0.9306020
0.9971470 0.9981540 0.9296250
1.0000000 0.9938660 0.9287710
1.0000000 0.9922790 0.9283890
0.4052030 0.9898370 0.9118940
0.4051420 0.9898370 0.9116810
0.4050660 0.9898530 0.9114370
0.4048370 0.9898830 0.9107650
0.4043180 0.9899440 0.9091170
0.7925230 1.0000000 0.9187000
0.9786980 1.0000000 0.9211570
1.0000000 1.0000000 0.9195540
1.0000000 1.0000000 0.9189900
0.4044710 0.9899290 0.9096060
0.4044100 0.9899440 0.9093920
0.4043340 0.9899600 0.9091480
0.4041050 0.9899750 0.9084610
0.4035860 0.9900510 0.9068130
0.7590140 1.0000000 0.9135270
0.9716180 1.0000000 0.9175560
1.0000000 1.0000000 0.9158310
1.0000000 1.0000000 0.9152060
0.2455630 0.3916990 0.9817960
0.2455630 0.3916990 0.9816740
0.2455630 0.3916990 0.9815370
0.4429690 0.3908600 0.9736780
0.8726020 0.3968720 0.9833520
1.0000000 0.4036770 0.9853360
1.0000000 0.4036770 0.9841310
1.0000000 0.4036770 0.9835360
1.0000000 0.4036770 0.9833220
0.2455480 0.3916990 0.9810790
0.2455480 0.3916990 0.9809570
0.2455480 0.3916990 0.9808040
0.4148160 0.3919280 0.9744110
0.8631270 0.3956360 0.9827120
1.0000000 0.4036320 0.9845880
1.0000000 0.4036770 0.9833980
1.0000000 0.4036770 0.9828030
1.0000000 0.4036770 0.9825890
0.2455480 0.3916990 0.9801940
0.2455480 0.3916990 0.9800720
0.2455480 0.3916990 0.9799190
0.3758450 0.3894560 0.9735260
0.8509350 0.3934540 0.9815370
1.0000000 0.4036010 0.9836580
1.0000000 0.4036770 0.9825130
1.0000000 0.4036770 0.9819030
1.0000000 0.4036770 0.9816890
0.2418560 0.4411230 0.9767610
0.2423130 0.4376900 0.9768220
0.2432140 0.4362100 0.9778130
0.2993820 0.4085450 0.9742430
0.8128330 0.3871060 0.9785760
0.9978790 0.4034790 0.9811400
1.0000000 0.4036770 0.9800870
1.0000000 0.4036620 0.9794770
1.0000000 0.4036620 0.9792630
0.3506220 0.7464560 1.0000000
0.3492480 0.7431300 1.0000000
0.3470050 0.7386130 1.0000000
0.3411610 0.7259780 1.0000000
0.6811630 0.7037000 0.9960940
0.9706420 0.6233010 0.9881280
1.0000000 0.5697110 0.9791260
1.0000000 0.5478600 0.9769440
1.0000000 0.5390100 0.9754180
0.4153810 0.9201340 1.0000000
0.4148780 0.9189590 1.0000000
0.4142520 0.9175100 1.0000000
0.4126040 0.9135880 1.0000000
0.4726630 0.9039440 1.0000000
0.9261920 0.9183790 1.0000000
1.0000000 0.9005110 1.0000000
1.0000000 0.8912950 1.0000000
1.0000000 0.8878310 1.0000000
0.4308380 0.9943690 0.9956970
0.4308380 0.9935760 0.9955600
0.4308380 0.9925990 0.9954070
0.4308230 0.9899290 0.9949650
0.4307770 0.9834590 0.9939120
0.8503850 0.9988250 1.0000000
0.9912720 0.9912410 1.0000000
1.0000000 0.9868620 0.9996950
1.0000000 0.9852600 0.9994660
0.4308540 0.9976810 0.9917910
0.4308540 0.9976810 0.9916530
0.4308540 0.9976810 0.9915010
0.4308540 0.9976650 0.9910730
0.4308540 0.9976650 0.9900510
0.7836120 1.0000000 0.9979710
0.9729300 1.0000000 0.9963680
1.0000000 1.0000000 0.9956970
1.0000000 1.0000000 0.9954680
0.4308540 0.9976650 0.9903560
0.4308540 0.9976650 0.9902190
0.4308540 0.9976650 0.9900660
0.4308540 0.9976650 0.9896390
0.4308540 0.9976650 0.9886020
0.7529560 1.0000000 0.9931490
0.9660030 1.0000000 0.9949190
1.0000000 1.0000000 0.9942470
1.0000000 1.0000000 0.9940030
0.2455630 0.3917140 0.9834900
0.2455630 0.3917140 0.9834900
0.2455630 0.3917140 0.9834900
0.4209960 0.3920650 0.9774620
0.8651100 0.3959560 0.9867090
1.0000000 0.4036620 0.9900360
1.0000000 0.4037080 0.9900660
1.0000000 0.4037080 0.9900660
1.0000000 0.4037080 0.9900660
0.2455630 0.3917140 0.9834900
0.2455630 0.3917140 0.9834900
0.2455630 0.3917140 0.9834900
0.3886930 0.3904480 0.9774780
0.8552380 0.3942780 0.9865260
1.0000000 0.4036320 0.9900050
1.0000000 0.4037080 0.9900660
1.0000000 0.4037080 0.9900660
1.0000000 0.4037080 0.9900660
0.2455630 0.3917140 0.9834900
0.2455630 0.3917140 0.9834900
0.2455630 0.3917140 0.9834900
0.3578850 0.3903870 0.9787590
0.8426640 0.3918520 0.9862360
1.0000000 0.4035860 0.9899750
1.0000000 0.4037080 0.9900660
1.0000000 0.4037080 0.9900660
1.0000000 0.4037080 0.9900660
0.2429690 0.4222630 0.9834130
0.2433510 0.4142370 0.9833680
0.2443430 0.4046690 0.9834290
0.2737010 0.3909970 0.9827880
0.8026700 0.3860380 0.9857020
0.9951480 0.4034790 0.9898680
1.0000000 0.4037080 0.9900660
1.0000000 0.4037080 0.9900660
1.0000000 0.4037080 0.9900660
0.3437860 0.7319600 1.0000000
0.3420610 0.7280540 1.0000000
0.3400320 0.7232620 1.0000000
0.3337760 0.7102160 1.0000000
0.6567940 0.6854810 1.0000000
0.9669950 0.6017090 0.9992220
1.0000000 0.5526820 0.9941860
1.0000000 0.5278400 0.9906620
1.0000000 0.5197680 0.9897460
0.4133670 0.9154040 1.0000000
0.4128790 0.9142140 1.0000000
0.4123290 0.9127950 1.0000000
0.4108340 0.9089340 1.0000000
0.4461890 0.8984660 1.0000000
0.9214770 0.9126270 1.0000000
1.0000000 0.8931870 1.0000000
1.0000000 0.8834670 1.0000000
1.0000000 0.8798500 1.0000000
0.4308380 0.9911800 1.0000000
0.4308380 0.9903720 1.0000000
0.4308230 0.9893800 1.0000000
0.4308080 0.9866940 1.0000000
0.4307770 0.9801480 1.0000000
0.8412450 0.9953150 1.0000000
0.9884180 0.9877470 1.0000000
1.0000000 0.9833070 1.0000000
1.0000000 0.9816890 1.0000000
0.4308690 0.9976810 1.0000000
0.4308690 0.9976810 1.0000000
0.4308690 0.9976810 1.0000000
0.4308690 0.9976810 1.0000000
0.4308690 0.9976810 1.0000000
0.7713280 1.0000000 1.0000000
0.9698940 1.0000000 1.0000000
1.0000000 1.0000000 1.0000000
1.0000000 1.0000000 1.0000000
0.4308690 0.9976810 1.0000000
0.4308690 0.9976810 1.0000000
0.4308690 0.9976810 1.0000000
0.4308690 0.9976810 1.0000000
0.4308690 0.9976810 1.0000000
0.7370110 1.0000000 1.0000000
0.9628900 1.0000000 1.0000000
1.0000000 1.0000000 1.0000000
1.0000000 1.0000000 1.0000000
0.2455630 0.3917140 0.9834900
0.2455630 0.3917140 0.9834900
0.2455630 0.3917140 0.9834900
0.4121000 0.3918970 0.9774620
0.8623180 0.3955290 0.9867090
1.0000000 0.4036470 0.9900210
1.0000000 0.4037080 0.9900660
1.0000000 0.4037080 0.9900660
1.0000000 0.4037080 0.9900660
0.2455630 0.3917140 0.9834900
0.2455630 0.3917140 0.9834900
0.2455630 0.3917140 0.9834900
0.3796140 0.3897310 0.9774620
0.8523380 0.3937440 0.9864350
1.0000000 0.4036160 0.9899900
1.0000000 0.4037080 0.9900660
1.0000000 0.4037080 0.9900660
1.0000000 0.4037080 0.9900660
0.2455630 0.3917140 0.9834900
0.2455630 0.3917140 0.9834900
0.2455630 0.3917140 0.9834900
0.3516140 0.3902950 0.9794610
0.8393380 0.3912410 0.9861600
1.0000000 0.4035860 0.9899600
1.0000000 0.4037080 0.9900660
1.0000000 0.4037080 0.9900660
1.0000000 0.4037080 0.9900660
0.2437320 0.4107580 0.9833980
0.2444950 0.4027920 0.9833980
0.2454260 0.3926300 0.9834290
0.2638130 0.3913180 0.9831080
0.7987490 0.3856720 0.9855800
0.9941410 0.4034640 0.9898680
1.0000000 0.4037080 0.9900660
1.0000000 0.4037080 0.9900660
1.0000000 0.4037080 0.9900660
0.3413140 0.7262990 1.0000000
0.3396510 0.7223620 1.0000000
0.3374990 0.7175560 1.0000000
0.3301590 0.7039290 1.0000000
0.6489660 0.6785690 1.0000000
0.9650110 0.5931180 0.9976650
1.0000000 0.5457690 0.9930880
1.0000000 0.5213550 0.9899290
1.0000000 0.5149310 0.9895930
0.4126800 0.9136950 1.0000000
0.4122220 0.9125350 1.0000000
0.4116730 0.9111010 1.0000000
0.4101780 0.9072250 1.0000000
0.4364230 0.8967730 1.0000000
0.9196460 0.9102770 1.0000000
1.0000000 0.8904550 1.0000000
1.0000000 0.8805680 1.0000000
1.0000000 0.8769660 1.0000000
0.4308380 0.9900050 1.0000000
0.4308230 0.9891970 1.0000000
0.4308230 0.9882050 1.0000000
0.4308080 0.9855040 1.0000000
0.4307770 0.9789430 1.0000000
0.8377810 0.9940340 1.0000000
0.9873810 0.9864650 1.0000000
1.0000000 0.9820100 1.0000000
1.0000000 0.9803770 1.0000000
0.4308690 0.9976960 1.0000000
0.4308690 0.9976960 1.0000000
0.4308690 0.9976960 1.0000000
0.4308690 0.9976960 1.0000000
0.4308690 0.9976960 1.0000000
0.7667510 1.0000000 1.0000000
0.9687800 1.0000000 1.0000000
1.0000000 1.0000000 1.0000000
1.0000000 1.0000000 1.0000000
0.4308690 0.9976960 1.0000000
0.4308690 0.9976960 1.0000000
0.4308690 0.9976960 1.0000000
0.4308690 0.9976960 1.0000000
0.4308690 0.9976960 1.0000000
0.7315330 1.0000000 1.0000000
0.9617610 1.0000000 1.0000000
1.0000000 1.0000000 1.0000000
1.0000000 1.0000000 1.0000000
