output_luts/Vlog-海边人像.cube
TITLE "Generated by Resolve"
LUT_3D_SIZE 33
0.0802472 0.0737316 0.0676890
0.0802472 0.0737316 0.0676890
0.0802472 0.0737316 0.0676890
0.0977035 0.0740826 0.0679942
0.1278550 0.0766918 0.0691539
0.1661710 0.0841382 0.0691691
0.2133820 0.0914015 0.0694133
0.2687880 0.0998856 0.0648966
0.3527890 0.1143210 0.0714733
0.4457010 0.1335930 0.0815290
0.5402300 0.1476460 0.0893111
0.6105900 0.1595940 0.0945296
0.6719310 0.1649350 0.0946365
0.7386890 0.1722440 0.0985275
0.7928280 0.1769440 0.1019910
0.8438700 0.1848780 0.1035170
0.8818950 0.1874720 0.1049820
0.9118640 0.1885100 0.1069050
0.9373770 0.1887240 0.1064010
0.9665060 0.1890750 0.1067060
0.9764100 0.1891970 0.1067980
0.9764100 0.1891970 0.1067980
0.9764100 0.1891970 0.1067980
0.9764100 0.1891970 0.1067980
0.9764100 0.1891970 0.1067980
0.9764100 0.1891970 0.1067980
0.9764100 0.1891970 0.1067980
0.9764100 0.1891970 0.1067980
0.9764100 0.1891970 0.1067980
0.9764100 0.1891970 0.1067980
0.9764100 0.1891970 0.1067980
0.9764100 0.1891970 0.1067980
0.9764100 0.1891970 0.1067980
0.0802472 0.0737316 0.0676890
0.0802472 0.0737316 0.0676890
0.0802472 0.0737316 0.0676890
0.0890669 0.0738384 0.0677806
0.1138480 0.0751354 0.0689403
0.1524380 0.0814221 0.0689860
0.1961850 0.0887617 0.0693523
0.2527500 0.0972610 0.0667582
0.3326010 0.1107190 0.0696574
0.4300300 0.1301590 0.0801099
0.5301440 0.1464410 0.0885176
0.6046390 0.1590140 0.0943923
0.6676590 0.1645080 0.0947127
0.7347680 0.1718470 0.0981155
0.7904630 0.1766380 0.1019000
0.8417180 0.1844970 0.1034560
0.8814370 0.1875640 0.1048290
0.9108870 0.1884790 0.1069050
0.9364610 0.1887240 0.1064010
0.9656820 0.1890590 0.1066910
0.9764100 0.1891970 0.1067980
0.9764100 0.1891970 0.1067980
0.9764100 0.1891970 0.1067980
0.9764100 0.1891970 0.1067980
0.9764100 0.1891970 0.1067980
0.9764100 0.1891970 0.1067980
0.9764100 0.1891970 0.1067980
0.9764100 0.1891970 0.1067980
0.9764100 0.1891970 0.1067980
0.9764100 0.1891970 0.1067980
0.9764100 0.1891970 0.1067980
0.9764100 0.1891970 0.1067980
0.9764100 0.1891970 0.1067980
0.0802472 0.0737316 0.0676890
0.0802472 0.0737316 0.0676890
0.0802472 0.0737316 0.0676890
0.0804150 0.0737469 0.0676890
0.1038380 0.0743725 0.0682231
0.1387350 0.0784314 0.0689250
0.1775390 0.0858930 0.0693065
0.2353250 0.0945144 0.0680552
0.3114210 0.1071790 0.0672007
0.4143430 0.1267110 0.0786297
0.5192190 0.1452960 0.0876631
0.5981990 0.1581140 0.0940108
0.6633400 0.1640960 0.0947738
0.7306780 0.1713740 0.0976577
0.7880520 0.1763180 0.1018080
0.8395210 0.1841000 0.1033950
0.8809950 0.1876550 0.1046770
0.9099110 0.1884490 0.1068890
0.9355610 0.1887080 0.1063860
0.9648430 0.1890590 0.1066910
0.9764100 0.1891970 0.1067980
0.9764100 0.1891970 0.1067980
0.9764100 0.1891970 0.1067980
0.9764100 0.1891970 0.1067980
0.9764100 0.1891970 0.1067980
0.9764100 0.1891970 0.1067980
0.9764100 0.1891970 0.1067980
0.9764100 0.1891970 0.1067980
0.9764100 0.1891970 0.1067980
0.9764100 0.1891970 0.1067980
0.9764100 0.1891970 0.1067980
0.9764100 0.1891970 0.1067980
0.9764100 0.1891970 0.1067980
0.0802472 0.0737316 0.0676890
0.0802472 0.0737316 0.0676890
0.0802472 0.0737316 0.0676890
0.0802472 0.0737316 0.0676890
0.0945754 0.0739452 0.0678721
0.1217820 0.0759289 0.0691081
0.1611050 0.0831617 0.0691386
0.2171510 0.0919661 0.0693217
0.2899520 0.1035170 0.0644846
0.3992980 0.1233690 0.0772869
0.5077290 0.1440910 0.0867781
0.5911190 0.1567710 0.0934462
0.6588850 0.1636680 0.0948501
0.7265280 0.1709010 0.0971847
0.7855800 0.1760590 0.1016560
0.8372780 0.1837030 0.1033190
0.8802930 0.1877160 0.1045400
0.9089190 0.1884180 0.1068740
0.9346150 0.1886930 0.1063710
0.9639890 0.1890440 0.1066760
0.9764100 0.1891970 0.1067980
0.9764100 0.1891970 0.1067980
0.9764100 0.1891970 0.1067980
0.9764100 0.1891970 0.1067980
0.9764100 0.1891970 0.1067980
0.9764100 0.1891970 0.1067980
0.9764100 0.1891970 0.1067980
0.9764100 0.1891970 0.1067980
0.9764100 0.1891970 0.1067980
0.9764100 0.1891970 0.1067980
0.9764100 0.1891970 0.1067980
0.9764100 0.1891970 0.1067980
0.9764100 0.1891970 0.1067980
0.0803082 0.0889296 0.0677806
0.0803540 0.0867475 0.0677806
0.0803388 0.0847334 0.0677653
0.0803235 0.0826734 0.0677501
0.0858473 0.0805371 0.0677043
0.1100020 0.0794232 0.0685588
0.1470970 0.0825971 0.0687877
0.1993290 0.0892653 0.0693675
0.2727090 0.1005420 0.0647440
0.3821470 0.1199210 0.0754253
0.4957660 0.1428240 0.0858778
0.5838250 0.1553830 0.0928664
0.6540630 0.1631800 0.0948959
0.7221180 0.1704130 0.0967422
0.7830320 0.1757990 0.1015180
0.8349890 0.1832910 0.1032430
0.8794540 0.1877470 0.1044170
0.9079120 0.1883880 0.1068740
0.9336840 0.1886780 0.1063710
0.9631190 0.1890290 0.1066610
0.9764100 0.1891970 0.1067980
0.9764100 0.1891970 0.1067980
0.9764100 0.1891970 0.1067980
0.9764100 0.1891970 0.1067980
0.9764100 0.1891970 0.1067980
0.9764100 0.1891970 0.1067980
0.9764100 0.1891970 0.1067980
0.9764100 0.1891970 0.1067980
0.9764100 0.1891970 0.1067980
0.9764100 0.1891970 0.1067980
0.9764100 0.1891970 0.1067980
0.9764100 0.1891970 0.1067980
0.9764100 0.1891970 0.1067980
0.0778058 0.1044020 0.0646525
0.0787366 0.1032580 0.0661784
0.0793927 0.1016400 0.0670481
0.0799573 0.0998550 0.0677501
0.0800641 0.0973831 0.0677195
0.1004960 0.0953994 0.0679789
0.1331040 0.0961776 0.0687724
0.1785150 0.1022200 0.0689555
0.2516210 0.1101090 0.0663157
0.3584650 0.1248650 0.0722057
0.4818650 0.1435260 0.0846571
0.5762880 0.1539330 0.0922713
0.6490270 0.1627220 0.0949111
0.7176930 0.1699400 0.0962997
0.7803460 0.1756010 0.1014270
0.8327150 0.1828950 0.1032120
0.8785990 0.1877620 0.1043110
0.9069050 0.1883570 0.1068590
0.9327230 0.1886780 0.1063550
0.9622640 0.1890290 0.1066610
0.9764100 0.1891970 0.1067980
0.9764100 0.1891970 0.1067980
0.9764100 0.1891970 0.1067980
0.9764100 0.1891970 0.1067980
0.9764100 0.1891970 0.1067980
0.9764100 0.1891970 0.1067980
0.9764100 0.1891970 0.1067980
0.9764100 0.1891970 0.1067980
0.9764100 0.1891970 0.1067980
0.9764100 0.1891970 0.1067980
0.9764100 0.1891970 0.1067980
0.9764100 0.1891970 0.1067980
0.9764100 0.1891970 0.1067980
0.0700236 0.1143510 0.0393225
0.0697948 0.1106430 0.0390173
0.0695354 0.1067670 0.0387121
0.0693370 0.1029530 0.0386816
0.0711528 0.1034100 0.0458228
0.0832532 0.1038830 0.0525368
0.1108260 0.1045090 0.0576944
0.1570310 0.1126420 0.0655070
0.2315400 0.1236900 0.0665446
0.3370110 0.1395280 0.0705730
0.4619360 0.1583120 0.0834669
0.5667200 0.1645690 0.0912642
0.6435030 0.1638670 0.0947890
0.7132520 0.1694670 0.0958572
0.7776610 0.1753870 0.1013350
0.8304420 0.1825130 0.1031820
0.8777750 0.1878080 0.1041890
0.9058820 0.1883270 0.1068440
0.9317920 0.1886630 0.1063550
0.9613950 0.1890140 0.1066450
0.9764100 0.1891970 0.1067980
0.9764100 0.1891970 0.1067980
0.9764100 0.1891970 0.1067980
0.9764100 0.1891970 0.1067980
0.9764100 0.1891970 0.1067980
0.9764100 0.1891970 0.1067980
0.9764100 0.1891970 0.1067980
0.9764100 0.1891970 0.1067980
0.9764100 0.1891970 0.1067980
0.9764100 0.1891970 0.1067980
0.9764100 0.1891970 0.1067980
0.9764100 0.1891970 0.1067980
0.9764100 0.1891970 0.1067980
0.0734722 0.1454180 0.0454261
0.0731060 0.1422900 0.0445411
0.0727092 0.1390550 0.0436255
0.0722972 0.1356980 0.0426642
0.0718853 0.1324180 0.0419471
0.0716564 0.1291070 0.0412757
0.0938888 0.1255050 0.0404059
0.1345690 0.1253830 0.0460822
0.1934540 0.1324480 0.0512245
0.2820480 0.1451440 0.0565499
0.4311890 0.1684900 0.0731670
0.5533990 0.1835970 0.0882124
0.6359040 0.1850000 0.0948653
0.7055010 0.1783170 0.0950484
0.7743190 0.1751430 0.1011980
0.8276650 0.1820250 0.1031360
0.8763410 0.1877780 0.1041120
0.9046620 0.1882960 0.1068440
0.9306320 0.1886470 0.1063400
0.9603420 0.1889980 0.1066300
0.9764100 0.1891970 0.1067980
0.9764100 0.1891970 0.1067980
0.9764100 0.1891970 0.1067980
0.9764100 0.1891970 0.1067980
0.9764100 0.1891970 0.1067980
0.9764100 0.1891970 0.1067980
0.9764100 0.1891970 0.1067980
0.9764100 0.1891970 0.1067980
0.9764100 0.1891970 0.1067980
0.9764100 0.1891970 0.1067980
0.9764100 0.1891970 0.1067980
0.9764100 0.1891970 0.1067980
0.9764100 0.1891970 0.1067980
0.0783703 0.1906310 0.0621347
0.0780041 0.1864960 0.0603342
0.0776074 0.1825280 0.0588083
0.0771954 0.1784700 0.0572213
0.0768444 0.1745170 0.0556649
0.0764935 0.1707180 0.0542611
0.0850690 0.1672240 0.0531014
0.1122760 0.1620200 0.0502022
0.1796900 0.1695120 0.0619211
0.2577100 0.1772640 0.0625010
0.3902340 0.1924770 0.0703288
0.5173570 0.2054470 0.0789807
0.6196540 0.2073850 0.0852216
0.7010300 0.2041050 0.0914931
0.7687040 0.1954530 0.1000530
0.8236970 0.1833980 0.1029530
0.8738540 0.1876550 0.1041120
0.9026780 0.1881590 0.1067670
0.9290910 0.1886320 0.1063250
0.9589530 0.1889830 0.1066300
0.9764100 0.1891970 0.1067980
0.9764100 0.1891970 0.1067980
0.9764100 0.1891970 0.1067980
0.9764100 0.1891970 0.1067980
0.9764100 0.1891970 0.1067980
0.9764100 0.1891970 0.1067980
0.9764100 0.1891970 0.1067980
0.9764100 0.1891970 0.1067980
0.9764100 0.1891970 0.1067980
0.9764100 0.1891970 0.1067980
0.9764100 0.1891970 0.1067980
0.9764100 0.1891970 0.1067980
0.9764100 0.1891970 0.1067980
0.0794995 0.2631880 0.0880293
0.0795758 0.2593120 0.0870527
0.0796826 0.2546120 0.0858015
0.0798047 0.2496530 0.0844434
0.0798962 0.2445410 0.0829633
0.0799878 0.2393990 0.0814527
0.0800793 0.2342410 0.0799573
0.0996109 0.2317390 0.0797589
0.1398340 0.2289460 0.0730297
0.2688640 0.2578470 0.0811933
0.3746700 0.2483710 0.0807813
0.4815140 0.2435030 0.0849012
0.5862970 0.2424660 0.0869612
0.6859540 0.2352940 0.0904097
0.7656060 0.2288090 0.0926223
0.8184330 0.2152440 0.0995346
0.8690780 0.2017090 0.1031970
0.8999770 0.1879610 0.1066450
0.9272750 0.1886020 0.1063400
0.9570920 0.1889680 0.1066000
0.9764100 0.1891970 0.1067980
0.9764100 0.1891970 0.1067980
0.9764100 0.1891970 0.1067980
0.9764100 0.1891970 0.1067980
0.9764100 0.1891970 0.1067980
0.9764100 0.1891970 0.1067980
0.9764100 0.1891970 0.1067980
0.9764100 0.1891970 0.1067980
0.9764100 0.1891970 0.1067980
0.9764100 0.1891970 0.1067980
0.9764100 0.1891970 0.1067980
0.9764100 0.1891970 0.1067980
0.9764100 0.1891970 0.1067980
0.0872206 0.3298700 0.1081710
0.0867933 0.3275350 0.1073930
0.0863508 0.3251240 0.1066000
0.0859236 0.3226370 0.1058060
0.0854810 0.3200580 0.1049670
0.0850233 0.3174490 0.1041280
0.0845350 0.3147630 0.1032580
0.0839704 0.3115280 0.1022200
0.1128860 0.3064470 0.0987869
0.1689330 0.3030440 0.0920577
0.3559470 0.3457690 0.1038070
0.4560460 0.3185930 0.1028000
0.5639730 0.3084150 0.1054550
0.6584880 0.2945300 0.1020980
0.7500110 0.2743720 0.0983444
0.8187080 0.2572060 0.0983597
0.8678870 0.2428630 0.0999771
0.8949870 0.2222170 0.1035930
0.9244070 0.1989620 0.1057140
0.9546650 0.1889370 0.1065840
0.9764100 0.1891970 0.1067980
0.9764100 0.1891970 0.1067980
0.9764100 0.1891970 0.1067980
0.9764100 0.1891970 0.1067980
0.9764100 0.1891970 0.1067980
0.9764100 0.1891970 0.1067980
0.9764100 0.1891970 0.1067980
0.9764100 0.1891970 0.1067980
0.9764100 0.1891970 0.1067980
0.9764100 0.1891970 0.1067980
0.9764100 0.1891970 0.1067980
0.9764100 0.1891970 0.1067980
0.9764100 0.1891970 0.1067980
0.0970321 0.3890590 0.1268790
0.0967422 0.3870450 0.1262990
0.0964675 0.3850460 0.1257340
0.0961776 0.3830010 0.1251540
0.0958877 0.3809410 0.1245750
0.0955825 0.3788660 0.1239800
0.0952773 0.3767610 0.1233690
0.0949111 0.3741970 0.1226370
0.0944381 0.3708090 0.1216750
0.1343710 0.3639280 0.1152210
0.2234840 0.3760740 0.1071340
0.4437780 0.4323030 0.1291520
0.5326470 0.3902340 0.1280230
0.6301820 0.3660330 0.1210960
0.7216300 0.3398790 0.1153120
0.7999850 0.3116040 0.1068740
0.8610360 0.2876480 0.1041580
0.8934620 0.2719010 0.1024950
0.9225910 0.2515600 0.1006180
0.9509730 0.2274050 0.1014720
0.9748380 0.2041200 0.1058060
0.9764100 0.1891970 0.1067980
0.9764100 0.1891970 0.1067980
0.9764100 0.1891970 0.1067980
0.9764100 0.1891970 0.1067980
0.9764100 0.1891970 0.1067980
0.9764100 0.1891970 0.1067980
0.9764100 0.1891970 0.1067980
0.9764100 0.1891970 0.1067980
0.9764100 0.1891970 0.1067980
0.9764100 0.1891970 0.1067980
0.9764100 0.1891970 0.1067980
0.9764100 0.1891970 0.1067980
0.1085070 0.4526590 0.1438470
0.1081410 0.4510870 0.1434650
0.1077740 0.4494700 0.1430690
0.1074080 0.4478520 0.1426720
0.1070120 0.4461890 0.1422750
0.1066300 0.4445110 0.1418630
0.1062490 0.4428470 0.1414510
0.1057910 0.4408030 0.1409630
0.1051960 0.4381480 0.1403220
0.1121690 0.4370030 0.1400320
0.1659570 0.4314030 0.1322500
0.2783700 0.4471810 0.1185630
0.5249710 0.5076370 0.1504690
0.6041810 0.4572980 0.1452510
0.6969710 0.4277560 0.1400630
0.7826960 0.3982450 0.1329370
0.8467990 0.3563740 0.1179680
0.8889910 0.3305100 0.1112690
0.9224690 0.3116960 0.1080800
0.9496910 0.2902720 0.1045400
0.9768520 0.2698860 0.1020520
0.9765770 0.2484930 0.1009230
0.9757380 0.2272980 0.1018080
0.9746850 0.2098120 0.1056690
0.9756770 0.1934230 0.1063860
0.9764100 0.1891970 0.1067980
0.9764100 0.1891970 0.1067980
0.9764100 0.1891970 0.1067980
0.9764100 0.1891970 0.1067980
0.9764100 0.1891970 0.1067980
0.9764100 0.1891970 0.1067980
0.9764100 0.1891970 0.1067980
0.9764100 0.1891970 0.1067980
0.1223620 0.5150990 0.1561150
0.1221640 0.5140760 0.1559620
0.1219650 0.5130240 0.1558250
0.1217520 0.5119400 0.1556730
0.1215530 0.5108720 0.1555350
0.1213090 0.5096820 0.1553520
0.1210040 0.5083090 0.1550930
0.1206230 0.5065840 0.1547880
0.1201190 0.5043260 0.1543760
0.1194780 0.5013660 0.1538570
0.1393150 0.5027540 0.1532460
0.1953150 0.4959330 0.1434350
0.3557790 0.5252160 0.1330890
0.5971310 0.5708400 0.1657890
0.6762490 0.5295640 0.1629970
0.7563900 0.4951400 0.1620200
0.8278170 0.4560460 0.1477840
0.8866870 0.4126500 0.1318070
0.9180900 0.3857940 0.1235830
0.9453270 0.3639430 0.1175400
0.9738160 0.3417410 0.1125050
0.9791100 0.3235520 0.1099410
0.9794920 0.3060350 0.1071950
0.9783630 0.2892960 0.1046010
0.9765160 0.2752730 0.1025560
0.9763330 0.2647140 0.1017010
0.9763330 0.2550240 0.1012130
0.9767910 0.2468760 0.1008770
0.9776460 0.2402990 0.1006490
0.9776300 0.2346990 0.1003430
0.9767450 0.2307320 0.1005570
0.9760430 0.2281070 0.1012130
0.9755090 0.2266270 0.1022810
0.1335010 0.5769130 0.1658200
0.1333180 0.5758300 0.1656520
0.1331350 0.5747310 0.1654840
0.1329370 0.5736170 0.1653310
0.1327530 0.5724880 0.1651480
0.1325550 0.5713440 0.1649810
0.1323570 0.5701990 0.1648130
0.1321430 0.5688560 0.1646140
0.1318230 0.5670250 0.1643400
0.1314720 0.5647970 0.1640040
0.1310900 0.5621880 0.1636380
0.1679560 0.5621420 0.1611510
0.2328830 0.5533070 0.1450060
0.4518810 0.5991610 0.1517970
0.6623180 0.6408480 0.1857940
0.7430380 0.5996340 0.1802090
0.8131530 0.5602500 0.1793850
0.8737320 0.5190360 0.1671780
0.9122000 0.4916000 0.1584040
0.9388110 0.4662090 0.1493550
0.9678800 0.4415050 0.1412530
0.9795530 0.4205690 0.1334550
0.9789430 0.4002290 0.1275350
0.9788510 0.3823300 0.1225300
0.9791260 0.3672390 0.1185780
0.9792170 0.3536430 0.1151900
0.9792630 0.3446710 0.1131910
0.9794610 0.3377890 0.1118180
0.9790490 0.3327380 0.1112080
0.9788820 0.3287860 0.1107190
0.9790040 0.3258260 0.1102770
0.9791100 0.3235370 0.1099410
0.9791870 0.3217670 0.1096820
0.1431140 0.6362860 0.1761200
0.1429470 0.6355840 0.1760280
0.1427790 0.6348820 0.1759370
0.1425960 0.6341500 0.1758450
0.1424430 0.6333100 0.1756920
0.1423060 0.6324250 0.1755090
0.1421530 0.6315400 0.1753410
0.1419850 0.6304880 0.1751430
0.1417560 0.6290530 0.1748530
0.1414510 0.6271610 0.1744870
0.1410850 0.6248110 0.1740440
0.1406580 0.6219580 0.1735710
0.1999540 0.6176390 0.1649350
0.2724040 0.6097810 0.1477840
0.5454030 0.6770430 0.1733880
0.7300830 0.7014420 0.2020450
0.8075230 0.6658730 0.1940800
0.8634160 0.6256810 0.1910120
0.9072860 0.5951480 0.1847560
0.9369650 0.5765930 0.1798430
0.9652090 0.5583120 0.1753110
0.9827420 0.5396960 0.1704280
0.9807580 0.5217980 0.1654540
0.9799950 0.5051190 0.1611810
0.9799190 0.4907450 0.1574430
0.9794770 0.4784310 0.1535970
0.9792020 0.4674600 0.1499660
0.9792320 0.4580610 0.1468680
0.9793550 0.4508890 0.1445940
0.9794310 0.4459600 0.1429310
0.9794460 0.4426030 0.1417110
0.9794610 0.4400400 0.1407800
0.9794770 0.4381020 0.1400780
0.1537960 0.6857860 0.1798730
0.1537350 0.6852060 0.1798580
0.1536580 0.6846420 0.1798430
0.1535820 0.6840470 0.1798280
0.1535210 0.6834670 0.1798120
0.1534450 0.6828720 0.1797970
0.1533840 0.6822920 0.1797670
0.1532920 0.6815750 0.1797510
0.1531850 0.6806290 0.1797210
0.1530330 0.6793930 0.1796900
0.1528340 0.6777450 0.1796440
0.1525750 0.6756240 0.1795830
0.1522550 0.6729230 0.1795070
0.2329590 0.6728920 0.1773860
0.3407640 0.6738840 0.1469750
0.6411230 0.7421990 0.1936370
0.7931490 0.7576560 0.2171820
0.8602580 0.7289230 0.2083160
0.9081250 0.6982380 0.2060120
0.9409480 0.6814220 0.2027310
0.9671470 0.6645300 0.1987490
0.9905550 0.6495310 0.1961240
0.9896540 0.6348820 0.1933930
0.9885400 0.6216980 0.1905700
0.9874720 0.6108950 0.1880670
0.9866790 0.6016940 0.1859920
0.9862360 0.5937740 0.1841760
0.9859310 0.5872280 0.1826050
0.9856720 0.5821770 0.1813990
0.9854280 0.5785150 0.1805140
0.9852290 0.5756620 0.1797970
0.9850770 0.5735260 0.1792780
0.9849700 0.5718780 0.1788660
0.1592580 0.7353780 0.1852290
0.1591970 0.7348740 0.1851070
0.1591210 0.7343560 0.1849700
0.1590450 0.7338370 0.1848330
0.1589840 0.7333180 0.1847100
0.1589230 0.7327840 0.1846190
0.1588770 0.7322800 0.1845580
0.1588160 0.7316400 0.1844820
0.1587400 0.7308000 0.1843750
0.1586330 0.7296860 0.1842370
0.1585110 0.7282520 0.1840700
0.1583280 0.7263750 0.1838410
0.1580530 0.7237350 0.1834740
0.1707640 0.7196000 0.1824520
0.2739300 0.7154190 0.1698940
0.4400850 0.7357590 0.1578390
0.7248040 0.8085300 0.2160680
0.8422680 0.8085450 0.2277560
0.9049820 0.7862060 0.2173040
0.9421680 0.7737390 0.2208130
0.9720450 0.7632260 0.2195930
0.9985050 0.7518270 0.2176240
1.0000000 0.7408560 0.2155790
1.0000000 0.7311670 0.2137480
1.0000000 0.7218590 0.2117490
1.0000000 0.7138480 0.2098880
1.0000000 0.7075300 0.2084380
1.0000000 0.7025410 0.2072940
1.0000000 0.6986040 0.2063940
1.0000000 0.6954760 0.2057070
0.9997560 0.6930490 0.2052030
0.9994510 0.6911570 0.2048070
0.9992370 0.6897540 0.2045170
0.1635770 0.7767910 0.1895170
0.1635920 0.7764710 0.1896540
0.1636380 0.7761650 0.1897920
0.1636680 0.7758300 0.1899440
0.1636990 0.7755090 0.1900820
0.1637290 0.7751740 0.1902190
0.1637600 0.7748530 0.1903720
0.1637900 0.7744560 0.1905390
0.1638510 0.7739220 0.1907680
0.1639120 0.7732360 0.1910730
0.1639580 0.7722740 0.1913940
0.1640040 0.7710380 0.1917910
0.1640800 0.7694510 0.1923090
0.1641720 0.7674370 0.1929660
0.2229190 0.7642020 0.1875030
0.3221480 0.7636380 0.1631340
0.5530940 0.8001530 0.1748530
0.7965820 0.8598920 0.2281680
0.8885020 0.8479900 0.2305940
0.9344780 0.8369420 0.2284890
0.9634240 0.8295410 0.2267340
0.9912260 0.8225220 0.2252540
1.0000000 0.8157930 0.2239570
1.0000000 0.8099950 0.2233620
1.0000000 0.8049130 0.2229190
1.0000000 0.7999850 0.2226290
1.0000000 0.7959560 0.2224160
1.0000000 0.7927670 0.2222480
1.0000000 0.7902340 0.2221100
1.0000000 0.7882660 0.2220190
1.0000000 0.7867700 0.2219880
1.0000000 0.7856410 0.2219580
1.0000000 0.7847720 0.2219420
0.1665370 0.8088040 0.1879450
0.1664910 0.8084990 0.1879610
0.1664300 0.8081940 0.1879910
0.1663840 0.8078740 0.1880220
0.1663390 0.8075530 0.1880520
0.1662780 0.8072330 0.1880830
0.1662170 0.8069120 0.1881130
0.1661550 0.8065160 0.1881440
0.1660790 0.8060120 0.1881900
0.1659570 0.8053250 0.1882510
0.1658200 0.8044400 0.1883270
0.1656370 0.8032810 0.1884180
0.1653930 0.8018010 0.1885560
0.1650720 0.7999390 0.1887240
0.1647820 0.7976040 0.1888150
0.2719160 0.7967500 0.1805750
0.3768220 0.7978480 0.1565730
0.6911420 0.8701460 0.2072940
0.8641180 0.9039750 0.2455020
0.9195700 0.8864880 0.2374910
0.9514310 0.8791030 0.2353400
0.9807430 0.8736250 0.2343790
1.0000000 0.8684060 0.2334480
1.0000000 0.8635390 0.2325320
1.0000000 0.8593270 0.2317690
1.0000000 0.8558940 0.2311890
1.0000000 0.8532230 0.2307470
1.0000000 0.8511330 0.2304720
1.0000000 0.8495000 0.2302890
1.0000000 0.8482190 0.2301370
1.0000000 0.8472570 0.2300150
1.0000000 0.8465100 0.2299230
1.0000000 0.8459450 0.2298620
0.1729460 0.8396730 0.1845880
0.1728390 0.8393990 0.1846190
0.1727320 0.8391240 0.1846650
0.1726250 0.8388490 0.1846950
0.1725340 0.8385600 0.1847260
0.1724270 0.8382850 0.1847710
0.1723050 0.8379950 0.1848170
0.1721830 0.8376590 0.1848630
0.1720150 0.8372010 0.1849240
0.1718780 0.8365760 0.1849850
0.1717400 0.8357670 0.1850460
0.1715570 0.8346840 0.1851530
0.1713440 0.8333260 0.1852600
0.1710690 0.8316010 0.1854120
0.1707180 0.8294650 0.1855950
0.2108030 0.8271310 0.1848170
0.3358210 0.8282140 0.1680780
0.5692070 0.8671090 0.1807580
0.8162200 0.9235220 0.2356300
0.9049820 0.9207450 0.2450900
0.9409020 0.9140150 0.2399790
0.9691310 0.9102310 0.2392160
0.9944000 0.9067060 0.2388950
1.0000000 0.9035780 0.2386210
1.0000000 0.9008470 0.2383460
1.0000000 0.8985730 0.2381320
1.0000000 0.8967120 0.2379490
1.0000000 0.8952010 0.2377810
1.0000000 0.8940110 0.2376440
1.0000000 0.8930950 0.2375520
1.0000000 0.8923930 0.2374760
1.0000000 0.8918440 0.2374150
1.0000000 0.8914630 0.2373690
0.1826810 0.8646520 0.1810480
0.1825590 0.8643930 0.1810940
0.1824520 0.8641180 0.1811400
0.1823610 0.8638590 0.1811700
0.1822390 0.8636000 0.1812160
0.1821160 0.8633250 0.1812620
0.1820100 0.8630500 0.1813080
0.1818720 0.8627300 0.1813530
0.1817040 0.8623030 0.1814150
0.1814760 0.8617380 0.1814910
0.1811550 0.8609900 0.1816130
0.1807740 0.8600290 0.1817500
0.1802850 0.8588080 0.1819330
0.1796750 0.8572520 0.1821470
0.1789270 0.8553440 0.1824220
0.1780270 0.8530400 0.1827420
0.2915690 0.8518350 0.1777070
0.4244450 0.8565960 0.1613640
0.7491720 0.9331500 0.2230870
0.8872510 0.9477070 0.2493930
0.9290610 0.9387500 0.2422520
0.9572140 0.9361870 0.2415200
0.9835200 0.9338980 0.2415660
1.0000000 0.9314870 0.2414280
1.0000000 0.9292130 0.2412150
1.0000000 0.9273060 0.2410320
1.0000000 0.9257650 0.2408940
1.0000000 0.9245290 0.2407720
1.0000000 0.9235680 0.2406650
1.0000000 0.9228200 0.2406040
1.0000000 0.9222550 0.2405430
1.0000000 0.9218280 0.2404970
1.0000000 0.9214920 0.2404670
0.1915310 0.8861370 0.1779050
0.1914850 0.8859390 0.1779200
0.1914400 0.8857400 0.1779200
0.1913790 0.8855270 0.1779350
0.1913330 0.8853280 0.1779350
0.1912870 0.8851150 0.1779510
0.1912410 0.8849010 0.1779510
0.1911800 0.8846570 0.1779660
0.1910890 0.8843210 0.1779810
0.1908750 0.8837870 0.1780580
0.1905550 0.8830550 0.1781800
0.1901580 0.8821390 0.1783170
0.1896240 0.8809490 0.1785150
0.1889680 0.8794540 0.1787590
0.1881740 0.8775920 0.1790490
0.1871820 0.8753490 0.1794160
0.2459450 0.8725110 0.1780580
0.3735870 0.8747390 0.1645230
0.6688640 0.9324790 0.2044860
0.8598920 0.9670100 0.2459600
0.9198290 0.9565420 0.2440990
0.9459980 0.9534600 0.2414430
0.9727170 0.9510490 0.2413670
0.9948120 0.9490960 0.2413980
1.0000000 0.9474780 0.2414280
1.0000000 0.9461360 0.2414590
1.0000000 0.9450370 0.2414740
1.0000000 0.9441670 0.2414890
1.0000000 0.9434960 0.2414890
1.0000000 0.9429770 0.2415050
1.0000000 0.9425650 0.2415050
1.0000000 0.9422600 0.2415050
1.0000000 0.9420310 0.2415200
0.1934230 0.8941330 0.1775690
0.1934230 0.8941330 0.1775690
0.1934230 0.8941330 0.1775690
0.1934230 0.8941330 0.1775690
0.1934230 0.8941330 0.1775690
0.1934230 0.8941330 0.1775690
0.1934230 0.8941330 0.1775690
0.1934230 0.8941330 0.1775690
0.1934230 0.8941330 0.1775690
0.1934230 0.8941330 0.1775690
0.1934230 0.8941330 0.1775690
0.1934230 0.8941330 0.1775690
0.1934230 0.8941330 0.1775690
0.1934230 0.8941330 0.1775690
0.1934080 0.8941330 0.1775690
0.1930110 0.8923930 0.1776300
0.1925230 0.8903640 0.1777220
0.3402000 0.8902420 0.1712210
0.5713280 0.9238880 0.1823760
0.8194250 0.9767150 0.2367280
0.9071950 0.9738160 0.2465250
0.9383990 0.9692680 0.2419010
0.9638360 0.9669340 0.2413980
0.9864500 0.9649200 0.2413980
1.0000000 0.9631950 0.2413980
1.0000000 0.9617610 0.2414130
1.0000000 0.9606010 0.2414130
1.0000000 0.9596700 0.2413980
1.0000000 0.9589530 0.2413980
1.0000000 0.9583890 0.2413980
1.0000000 0.9579770 0.2413980
1.0000000 0.9576410 0.2413980
1.0000000 0.9573970 0.2413980
0.1934230 0.8941330 0.1775690
0.1934230 0.8941330 0.1775690
0.1934230 0.8941330 0.1775690
0.1934230 0.8941330 0.1775690
0.1934230 0.8941330 0.1775690
0.1934230 0.8941330 0.1775690
